(Alle bonder )
(Machine)
(  vendor: Autodesk)
(  model: Generic 3-axis)
(  description: This machine has XYZ axis on the Head)
(T2  D=3. CR=0. - ZMIN=0. - flat end mill)
G90

(2D Contour5)
T2 M6 (flat end mill D=3.)
S15000 M3
G64
G54
G43 H2
G0 Z30.
G0 X143.253 Y105.047
Z31.243
Z21.243
G1 Z17.243 F133.3
Z0.55
X143.259 Y105.043 Z0.483 F400
X143.277 Y105.03 Z0.42
X143.306 Y105.01 Z0.363
X143.345 Y104.982 Z0.315
X143.391 Y104.949 Z0.28
X143.443 Y104.912 Z0.258
X143.497 Y104.873 Z0.25
X143.742 Y104.699
G3 X144.16 Y104.77 I0.174 J0.244
G1 X144.18 Y104.797
X144.401 Y105.095
X144.481 Y105.196
X144.724 Y105.479
X144.805 Y105.567
X145.068 Y105.835
X145.148 Y105.911
X145.43 Y106.165
X145.511 Y106.234
X145.811 Y106.474
X145.885 Y106.53
X146.201 Y106.757
X146.279 Y106.81
X146.611 Y107.023
X146.686 Y107.069
X147.034 Y107.269
X147.108 Y107.309
X147.47 Y107.495
X147.546 Y107.532
X147.923 Y107.704
X147.997 Y107.735
X148.389 Y107.893
X148.466 Y107.923
X148.871 Y108.065
X148.943 Y108.088
X149.364 Y108.216
X149.442 Y108.238
X149.876 Y108.349
X149.941 Y108.364
X150.389 Y108.461
X150.464 Y108.476
X150.927 Y108.556
X150.993 Y108.566
X151.469 Y108.63
X151.53 Y108.637
X152.021 Y108.686
X152.086 Y108.691
X152.59 Y108.723
X152.645 Y108.726
X153.163 Y108.743
X153.222 Y108.744
X153.754
X153.774
X156.243 Y108.716
X158.711 Y108.744
X158.731
X159.263
X159.322 Y108.743
X159.84 Y108.726
X159.895 Y108.723
X160.399 Y108.691
X160.464 Y108.686
X160.955 Y108.637
X161.016 Y108.63
X161.492 Y108.566
X161.558 Y108.556
X162.021 Y108.476
X162.096 Y108.461
X162.544 Y108.364
X162.609 Y108.349
X163.043 Y108.238
X163.121 Y108.216
X163.542 Y108.088
X163.614 Y108.065
X164.019 Y107.923
X164.096 Y107.893
X164.488 Y107.735
X164.562 Y107.704
X164.939 Y107.532
X165.015 Y107.495
X165.377 Y107.309
X165.451 Y107.269
X165.799 Y107.069
X165.874 Y107.023
X166.206 Y106.81
X166.284 Y106.757
X166.6 Y106.53
X166.674 Y106.474
X166.974 Y106.234
X167.055 Y106.165
X167.337 Y105.911
X167.417 Y105.835
X167.68 Y105.567
X167.761 Y105.479
X168.004 Y105.196
X168.084 Y105.095
X168.305 Y104.797
X168.385 Y104.679
X168.582 Y104.364
X168.655 Y104.236
X168.827 Y103.903
X168.889 Y103.771
X169.036 Y103.419
X169.088 Y103.279
X169.208 Y102.908
X169.246 Y102.773
X169.34 Y102.38
X169.366 Y102.249
X169.433 Y101.836
X169.448 Y101.721
X169.49 Y101.286
X169.497 Y101.18
X169.514 Y100.722
X169.515 Y100.636
X169.51 Y100.158
X169.508 Y100.083
X169.482 Y99.584
X169.477 Y99.522
X169.432 Y99.004
X169.427 Y98.95
X169.364 Y98.415
X169.358 Y98.372
X169.28 Y97.824
X169.275 Y97.788
X169.184 Y97.23
X169.177 Y97.192
X169.073 Y96.629
X169.067 Y96.599
X168.953 Y96.036
X168.946 Y96.002
X168.822 Y95.446
X168.814 Y95.41
X168.681 Y94.865
X168.671 Y94.829
X168.531 Y94.304
X168.519 Y94.26
X168.372 Y93.76
X168.354 Y93.703
X168.199 Y93.233
X168.176 Y93.167
X168.014 Y92.734
X167.99 Y92.672
X167.906 Y92.47
X167.885 Y92.423
X167.799 Y92.232
X167.774 Y92.18
X167.686 Y92.
X167.653 Y91.934
X167.562 Y91.766
X167.525 Y91.702
X167.432 Y91.546
X167.388 Y91.476
X167.293 Y91.332
X167.229 Y91.242
X167.13 Y91.11
X167.066 Y91.029
X166.965 Y90.91
X166.882 Y90.819
X166.778 Y90.712
X166.684 Y90.622
X166.577 Y90.527
X166.505 Y90.466
X166.674 Y90.401
X166.693 Y90.394
X167.02 Y90.264
X167.046 Y90.254
X167.349 Y90.128
X167.373 Y90.117
X167.654 Y89.996
X167.686 Y89.982
X167.944 Y89.865
X167.979 Y89.848
X168.214 Y89.735
X168.254 Y89.715
X168.467 Y89.606
X168.52 Y89.578
X168.709 Y89.473
X168.77 Y89.437
X168.936 Y89.336
X169.006 Y89.292
X169.15 Y89.195
X169.235 Y89.133
X169.357 Y89.04
X169.464 Y88.953
X169.564 Y88.864
X169.631 Y88.801
X169.695 Y88.735
X169.773 Y88.65
X169.854 Y88.555
X169.928 Y88.454
X169.984 Y88.373
G2 X170.135 Y88.108 I-1.483 J-1.02
G1 X170.171 Y88.03
G2 X170.297 Y87.653 I-1.634 J-0.755
G1 X170.313 Y87.579
G2 X170.351 Y87.125 I-1.76 J-0.378
G1 X170.348 Y87.054
G2 X170.255 Y86.553 I-1.798 J0.076
G1 X170.232 Y86.485
G2 X170.072 Y86.137 I-1.705 J0.577
G1 X170.033 Y86.072
G2 X169.829 Y85.795 I-1.545 J0.924
G1 X169.773 Y85.732
G2 X169.585 Y85.552 I-1.341 J1.201
G1 X169.513 Y85.492
X169.441 Y85.434
X169.365 Y85.38
X169.279 Y85.322
X169.166 Y85.252
X169.068 Y85.196
X168.967 Y85.143
X168.856 Y85.089
X168.752 Y85.042
X168.5 Y84.938
X168.404 Y84.901
X168.118 Y84.802
X168.055 Y84.781
X167.743 Y84.685
X167.699 Y84.672
X167.368 Y84.58
X167.335 Y84.571
X166.991 Y84.482
X166.949 Y84.472
X166.237 Y84.306
X166.183 Y84.294
X165.461 Y84.149
X165.399 Y84.138
X164.682 Y84.019
X164.612 Y84.009
X164.246 Y83.963
X164.28 Y83.645
X164.341 Y83.191
X164.413 Y82.756
X164.493 Y82.345
X164.583 Y81.957
X164.68 Y81.593
X164.786 Y81.255
X164.9 Y80.936
X165.021 Y80.64
X165.148 Y80.366
X165.279 Y80.115
X165.417 Y79.879
X165.561 Y79.659
X165.708 Y79.456
X165.863 Y79.262
X166.021 Y79.079
X166.185 Y78.906
X166.352 Y78.741
X166.523 Y78.583
X166.695 Y78.434
X166.869 Y78.29
X167.042 Y78.154
X167.21 Y78.028
X167.376 Y77.907
X167.538 Y77.795
X167.692 Y77.692
X167.836 Y77.6
X167.974 Y77.516
X168.123 Y77.429
G2 X168.772 Y74.967 I-0.906 J-1.555
X168.284 Y74.424 I-1.555 J0.906
G1 X168.125 Y74.307
X168.041 Y74.233
X167.966 Y74.154
X167.897 Y74.066
X167.831 Y73.966
X167.767 Y73.848
X167.708 Y73.714
X167.655 Y73.562
X167.608 Y73.393
X167.57 Y73.209
X167.541 Y73.009
X167.523 Y72.806
X167.517 Y72.606
X167.523 Y72.408
X167.539 Y72.22
X167.564 Y72.048
X167.597 Y71.894
X167.634 Y71.764
X167.677 Y71.648
X167.727 Y71.538
X167.785 Y71.429
X167.85 Y71.325
X168.084 Y70.998
X168.22 Y70.822
X168.38 Y70.614
X168.39 Y70.602
X168.559 Y70.379
X168.573 Y70.36
X168.748 Y70.123
X168.772 Y70.09
X168.95 Y69.837
X168.973 Y69.803
X169.153 Y69.535
X169.169 Y69.511
X169.352 Y69.228
X169.368 Y69.202
X169.552 Y68.907
X169.57 Y68.878
X169.937 Y68.264
X169.952 Y68.239
X170.311 Y67.616
X170.315 Y67.608
X170.659 Y67.004
X170.823 Y66.716
X170.827 Y66.71
X170.983 Y66.433
X170.984 Y66.432
X171.133 Y66.167
X171.145 Y66.145
X171.283 Y65.891
X171.295 Y65.868
X171.423 Y65.625
X171.444 Y65.583
X171.56 Y65.348
X171.588 Y65.29
X171.691 Y65.061
X171.723 Y64.985
X171.812 Y64.76
X171.844 Y64.672
X171.919 Y64.449
X171.953 Y64.336
X172.012 Y64.114
X172.037 Y64.007
X172.082 Y63.783
X172.102 Y63.658
X172.131 Y63.432
X172.142 Y63.329
X172.158 Y63.101
X172.162 Y62.991
X172.164 Y62.76
X172.162 Y62.667
X172.152 Y62.435
X172.146 Y62.344
X172.124 Y62.111
X172.11 Y61.998
X172.036 Y61.532
X172.013 Y61.416
X172.082 Y61.357
X172.147 Y61.295
X172.757 Y60.685
G2 X173.285 Y59.412 I-1.272 J-1.273
G1 Y57.583
G2 X172.757 Y56.31 I-1.8 J0.
G1 X172.147 Y55.7
G2 X170.875 Y55.173 I-1.272 J1.273
G1 X141.61
G2 X140.338 Y55.7 I0. J1.8
G1 X139.728 Y56.31
G2 X139.2 Y57.583 I1.272 J1.273
G1 Y59.412
G2 X139.728 Y60.685 I1.8 J0.
G1 X140.338 Y61.295
X140.403 Y61.357
X140.472 Y61.416
X140.449 Y61.532
X140.375 Y61.998
X140.361 Y62.111
X140.339 Y62.344
X140.333 Y62.435
X140.323 Y62.667
X140.321 Y62.76
X140.323 Y62.991
X140.327 Y63.101
X140.343 Y63.329
X140.354 Y63.432
X140.383 Y63.658
X140.403 Y63.783
X140.448 Y64.007
X140.473 Y64.114
X140.532 Y64.336
X140.566 Y64.449
X140.641 Y64.672
X140.673 Y64.76
X140.762 Y64.985
X140.794 Y65.061
X140.897 Y65.29
X140.925 Y65.348
X141.041 Y65.583
X141.062 Y65.625
X141.19 Y65.868
X141.202 Y65.891
X141.34 Y66.145
X141.352 Y66.167
X141.501 Y66.432
X141.502 Y66.433
X141.658 Y66.71
X141.662 Y66.716
X141.826 Y67.004
X142.17 Y67.608
X142.174 Y67.616
X142.533 Y68.239
X142.548 Y68.264
X142.915 Y68.878
X142.933 Y68.907
X143.117 Y69.202
X143.133 Y69.228
X143.316 Y69.511
X143.332 Y69.535
X143.512 Y69.803
X143.535 Y69.837
X143.713 Y70.09
X143.737 Y70.123
X143.912 Y70.36
X143.926 Y70.379
X144.095 Y70.602
X144.105 Y70.614
X144.265 Y70.822
X144.401 Y70.998
X144.635 Y71.325
X144.7 Y71.429
X144.758 Y71.538
X144.808 Y71.648
X144.851 Y71.764
X144.888 Y71.894
X144.921 Y72.048
X144.946 Y72.22
X144.962 Y72.408
X144.968 Y72.606
X144.962 Y72.806
X144.944 Y73.009
X144.915 Y73.209
X144.877 Y73.393
X144.83 Y73.562
X144.777 Y73.714
X144.718 Y73.848
X144.654 Y73.966
X144.588 Y74.066
X144.519 Y74.154
X144.444 Y74.233
X144.36 Y74.307
X144.201 Y74.424
G2 X143.818 Y76.94 I1.067 J1.45
X144.362 Y77.429 I1.45 J-1.067
G1 X144.511 Y77.516
X144.649 Y77.6
X144.793 Y77.692
X144.947 Y77.795
X145.109 Y77.907
X145.275 Y78.028
X145.443 Y78.154
X145.616 Y78.29
X145.79 Y78.434
X145.962 Y78.583
X146.133 Y78.741
X146.3 Y78.906
X146.464 Y79.079
X146.622 Y79.262
X146.777 Y79.456
X146.924 Y79.659
X147.068 Y79.879
X147.206 Y80.115
X147.337 Y80.366
X147.464 Y80.64
X147.585 Y80.936
X147.699 Y81.255
X147.805 Y81.593
X147.902 Y81.957
X147.992 Y82.345
X148.072 Y82.756
X148.144 Y83.191
X148.205 Y83.645
X148.239 Y83.963
X147.873 Y84.009
X147.803 Y84.019
X147.086 Y84.138
X147.024 Y84.149
X146.302 Y84.294
X146.248 Y84.306
X145.536 Y84.472
X145.494 Y84.482
X145.15 Y84.571
X145.117 Y84.58
X144.786 Y84.672
X144.742 Y84.685
X144.43 Y84.781
X144.367 Y84.802
X144.081 Y84.901
X143.985 Y84.938
X143.733 Y85.042
X143.629 Y85.089
X143.518 Y85.143
X143.417 Y85.196
X143.319 Y85.252
X143.206 Y85.322
X143.12 Y85.38
X143.044 Y85.434
X142.972 Y85.492
X142.9 Y85.552
G2 X142.712 Y85.732 I1.153 J1.382
G1 X142.656 Y85.795
G2 X142.452 Y86.072 I1.341 J1.201
G1 X142.413 Y86.137
G2 X142.253 Y86.485 I1.545 J0.924
G1 X142.23 Y86.553
G2 X142.137 Y87.054 I1.705 J0.577
G1 X142.134 Y87.125
G2 X142.172 Y87.579 I1.798 J0.076
G1 X142.188 Y87.653
G2 X142.314 Y88.03 I1.76 J-0.378
G1 X142.35 Y88.108
G2 X142.501 Y88.373 I1.634 J-0.755
G1 X142.557 Y88.454
X142.631 Y88.555
X142.712 Y88.65
X142.79 Y88.735
X142.854 Y88.801
X142.921 Y88.864
X143.021 Y88.953
X143.128 Y89.04
X143.25 Y89.133
X143.335 Y89.195
X143.479 Y89.292
X143.549 Y89.336
X143.715 Y89.437
X143.776 Y89.473
X143.965 Y89.578
X144.018 Y89.606
X144.231 Y89.715
X144.271 Y89.735
X144.506 Y89.848
X144.541 Y89.865
X144.799 Y89.982
X144.831 Y89.996
X145.112 Y90.117
X145.136 Y90.128
X145.439 Y90.254
X145.465 Y90.264
X145.792 Y90.394
X145.811 Y90.401
X145.98 Y90.466
X145.908 Y90.527
X145.801 Y90.622
X145.707 Y90.712
X145.603 Y90.819
X145.52 Y90.91
X145.419 Y91.029
X145.355 Y91.11
X145.256 Y91.242
X145.192 Y91.332
X145.097 Y91.476
X145.053 Y91.546
X144.96 Y91.702
X144.923 Y91.766
X144.832 Y91.934
X144.799 Y92.
X144.711 Y92.18
X144.686 Y92.232
X144.6 Y92.423
X144.579 Y92.47
X144.495 Y92.672
X144.471 Y92.734
X144.309 Y93.167
X144.286 Y93.233
X144.131 Y93.703
X144.113 Y93.76
X143.966 Y94.26
X143.954 Y94.304
X143.814 Y94.829
X143.804 Y94.865
X143.671 Y95.41
X143.663 Y95.446
X143.539 Y96.002
X143.532 Y96.036
X143.418 Y96.599
X143.412 Y96.629
X143.308 Y97.192
X143.301 Y97.23
X143.21 Y97.788
X143.205 Y97.824
X143.127 Y98.372
X143.121 Y98.415
X143.058 Y98.95
X143.053 Y99.004
X143.008 Y99.522
X143.003 Y99.584
X142.977 Y100.083
X142.975 Y100.158
X142.97 Y100.636
X142.971 Y100.722
X142.988 Y101.18
X142.995 Y101.286
X143.037 Y101.721
X143.052 Y101.836
X143.119 Y102.249
X143.145 Y102.38
X143.239 Y102.773
X143.277 Y102.908
X143.397 Y103.279
X143.449 Y103.419
X143.596 Y103.771
X143.658 Y103.903
X143.83 Y104.236
X143.903 Y104.364
X144.1 Y104.679
X144.16 Y104.77
G2 X144.415 Y104.866 I0.2 J-0.143
G3 X144.673 Y104.957 I0.057 J0.249
G1 X144.709 Y105.
X144.952 Y105.283
X145.019 Y105.357
X145.282 Y105.625
X145.349 Y105.689
X145.631 Y105.943
X145.698 Y105.999
X145.998 Y106.239
X146.06 Y106.286
X146.376 Y106.513
X146.441 Y106.558
X146.773 Y106.771
X146.836 Y106.809
X147.184 Y107.009
X147.245 Y107.042
X147.607 Y107.228
X147.67 Y107.259
X148.047 Y107.431
X148.109 Y107.457
X148.501 Y107.615
X148.566 Y107.64
X148.971 Y107.782
X149.031 Y107.801
X149.452 Y107.929
X149.516 Y107.947
X149.95 Y108.058
X150.005 Y108.071
X150.453 Y108.168
X150.515 Y108.18
X150.978 Y108.26
X151.033 Y108.269
X151.509 Y108.333
X151.56 Y108.339
X152.051 Y108.388
X152.105 Y108.392
X152.609 Y108.424
X152.655 Y108.426
X153.173 Y108.443
X153.222 Y108.444
X153.754
X153.771
X156.243 Y108.416
X158.714 Y108.444
X158.731
X159.263
X159.312 Y108.443
X159.83 Y108.426
X159.876 Y108.424
X160.38 Y108.392
X160.434 Y108.388
X160.925 Y108.339
X160.976 Y108.333
X161.452 Y108.269
X161.507 Y108.26
X161.97 Y108.18
X162.032 Y108.168
X162.48 Y108.071
X162.535 Y108.058
X162.969 Y107.947
X163.033 Y107.929
X163.454 Y107.801
X163.514 Y107.782
X163.919 Y107.64
X163.984 Y107.615
X164.376 Y107.457
X164.438 Y107.431
X164.815 Y107.259
X164.878 Y107.228
X165.24 Y107.042
X165.301 Y107.009
X165.649 Y106.809
X165.712 Y106.771
X166.044 Y106.558
X166.109 Y106.513
X166.425 Y106.286
X166.487 Y106.239
X166.787 Y105.999
X166.854 Y105.943
X167.136 Y105.689
X167.203 Y105.625
X167.466 Y105.357
X167.533 Y105.283
X167.776 Y105.
X167.843 Y104.917
X168.064 Y104.619
X168.131 Y104.52
X168.328 Y104.205
X168.389 Y104.098
X168.561 Y103.765
X168.612 Y103.655
X168.759 Y103.303
X168.802 Y103.187
X168.922 Y102.816
X168.954 Y102.703
X169.048 Y102.31
X169.07 Y102.201
X169.137 Y101.788
X169.149 Y101.692
X169.191 Y101.257
X169.197 Y101.169
X169.214 Y100.711
X169.215 Y100.639
X169.21 Y100.161
X169.208 Y100.099
X169.182 Y99.6
X169.178 Y99.548
X169.133 Y99.03
X169.129 Y98.985
X169.066 Y98.45
X169.061 Y98.414
X168.983 Y97.866
X168.978 Y97.836
X168.887 Y97.278
X168.882 Y97.247
X168.778 Y96.684
X168.773 Y96.659
X168.659 Y96.096
X168.653 Y96.067
X168.529 Y95.511
X168.522 Y95.481
X168.389 Y94.937
X168.381 Y94.907
X168.241 Y94.381
X168.231 Y94.345
X168.084 Y93.844
X168.069 Y93.797
X167.914 Y93.327
X167.895 Y93.272
X167.733 Y92.839
X167.713 Y92.787
X167.629 Y92.585
X167.612 Y92.546
X167.526 Y92.355
X167.505 Y92.312
X167.417 Y92.132
X167.389 Y92.077
X167.298 Y91.909
X167.267 Y91.856
X167.174 Y91.7
X167.138 Y91.642
X167.043 Y91.498
X166.99 Y91.422
X166.891 Y91.291
X166.837 Y91.223
X166.736 Y91.104
X166.667 Y91.028
X166.563 Y90.921
X166.485 Y90.846
X166.378 Y90.751
X166.289 Y90.678
X166.179 Y90.594
X166.088 Y90.53
X165.976 Y90.457
X165.859 Y90.388
X166.201 Y90.261
X166.217 Y90.255
X166.566 Y90.121
X166.582 Y90.115
X166.909 Y89.985
X166.931 Y89.976
X167.234 Y89.851
X167.254 Y89.842
X167.535 Y89.721
X167.561 Y89.709
X167.819 Y89.592
X167.849 Y89.578
X168.084 Y89.464
X168.117 Y89.448
X168.33 Y89.339
X168.374 Y89.316
X168.563 Y89.211
X168.614 Y89.181
X168.78 Y89.08
X168.838 Y89.043
X168.982 Y88.946
X169.054 Y88.895
X169.176 Y88.802
X169.264 Y88.729
X169.364 Y88.64
X169.473 Y88.532
X169.551 Y88.447
X169.619 Y88.368
X169.681 Y88.284
X169.737 Y88.203
G2 X169.863 Y87.982 I-1.236 J-0.85
G1 X169.899 Y87.904
G2 X170.003 Y87.59 I-1.362 J-0.629
G1 X170.019 Y87.516
G2 X170.052 Y87.137 I-1.466 J-0.315
G1 X170.049 Y87.066
G2 X169.971 Y86.649 I-1.499 J0.063
G1 X169.948 Y86.581
G2 X169.814 Y86.291 I-1.421 J0.481
G1 X169.775 Y86.226
G2 X169.605 Y85.995 I-1.287 J0.77
G1 X169.549 Y85.933
X169.474 Y85.855
X169.393 Y85.782
X169.321 Y85.722
X169.198 Y85.629
X169.112 Y85.571
X169.017 Y85.513
X168.919 Y85.457
X168.835 Y85.412
X168.724 Y85.358
X168.638 Y85.319
X168.386 Y85.215
X168.306 Y85.185
X168.02 Y85.085
X167.967 Y85.068
X167.655 Y84.972
X167.618 Y84.961
X167.287 Y84.869
X167.26 Y84.861
X166.916 Y84.772
X166.881 Y84.764
X166.169 Y84.598
X166.124 Y84.588
X165.402 Y84.443
X165.35 Y84.434
X164.633 Y84.315
X164.575 Y84.307
X163.92 Y84.225
X163.931 Y84.093
X163.982 Y83.609
X164.045 Y83.146
X164.118 Y82.703
X164.199 Y82.283
X164.292 Y81.885
X164.392 Y81.51
X164.501 Y81.159
X164.62 Y80.829
X164.746 Y80.521
X164.879 Y80.234
X165.016 Y79.969
X165.162 Y79.721
X165.314 Y79.489
X165.469 Y79.274
X165.632 Y79.07
X165.799 Y78.878
X165.97 Y78.696
X166.145 Y78.524
X166.323 Y78.36
X166.501 Y78.205
X166.681 Y78.057
X166.859 Y77.917
X167.032 Y77.786
X167.203 Y77.663
X167.369 Y77.547
X167.528 Y77.441
X167.677 Y77.346
X167.821 Y77.258
X167.972 Y77.17
G2 X168.513 Y75.118 I-0.755 J-1.296
X168.106 Y74.665 I-1.296 J0.755
G1 X167.937 Y74.541
X167.832 Y74.449
X167.739 Y74.35
X167.653 Y74.242
X167.573 Y74.12
X167.498 Y73.98
X167.429 Y73.825
X167.368 Y73.653
X167.316 Y73.464
X167.274 Y73.261
X167.242 Y73.044
X167.223 Y72.823
X167.217 Y72.606
X167.223 Y72.391
X167.241 Y72.186
X167.269 Y71.995
X167.306 Y71.822
X167.349 Y71.671
X167.399 Y71.534
X167.458 Y71.405
X167.525 Y71.279
X167.6 Y71.158
X167.843 Y70.82
X167.982 Y70.639
X168.143 Y70.431
X168.151 Y70.42
X168.32 Y70.198
X168.332 Y70.182
X168.507 Y69.945
X168.526 Y69.917
X168.704 Y69.664
X168.724 Y69.636
X168.904 Y69.368
X168.917 Y69.348
X169.1 Y69.065
X169.114 Y69.044
X169.298 Y68.749
X169.313 Y68.724
X169.68 Y68.11
X169.692 Y68.09
X170.051 Y67.467
X170.054 Y67.46
X170.398 Y66.856
X170.562 Y66.568
X170.566 Y66.562
X170.722 Y66.286
Y66.285
X170.871 Y66.02
X170.882 Y66.001
X171.02 Y65.748
X171.03 Y65.729
X171.158 Y65.485
X171.175 Y65.45
X171.291 Y65.215
X171.314 Y65.167
X171.417 Y64.938
X171.444 Y64.875
X171.533 Y64.65
X171.56 Y64.576
X171.635 Y64.353
X171.663 Y64.259
X171.722 Y64.037
X171.743 Y63.948
X171.788 Y63.724
X171.805 Y63.62
X171.834 Y63.394
X171.842 Y63.308
X171.858 Y63.08
X171.862 Y62.988
X171.864 Y62.758
X171.863 Y62.68
X171.853 Y62.448
X171.847 Y62.372
X171.825 Y62.139
X171.813 Y62.045
X171.739 Y61.579
X171.719 Y61.472
X171.676 Y61.29
G2 X171.935 Y61.082 I-0.801 J-1.268
G1 X172.545 Y60.473
G2 X172.985 Y59.412 I-1.06 J-1.061
G1 Y57.583
G2 X172.545 Y56.522 I-1.5 J0.
G1 X171.935 Y55.912
G2 X170.875 Y55.473 I-1.06 J1.061
G1 X141.61
G2 X140.55 Y55.912 I0. J1.5
G1 X139.94 Y56.522
G2 X139.5 Y57.583 I1.06 J1.061
G1 Y59.412
G2 X139.94 Y60.473 I1.5 J0.
G1 X140.55 Y61.082
G2 X140.809 Y61.29 I1.06 J-1.061
G1 X140.766 Y61.472
X140.746 Y61.579
X140.672 Y62.045
X140.66 Y62.139
X140.638 Y62.372
X140.632 Y62.448
X140.622 Y62.68
X140.621 Y62.758
X140.623 Y62.988
X140.627 Y63.08
X140.643 Y63.308
X140.651 Y63.394
X140.68 Y63.62
X140.697 Y63.724
X140.742 Y63.948
X140.763 Y64.037
X140.822 Y64.259
X140.85 Y64.353
X140.925 Y64.576
X140.952 Y64.65
X141.041 Y64.875
X141.068 Y64.938
X141.171 Y65.167
X141.194 Y65.215
X141.31 Y65.45
X141.327 Y65.485
X141.455 Y65.729
X141.465 Y65.748
X141.603 Y66.001
X141.614 Y66.02
X141.763 Y66.285
Y66.286
X141.919 Y66.562
X141.923 Y66.568
X142.087 Y66.856
X142.431 Y67.46
X142.434 Y67.467
X142.793 Y68.09
X142.805 Y68.11
X143.172 Y68.724
X143.187 Y68.749
X143.371 Y69.044
X143.385 Y69.065
X143.568 Y69.348
X143.581 Y69.368
X143.761 Y69.636
X143.781 Y69.664
X143.959 Y69.917
X143.978 Y69.945
X144.153 Y70.182
X144.165 Y70.198
X144.334 Y70.42
X144.342 Y70.431
X144.503 Y70.639
X144.642 Y70.82
X144.885 Y71.158
X144.96 Y71.279
X145.027 Y71.405
X145.086 Y71.534
X145.136 Y71.671
X145.179 Y71.822
X145.216 Y71.995
X145.244 Y72.186
X145.262 Y72.391
X145.268 Y72.606
X145.262 Y72.823
X145.243 Y73.044
X145.211 Y73.261
X145.169 Y73.464
X145.117 Y73.653
X145.056 Y73.825
X144.987 Y73.98
X144.912 Y74.12
X144.832 Y74.242
X144.746 Y74.35
X144.653 Y74.449
X144.548 Y74.541
X144.379 Y74.665
G2 X144.06 Y76.763 I0.889 J1.208
X144.513 Y77.17 I1.208 J-0.889
G1 X144.664 Y77.258
X144.808 Y77.346
X144.957 Y77.441
X145.116 Y77.547
X145.282 Y77.663
X145.453 Y77.786
X145.626 Y77.917
X145.804 Y78.057
X145.984 Y78.205
X146.162 Y78.36
X146.34 Y78.524
X146.515 Y78.696
X146.686 Y78.878
X146.853 Y79.07
X147.016 Y79.274
X147.171 Y79.489
X147.323 Y79.721
X147.469 Y79.969
X147.606 Y80.234
X147.739 Y80.521
X147.865 Y80.829
X147.984 Y81.159
X148.093 Y81.51
X148.193 Y81.885
X148.286 Y82.283
X148.367 Y82.703
X148.44 Y83.146
X148.503 Y83.609
X148.554 Y84.093
X148.565 Y84.225
X147.91 Y84.307
X147.852 Y84.315
X147.135 Y84.434
X147.083 Y84.443
X146.361 Y84.588
X146.316 Y84.598
X145.604 Y84.764
X145.569 Y84.772
X145.225 Y84.861
X145.198 Y84.869
X144.867 Y84.961
X144.83 Y84.972
X144.518 Y85.068
X144.465 Y85.085
X144.179 Y85.185
X144.099 Y85.215
X143.847 Y85.319
X143.761 Y85.358
X143.65 Y85.412
X143.566 Y85.457
X143.468 Y85.513
X143.373 Y85.571
X143.287 Y85.629
X143.164 Y85.722
X143.092 Y85.782
X143.011 Y85.855
X142.936 Y85.933
X142.88 Y85.995
G2 X142.71 Y86.226 I1.117 J1.001
G1 X142.671 Y86.291
G2 X142.537 Y86.581 I1.287 J0.77
G1 X142.514 Y86.649
G2 X142.436 Y87.066 I1.421 J0.481
G1 X142.433 Y87.137
G2 X142.466 Y87.516 I1.499 J0.063
G1 X142.482 Y87.59
G2 X142.586 Y87.904 I1.466 J-0.315
G1 X142.622 Y87.982
G2 X142.748 Y88.203 I1.362 J-0.629
G1 X142.804 Y88.284
X142.866 Y88.368
X142.934 Y88.447
X143.012 Y88.532
X143.121 Y88.64
X143.221 Y88.729
X143.309 Y88.802
X143.431 Y88.895
X143.503 Y88.946
X143.647 Y89.043
X143.705 Y89.08
X143.871 Y89.181
X143.922 Y89.211
X144.111 Y89.316
X144.155 Y89.339
X144.368 Y89.448
X144.401 Y89.464
X144.636 Y89.578
X144.666 Y89.592
X144.924 Y89.709
X144.95 Y89.721
X145.231 Y89.842
X145.251 Y89.851
X145.554 Y89.976
X145.576 Y89.985
X145.903 Y90.115
X145.919 Y90.121
X146.268 Y90.255
X146.284 Y90.261
X146.626 Y90.388
X146.509 Y90.457
X146.397 Y90.53
X146.306 Y90.594
X146.196 Y90.678
X146.107 Y90.751
X146. Y90.846
X145.922 Y90.921
X145.818 Y91.028
X145.749 Y91.104
X145.648 Y91.223
X145.594 Y91.291
X145.495 Y91.422
X145.442 Y91.498
X145.347 Y91.642
X145.311 Y91.7
X145.218 Y91.856
X145.187 Y91.909
X145.096 Y92.077
X145.068 Y92.132
X144.98 Y92.312
X144.959 Y92.355
X144.873 Y92.546
X144.856 Y92.585
X144.772 Y92.787
X144.752 Y92.839
X144.59 Y93.272
X144.571 Y93.327
X144.416 Y93.797
X144.401 Y93.844
X144.254 Y94.345
X144.244 Y94.381
X144.104 Y94.907
X144.096 Y94.937
X143.963 Y95.481
X143.956 Y95.511
X143.832 Y96.067
X143.826 Y96.096
X143.712 Y96.659
X143.707 Y96.684
X143.603 Y97.247
X143.598 Y97.278
X143.507 Y97.836
X143.502 Y97.866
X143.424 Y98.414
X143.419 Y98.45
X143.356 Y98.985
X143.352 Y99.03
X143.307 Y99.548
X143.303 Y99.6
X143.277 Y100.099
X143.275 Y100.161
X143.27 Y100.639
X143.271 Y100.711
X143.288 Y101.169
X143.294 Y101.257
X143.336 Y101.692
X143.348 Y101.788
X143.415 Y102.201
X143.437 Y102.31
X143.531 Y102.703
X143.563 Y102.816
X143.683 Y103.187
X143.726 Y103.303
X143.873 Y103.655
X143.924 Y103.765
X144.096 Y104.098
X144.157 Y104.205
X144.354 Y104.52
X144.421 Y104.619
X144.642 Y104.917
X144.673 Y104.957
G3 X144.736 Y105.177 I-0.235 J0.187
X144.625 Y105.378 I-0.298 J-0.034
G1 X144.39 Y105.565
X144.338 Y105.606 Z0.258
X144.288 Y105.646 Z0.28
X144.244 Y105.681 Z0.315
X144.206 Y105.711 Z0.363
X144.178 Y105.733 Z0.42
X144.161 Y105.747 Z0.483
X144.155 Y105.751 Z0.55
G0 Z21.243
X144.116 Y112.41
G1 Z17.243 F133.3
Z0.55
X144.122 Y112.414 Z0.483 F400
X144.14 Y112.427 Z0.42
X144.17 Y112.448 Z0.363
X144.208 Y112.475 Z0.315
X144.255 Y112.508 Z0.28
X144.306 Y112.545 Z0.258
X144.361 Y112.584 Z0.25
X144.605 Y112.758
G3 X144.675 Y113.176 I-0.174 J0.244
G1 X144.615 Y113.267
X144.418 Y113.582
X144.345 Y113.71
X144.173 Y114.043
X144.111 Y114.175
X143.964 Y114.527
X143.912 Y114.667
X143.792 Y115.038
X143.754 Y115.173
X143.66 Y115.566
X143.634 Y115.697
X143.567 Y116.11
X143.552 Y116.225
X143.51 Y116.66
X143.503 Y116.766
X143.486 Y117.224
X143.485 Y117.31
X143.49 Y117.788
X143.492 Y117.863
X143.518 Y118.362
X143.523 Y118.424
X143.568 Y118.942
X143.573 Y118.997
X143.636 Y119.531
X143.642 Y119.574
X143.72 Y120.122
X143.725 Y120.157
X143.816 Y120.716
X143.823 Y120.754
X143.927 Y121.317
X143.933 Y121.348
X144.047 Y121.91
X144.054 Y121.943
X144.178 Y122.5
X144.186 Y122.536
X144.32 Y123.08
X144.329 Y123.117
X144.469 Y123.642
X144.481 Y123.685
X144.628 Y124.186
X144.646 Y124.243
X144.801 Y124.713
X144.824 Y124.78
X144.986 Y125.213
X145.01 Y125.273
X145.094 Y125.475
X145.116 Y125.526
X145.202 Y125.716
X145.225 Y125.765
X145.313 Y125.945
X145.347 Y126.011
X145.438 Y126.179
X145.475 Y126.244
X145.568 Y126.4
X145.612 Y126.469
X145.707 Y126.613
X145.773 Y126.707
X145.872 Y126.838
X145.931 Y126.912
X146.032 Y127.032
X146.118 Y127.128
X146.222 Y127.235
X146.318 Y127.326
X146.425 Y127.421
X146.495 Y127.48
X146.326 Y127.545
X146.306 Y127.552
X145.979 Y127.682
X145.953 Y127.693
X145.65 Y127.819
X145.629 Y127.828
X145.348 Y127.949
X145.311 Y127.965
X145.053 Y128.083
X145.022 Y128.098
X144.787 Y128.211
X144.747 Y128.231
X144.534 Y128.34
X144.48 Y128.369
X144.291 Y128.474
X144.229 Y128.509
X144.063 Y128.61
X143.993 Y128.655
X143.849 Y128.752
X143.764 Y128.813
X143.642 Y128.906
X143.536 Y128.993
X143.436 Y129.082
X143.37 Y129.145
X143.307 Y129.21
X143.229 Y129.295
X143.148 Y129.389
X143.074 Y129.488
X143.018 Y129.569
G2 X142.865 Y129.839 I1.481 J1.024
G1 X142.829 Y129.917
G2 X142.703 Y130.295 I1.634 J0.754
G1 X142.687 Y130.37
G2 X142.649 Y130.822 I1.76 J0.376
G1 X142.652 Y130.893
G2 X142.745 Y131.394 I1.798 J-0.076
G1 X142.768 Y131.462
G2 X142.93 Y131.811 I1.705 J-0.577
G1 X142.969 Y131.876
G2 X143.176 Y132.157 I1.543 J-0.926
G1 X143.232 Y132.219
G2 X143.416 Y132.395 I1.336 J-1.207
G1 X143.488 Y132.455
X143.559 Y132.511
X143.634 Y132.564
X143.72 Y132.622
X143.833 Y132.693
X143.931 Y132.749
X144.025 Y132.799
X144.136 Y132.854
X144.248 Y132.905
X144.5 Y133.009
X144.598 Y133.046
X144.884 Y133.145
X144.944 Y133.164
X145.256 Y133.26
X145.303 Y133.274
X145.634 Y133.366
X145.665 Y133.375
X146.009 Y133.464
X146.051 Y133.474
X146.763 Y133.64
X146.815 Y133.651
X147.537 Y133.797
X147.602 Y133.809
X148.319 Y133.927
X148.39 Y133.937
X148.754 Y133.982
X148.72 Y134.301
X148.659 Y134.756
X148.587 Y135.19
X148.507 Y135.601
X148.417 Y135.989
X148.32 Y136.353
X148.214 Y136.691
X148.1 Y137.01
X147.979 Y137.306
X147.852 Y137.58
X147.721 Y137.831
X147.582 Y138.067
X147.439 Y138.287
X147.292 Y138.49
X147.138 Y138.684
X146.978 Y138.867
X146.815 Y139.041
X146.648 Y139.204
X146.477 Y139.362
X146.305 Y139.512
X146.129 Y139.657
X145.958 Y139.792
X145.792 Y139.917
X145.623 Y140.039
X145.46 Y140.152
X145.307 Y140.255
X145.164 Y140.346
X145.028 Y140.429
X144.881 Y140.514
G2 X144.225 Y142.974 I0.902 J1.558
X144.713 Y143.52 I1.558 J-0.902
G1 X144.874 Y143.639
X144.961 Y143.715
X145.034 Y143.791
X145.102 Y143.879
X145.169 Y143.981
X145.233 Y144.099
X145.292 Y144.232
X145.345 Y144.384
X145.392 Y144.552
X145.43 Y144.737
X145.459 Y144.938
X145.477 Y145.14
X145.483 Y145.34
X145.477 Y145.538
X145.461 Y145.725
X145.436 Y145.899
X145.403 Y146.052
X145.366 Y146.182
X145.323 Y146.299
X145.274 Y146.407
X145.216 Y146.515
X145.15 Y146.621
X144.916 Y146.948
X144.781 Y147.124
X144.62 Y147.333
X144.612 Y147.343
X144.443 Y147.565
X144.427 Y147.586
X144.252 Y147.823
X144.228 Y147.856
X144.05 Y148.109
X144.026 Y148.144
X143.846 Y148.413
X143.832 Y148.434
X143.649 Y148.716
X143.632 Y148.743
X143.448 Y149.038
X143.43 Y149.068
X143.063 Y149.682
X143.048 Y149.706
X142.689 Y150.329
X142.685 Y150.337
X142.341 Y150.941
X142.177 Y151.229
X142.173 Y151.237
X142.017 Y151.514
X142.016 Y151.515
X141.867 Y151.78
X141.856 Y151.8
X141.718 Y152.053
X141.704 Y152.079
X141.576 Y152.323
X141.556 Y152.362
X141.44 Y152.597
X141.412 Y152.656
X141.309 Y152.885
X141.277 Y152.961
X141.188 Y153.186
X141.156 Y153.274
X141.081 Y153.497
X141.047 Y153.611
X140.988 Y153.834
X140.964 Y153.938
X140.919 Y154.161
X140.898 Y154.288
X140.869 Y154.514
X140.858 Y154.617
X140.842 Y154.845
X140.838 Y154.955
X140.836 Y155.185
X140.838 Y155.279
X140.848 Y155.511
X140.854 Y155.602
X140.876 Y155.835
X140.89 Y155.948
X140.964 Y156.414
X140.987 Y156.53
X140.918 Y156.589
X140.852 Y156.651
X140.242 Y157.261
G2 X139.715 Y158.534 I1.273 J1.273
G1 Y160.363
G2 X140.242 Y161.636 I1.8 J0.
G1 X140.852 Y162.246
G2 X142.125 Y162.773 I1.273 J-1.273
G1 X171.39
G2 X172.663 Y162.246 I0. J-1.8
G1 X173.273 Y161.636
G2 X173.8 Y160.363 I-1.273 J-1.273
G1 Y158.534
G2 X173.273 Y157.261 I-1.8 J0.
G1 X172.663 Y156.651
X172.597 Y156.589
X172.528 Y156.53
X172.551 Y156.414
X172.625 Y155.948
X172.639 Y155.835
X172.661 Y155.602
X172.667 Y155.511
X172.677 Y155.279
X172.679 Y155.185
X172.677 Y154.955
X172.673 Y154.845
X172.657 Y154.617
X172.646 Y154.514
X172.617 Y154.288
X172.596 Y154.161
X172.551 Y153.938
X172.527 Y153.834
X172.468 Y153.611
X172.434 Y153.497
X172.359 Y153.274
X172.327 Y153.186
X172.238 Y152.961
X172.206 Y152.885
X172.103 Y152.656
X172.075 Y152.597
X171.959 Y152.362
X171.939 Y152.323
X171.811 Y152.079
X171.797 Y152.053
X171.659 Y151.8
X171.648 Y151.78
X171.499 Y151.515
X171.498 Y151.514
X171.342 Y151.237
X171.338 Y151.229
X171.174 Y150.941
X170.83 Y150.337
X170.826 Y150.329
X170.467 Y149.706
X170.452 Y149.682
X170.085 Y149.068
X170.067 Y149.038
X169.883 Y148.743
X169.866 Y148.716
X169.683 Y148.434
X169.669 Y148.413
X169.489 Y148.144
X169.465 Y148.109
X169.287 Y147.856
X169.263 Y147.823
X169.088 Y147.586
X169.072 Y147.565
X168.903 Y147.343
X168.895 Y147.333
X168.734 Y147.124
X168.599 Y146.948
X168.365 Y146.621
X168.299 Y146.515
X168.241 Y146.407
X168.192 Y146.299
X168.149 Y146.182
X168.112 Y146.052
X168.079 Y145.899
X168.054 Y145.725
X168.038 Y145.538
X168.032 Y145.34
X168.038 Y145.14
X168.056 Y144.938
X168.085 Y144.737
X168.123 Y144.552
X168.17 Y144.384
X168.223 Y144.232
X168.282 Y144.099
X168.346 Y143.981
X168.413 Y143.879
X168.481 Y143.791
X168.554 Y143.715
X168.641 Y143.639
X168.802 Y143.52
G2 X169.18 Y141.002 I-1.07 J-1.448
X168.634 Y140.514 I-1.448 J1.07
G1 X168.487 Y140.429
X168.351 Y140.346
X168.208 Y140.255
X168.055 Y140.152
X167.892 Y140.039
X167.723 Y139.917
X167.557 Y139.792
X167.386 Y139.657
X167.21 Y139.512
X167.038 Y139.362
X166.867 Y139.204
X166.7 Y139.041
X166.537 Y138.867
X166.377 Y138.684
X166.223 Y138.49
X166.076 Y138.287
X165.933 Y138.067
X165.794 Y137.831
X165.663 Y137.58
X165.536 Y137.306
X165.415 Y137.01
X165.301 Y136.691
X165.195 Y136.353
X165.098 Y135.989
X165.008 Y135.601
X164.928 Y135.19
X164.856 Y134.756
X164.795 Y134.301
X164.761 Y133.982
X165.125 Y133.937
X165.196 Y133.927
X165.913 Y133.809
X165.978 Y133.797
X166.7 Y133.651
X166.752 Y133.64
X167.464 Y133.474
X167.506 Y133.464
X167.85 Y133.375
X167.881 Y133.366
X168.212 Y133.274
X168.259 Y133.26
X168.571 Y133.164
X168.631 Y133.145
X168.917 Y133.046
X169.015 Y133.009
X169.267 Y132.905
X169.379 Y132.854
X169.49 Y132.799
X169.584 Y132.749
X169.682 Y132.693
X169.795 Y132.622
X169.881 Y132.564
X169.956 Y132.511
X170.027 Y132.455
X170.099 Y132.395
G2 X170.283 Y132.219 I-1.152 J-1.383
G1 X170.339 Y132.157
G2 X170.546 Y131.876 I-1.336 J-1.207
G1 X170.585 Y131.811
G2 X170.747 Y131.462 I-1.543 J-0.926
G1 X170.77 Y131.394
G2 X170.863 Y130.893 I-1.705 J-0.577
G1 X170.866 Y130.822
G2 X170.828 Y130.37 I-1.798 J-0.076
G1 X170.812 Y130.295
G2 X170.686 Y129.917 I-1.76 J0.376
G1 X170.65 Y129.839
G2 X170.497 Y129.569 I-1.634 J0.754
G1 X170.441 Y129.488
X170.367 Y129.389
X170.286 Y129.295
X170.208 Y129.21
X170.145 Y129.145
X170.079 Y129.082
X169.979 Y128.993
X169.873 Y128.906
X169.751 Y128.813
X169.666 Y128.752
X169.522 Y128.655
X169.452 Y128.61
X169.286 Y128.509
X169.224 Y128.474
X169.035 Y128.369
X168.981 Y128.34
X168.768 Y128.231
X168.728 Y128.211
X168.493 Y128.098
X168.462 Y128.083
X168.204 Y127.965
X168.167 Y127.949
X167.886 Y127.828
X167.865 Y127.819
X167.562 Y127.693
X167.536 Y127.682
X167.209 Y127.552
X167.189 Y127.545
X167.02 Y127.48
X167.09 Y127.421
X167.197 Y127.326
X167.293 Y127.235
X167.397 Y127.128
X167.483 Y127.032
X167.584 Y126.912
X167.643 Y126.838
X167.742 Y126.707
X167.808 Y126.613
X167.903 Y126.469
X167.947 Y126.4
X168.04 Y126.244
X168.077 Y126.179
X168.168 Y126.011
X168.202 Y125.945
X168.29 Y125.765
X168.313 Y125.716
X168.399 Y125.526
X168.421 Y125.475
X168.505 Y125.273
X168.529 Y125.213
X168.691 Y124.78
X168.714 Y124.713
X168.869 Y124.243
X168.887 Y124.186
X169.034 Y123.685
X169.046 Y123.642
X169.186 Y123.117
X169.195 Y123.08
X169.329 Y122.536
X169.337 Y122.5
X169.461 Y121.943
X169.468 Y121.91
X169.582 Y121.348
X169.588 Y121.317
X169.692 Y120.754
X169.699 Y120.716
X169.79 Y120.157
X169.795 Y120.122
X169.873 Y119.574
X169.879 Y119.531
X169.942 Y118.997
X169.947 Y118.942
X169.992 Y118.424
X169.997 Y118.362
X170.023 Y117.863
X170.025 Y117.788
X170.03 Y117.31
X170.029 Y117.224
X170.012 Y116.766
X170.005 Y116.66
X169.963 Y116.225
X169.948 Y116.11
X169.881 Y115.697
X169.855 Y115.566
X169.761 Y115.173
X169.723 Y115.038
X169.603 Y114.667
X169.551 Y114.527
X169.404 Y114.175
X169.342 Y114.043
X169.17 Y113.71
X169.097 Y113.582
X168.9 Y113.267
X168.82 Y113.149
X168.599 Y112.851
X168.519 Y112.75
X168.276 Y112.467
X168.195 Y112.379
X167.932 Y112.111
X167.852 Y112.035
X167.57 Y111.781
X167.489 Y111.712
X167.189 Y111.472
X167.115 Y111.416
X166.799 Y111.189
X166.721 Y111.136
X166.389 Y110.923
X166.314 Y110.877
X165.966 Y110.677
X165.892 Y110.637
X165.53 Y110.451
X165.454 Y110.414
X165.077 Y110.242
X165.003 Y110.211
X164.611 Y110.053
X164.534 Y110.023
X164.129 Y109.881
X164.057 Y109.858
X163.636 Y109.73
X163.562 Y109.709
X163.128 Y109.597
X163.055 Y109.58
X162.607 Y109.484
X162.536 Y109.47
X162.073 Y109.39
X162.007 Y109.38
X161.531 Y109.316
X161.47 Y109.309
X160.979 Y109.26
X160.914 Y109.255
X160.41 Y109.223
X160.355 Y109.22
X159.837 Y109.203
X159.778 Y109.202
X159.246
X159.226
X156.757 Y109.23
X154.289 Y109.202
X154.269
X153.737
X153.678 Y109.203
X153.16 Y109.22
X153.105 Y109.223
X152.601 Y109.255
X152.536 Y109.26
X152.045 Y109.309
X151.984 Y109.316
X151.508 Y109.38
X151.442 Y109.39
X150.979 Y109.47
X150.908 Y109.484
X150.46 Y109.58
X150.387 Y109.597
X149.953 Y109.709
X149.879 Y109.73
X149.458 Y109.858
X149.386 Y109.881
X148.981 Y110.023
X148.904 Y110.053
X148.512 Y110.211
X148.438 Y110.242
X148.061 Y110.414
X147.985 Y110.451
X147.623 Y110.637
X147.549 Y110.677
X147.201 Y110.877
X147.126 Y110.923
X146.794 Y111.136
X146.716 Y111.189
X146.4 Y111.416
X146.326 Y111.472
X146.026 Y111.712
X145.945 Y111.781
X145.663 Y112.035
X145.583 Y112.111
X145.32 Y112.379
X145.239 Y112.467
X144.996 Y112.75
X144.916 Y112.851
X144.695 Y113.149
X144.675 Y113.176
G2 X144.673 Y113.454 I0.197 J0.14
G3 X144.679 Y113.731 I-0.208 J0.143
G1 X144.672 Y113.741
X144.611 Y113.848
X144.439 Y114.181
X144.388 Y114.291
X144.241 Y114.643
X144.198 Y114.759
X144.078 Y115.13
X144.046 Y115.243
X143.952 Y115.636
X143.93 Y115.745
X143.863 Y116.158
X143.851 Y116.254
X143.809 Y116.689
X143.803 Y116.777
X143.786 Y117.235
X143.785 Y117.307
X143.79 Y117.785
X143.792 Y117.847
X143.818 Y118.346
X143.822 Y118.398
X143.867 Y118.916
X143.871 Y118.962
X143.934 Y119.496
X143.939 Y119.531
X144.017 Y120.079
X144.021 Y120.109
X144.112 Y120.668
X144.118 Y120.699
X144.222 Y121.262
X144.227 Y121.288
X144.341 Y121.85
X144.347 Y121.878
X144.471 Y122.435
X144.478 Y122.465
X144.611 Y123.009
X144.619 Y123.039
X144.759 Y123.564
X144.769 Y123.6
X144.916 Y124.101
X144.93 Y124.149
X145.085 Y124.619
X145.105 Y124.675
X145.267 Y125.108
X145.287 Y125.158
X145.371 Y125.36
X145.389 Y125.403
X145.475 Y125.593
X145.494 Y125.633
X145.582 Y125.813
X145.611 Y125.868
X145.702 Y126.036
X145.733 Y126.09
X145.826 Y126.246
X145.862 Y126.304
X145.957 Y126.448
X146.012 Y126.526
X146.111 Y126.657
X146.16 Y126.719
X146.261 Y126.839
X146.333 Y126.918
X146.437 Y127.025
X146.517 Y127.102
X146.624 Y127.197
X146.71 Y127.267
X146.82 Y127.351
X146.911 Y127.416
X147.023 Y127.489
X147.141 Y127.558
X146.8 Y127.684
X146.782 Y127.691
X146.433 Y127.825
X146.417 Y127.831
X146.09 Y127.961
X146.068 Y127.97
X145.765 Y128.096
X145.748 Y128.103
X145.467 Y128.224
X145.436 Y128.238
X145.178 Y128.356
X145.152 Y128.368
X144.917 Y128.481
X144.884 Y128.498
X144.671 Y128.607
X144.626 Y128.631
X144.437 Y128.736
X144.385 Y128.766
X144.219 Y128.867
X144.161 Y128.904
X144.017 Y129.001
X143.946 Y129.052
X143.824 Y129.145
X143.736 Y129.217
X143.636 Y129.307
X143.528 Y129.413
X143.45 Y129.498
X143.383 Y129.576
X143.321 Y129.659
X143.265 Y129.74
G2 X143.137 Y129.964 I1.234 J0.853
G1 X143.101 Y130.042
G2 X142.996 Y130.358 I1.362 J0.629
G1 X142.98 Y130.433
G2 X142.948 Y130.809 I1.467 J0.313
G1 X142.951 Y130.88
G2 X143.029 Y131.298 I1.499 J-0.063
G1 X143.052 Y131.366
G2 X143.187 Y131.657 I1.421 J-0.481
G1 X143.226 Y131.722
G2 X143.399 Y131.955 I1.286 J-0.772
G1 X143.455 Y132.017
X143.529 Y132.094
X143.608 Y132.164
X143.68 Y132.224
X143.801 Y132.316
X143.887 Y132.374
X143.982 Y132.432
X144.08 Y132.488
X144.158 Y132.53
X144.269 Y132.585
X144.363 Y132.628
X144.615 Y132.732
X144.696 Y132.762
X144.982 Y132.861
X145.032 Y132.878
X145.344 Y132.974
X145.383 Y132.985
X145.714 Y133.077
X145.74 Y133.084
X146.084 Y133.173
X146.119 Y133.182
X146.831 Y133.348
X146.875 Y133.357
X147.597 Y133.503
X147.65 Y133.513
X148.367 Y133.631
X148.427 Y133.64
X149.08 Y133.721
X149.069 Y133.852
X149.018 Y134.337
X148.955 Y134.8
X148.882 Y135.243
X148.801 Y135.664
X148.708 Y136.061
X148.608 Y136.436
X148.499 Y136.787
X148.38 Y137.117
X148.254 Y137.425
X148.122 Y137.712
X147.984 Y137.977
X147.837 Y138.225
X147.686 Y138.457
X147.531 Y138.672
X147.368 Y138.876
X147.201 Y139.068
X147.029 Y139.25
X146.855 Y139.422
X146.677 Y139.585
X146.499 Y139.741
X146.318 Y139.89
X146.141 Y140.03
X145.97 Y140.158
X145.796 Y140.283
X145.63 Y140.4
X145.471 Y140.506
X145.323 Y140.601
X145.181 Y140.687
X145.031 Y140.774
G2 X144.485 Y142.824 I0.752 J1.298
X144.892 Y143.278 I1.298 J-0.752
G1 X145.063 Y143.405
X145.169 Y143.498
X145.261 Y143.595
X145.346 Y143.704
X145.427 Y143.827
X145.502 Y143.966
X145.571 Y144.121
X145.632 Y144.293
X145.684 Y144.482
X145.726 Y144.685
X145.758 Y144.903
X145.777 Y145.122
X145.783 Y145.34
X145.777 Y145.555
X145.759 Y145.76
X145.731 Y145.952
X145.694 Y146.124
X145.651 Y146.275
X145.601 Y146.412
X145.543 Y146.54
X145.475 Y146.666
X145.399 Y146.788
X145.157 Y147.127
X145.018 Y147.307
X144.857 Y147.516
X144.85 Y147.524
X144.681 Y147.746
X144.668 Y147.764
X144.493 Y148.001
X144.473 Y148.029
X144.295 Y148.282
X144.275 Y148.311
X144.095 Y148.58
X144.084 Y148.597
X143.901 Y148.879
X143.886 Y148.902
X143.702 Y149.197
X143.687 Y149.221
X143.32 Y149.835
X143.308 Y149.856
X142.949 Y150.479
X142.946 Y150.486
X142.602 Y151.09
X142.438 Y151.378
X142.434 Y151.384
X142.278 Y151.661
Y151.662
X142.129 Y151.927
X142.119 Y151.944
X141.981 Y152.197
X141.97 Y152.218
X141.842 Y152.462
X141.825 Y152.495
X141.709 Y152.73
X141.686 Y152.779
X141.583 Y153.008
X141.556 Y153.071
X141.467 Y153.296
X141.44 Y153.37
X141.365 Y153.593
X141.337 Y153.687
X141.278 Y153.91
X141.258 Y153.997
X141.213 Y154.22
X141.195 Y154.326
X141.166 Y154.552
X141.158 Y154.638
X141.142 Y154.866
X141.138 Y154.958
X141.136 Y155.188
X141.137 Y155.266
X141.147 Y155.498
X141.153 Y155.574
X141.175 Y155.807
X141.187 Y155.901
X141.261 Y156.367
X141.281 Y156.473
X141.324 Y156.656
G2 X141.064 Y156.863 I0.801 J1.268
G1 X140.454 Y157.473
G2 X140.015 Y158.534 I1.061 J1.061
G1 Y160.363
G2 X140.454 Y161.424 I1.5 J0.
G1 X141.064 Y162.034
G2 X142.125 Y162.473 I1.061 J-1.061
G1 X171.39
G2 X172.451 Y162.034 I0. J-1.5
G1 X173.061 Y161.424
G2 X173.5 Y160.363 I-1.061 J-1.061
G1 Y158.534
G2 X173.061 Y157.473 I-1.5 J0.
G1 X172.451 Y156.863
G2 X172.191 Y156.656 I-1.061 J1.061
G1 X172.234 Y156.473
X172.254 Y156.367
X172.328 Y155.901
X172.34 Y155.807
X172.362 Y155.574
X172.368 Y155.498
X172.378 Y155.266
X172.379 Y155.188
X172.377 Y154.958
X172.373 Y154.866
X172.357 Y154.638
X172.349 Y154.552
X172.32 Y154.326
X172.302 Y154.22
X172.257 Y153.997
X172.237 Y153.91
X172.178 Y153.687
X172.15 Y153.593
X172.075 Y153.37
X172.048 Y153.296
X171.959 Y153.071
X171.932 Y153.008
X171.829 Y152.779
X171.806 Y152.73
X171.69 Y152.495
X171.673 Y152.462
X171.545 Y152.218
X171.534 Y152.197
X171.396 Y151.944
X171.386 Y151.927
X171.237 Y151.662
Y151.661
X171.081 Y151.384
X171.077 Y151.378
X170.913 Y151.09
X170.569 Y150.486
X170.566 Y150.479
X170.207 Y149.856
X170.195 Y149.835
X169.828 Y149.221
X169.813 Y149.197
X169.629 Y148.902
X169.614 Y148.879
X169.431 Y148.597
X169.42 Y148.58
X169.24 Y148.311
X169.22 Y148.282
X169.042 Y148.029
X169.022 Y148.001
X168.847 Y147.764
X168.834 Y147.746
X168.665 Y147.524
X168.658 Y147.516
X168.497 Y147.307
X168.358 Y147.127
X168.116 Y146.788
X168.04 Y146.666
X167.972 Y146.54
X167.914 Y146.412
X167.864 Y146.275
X167.821 Y146.124
X167.784 Y145.952
X167.756 Y145.76
X167.738 Y145.555
X167.732 Y145.34
X167.738 Y145.122
X167.757 Y144.903
X167.789 Y144.685
X167.831 Y144.482
X167.883 Y144.293
X167.944 Y144.121
X168.013 Y143.966
X168.088 Y143.827
X168.169 Y143.704
X168.254 Y143.595
X168.346 Y143.498
X168.452 Y143.405
X168.623 Y143.278
G2 X168.938 Y141.181 I-0.891 J-1.206
X168.484 Y140.774 I-1.206 J0.891
G1 X168.334 Y140.687
X168.192 Y140.601
X168.044 Y140.506
X167.885 Y140.4
X167.719 Y140.283
X167.545 Y140.158
X167.374 Y140.03
X167.197 Y139.89
X167.016 Y139.741
X166.838 Y139.585
X166.66 Y139.422
X166.486 Y139.25
X166.314 Y139.068
X166.147 Y138.876
X165.984 Y138.672
X165.829 Y138.457
X165.678 Y138.225
X165.531 Y137.977
X165.393 Y137.712
X165.261 Y137.425
X165.135 Y137.117
X165.016 Y136.787
X164.907 Y136.436
X164.807 Y136.061
X164.714 Y135.664
X164.633 Y135.243
X164.56 Y134.8
X164.497 Y134.337
X164.446 Y133.852
X164.435 Y133.721
X165.088 Y133.64
X165.148 Y133.631
X165.865 Y133.513
X165.918 Y133.503
X166.64 Y133.357
X166.684 Y133.348
X167.396 Y133.182
X167.431 Y133.173
X167.775 Y133.084
X167.801 Y133.077
X168.132 Y132.985
X168.171 Y132.974
X168.483 Y132.878
X168.533 Y132.861
X168.819 Y132.762
X168.9 Y132.732
X169.152 Y132.628
X169.246 Y132.585
X169.357 Y132.53
X169.435 Y132.488
X169.533 Y132.432
X169.628 Y132.374
X169.714 Y132.316
X169.835 Y132.224
X169.907 Y132.164
X169.986 Y132.094
X170.06 Y132.017
X170.116 Y131.955
G2 X170.289 Y131.722 I-1.113 J-1.005
G1 X170.328 Y131.657
G2 X170.463 Y131.366 I-1.286 J-0.772
G1 X170.486 Y131.298
G2 X170.564 Y130.88 I-1.421 J-0.481
G1 X170.567 Y130.809
G2 X170.535 Y130.433 I-1.499 J-0.063
G1 X170.519 Y130.358
G2 X170.414 Y130.042 I-1.467 J0.313
G1 X170.378 Y129.964
G2 X170.25 Y129.74 I-1.362 J0.629
G1 X170.194 Y129.659
X170.132 Y129.576
X170.065 Y129.498
X169.987 Y129.413
X169.879 Y129.307
X169.779 Y129.217
X169.691 Y129.145
X169.569 Y129.052
X169.498 Y129.001
X169.354 Y128.904
X169.296 Y128.867
X169.13 Y128.766
X169.078 Y128.736
X168.889 Y128.631
X168.844 Y128.607
X168.631 Y128.498
X168.598 Y128.481
X168.363 Y128.368
X168.337 Y128.356
X168.079 Y128.238
X168.048 Y128.224
X167.767 Y128.103
X167.75 Y128.096
X167.447 Y127.97
X167.425 Y127.961
X167.098 Y127.831
X167.082 Y127.825
X166.733 Y127.691
X166.715 Y127.684
X166.374 Y127.558
X166.492 Y127.489
X166.604 Y127.416
X166.695 Y127.351
X166.805 Y127.267
X166.891 Y127.197
X166.998 Y127.102
X167.078 Y127.025
X167.182 Y126.918
X167.254 Y126.839
X167.355 Y126.719
X167.404 Y126.657
X167.503 Y126.526
X167.558 Y126.448
X167.653 Y126.304
X167.689 Y126.246
X167.782 Y126.09
X167.813 Y126.036
X167.904 Y125.868
X167.933 Y125.813
X168.021 Y125.633
X168.04 Y125.593
X168.126 Y125.403
X168.144 Y125.36
X168.228 Y125.158
X168.248 Y125.108
X168.41 Y124.675
X168.43 Y124.619
X168.585 Y124.149
X168.599 Y124.101
X168.746 Y123.6
X168.756 Y123.564
X168.896 Y123.039
X168.904 Y123.009
X169.037 Y122.465
X169.044 Y122.435
X169.168 Y121.878
X169.174 Y121.85
X169.288 Y121.288
X169.293 Y121.262
X169.397 Y120.699
X169.403 Y120.668
X169.494 Y120.109
X169.498 Y120.079
X169.576 Y119.531
X169.581 Y119.496
X169.644 Y118.962
X169.648 Y118.916
X169.693 Y118.398
X169.697 Y118.346
X169.723 Y117.847
X169.725 Y117.785
X169.73 Y117.307
X169.729 Y117.235
X169.712 Y116.777
X169.706 Y116.689
X169.664 Y116.254
X169.652 Y116.158
X169.585 Y115.745
X169.563 Y115.636
X169.469 Y115.243
X169.437 Y115.13
X169.317 Y114.759
X169.274 Y114.643
X169.127 Y114.291
X169.076 Y114.181
X168.904 Y113.848
X168.843 Y113.741
X168.646 Y113.426
X168.579 Y113.327
X168.358 Y113.029
X168.291 Y112.946
X168.048 Y112.663
X167.981 Y112.589
X167.718 Y112.321
X167.651 Y112.257
X167.369 Y112.003
X167.302 Y111.947
X167.002 Y111.707
X166.94 Y111.66
X166.624 Y111.433
X166.559 Y111.388
X166.227 Y111.175
X166.164 Y111.137
X165.816 Y110.937
X165.755 Y110.904
X165.393 Y110.718
X165.33 Y110.687
X164.953 Y110.515
X164.891 Y110.489
X164.499 Y110.331
X164.434 Y110.306
X164.029 Y110.164
X163.969 Y110.145
X163.548 Y110.017
X163.487 Y110.
X163.053 Y109.888
X162.992 Y109.873
X162.544 Y109.777
X162.485 Y109.766
X162.022 Y109.686
X161.967 Y109.677
X161.491 Y109.613
X161.44 Y109.607
X160.949 Y109.558
X160.895 Y109.554
X160.391 Y109.522
X160.345 Y109.52
X159.827 Y109.503
X159.778 Y109.502
X159.246
X159.229
X156.757 Y109.53
X154.286 Y109.502
X154.269
X153.737
X153.688 Y109.503
X153.17 Y109.52
X153.124 Y109.522
X152.62 Y109.554
X152.566 Y109.558
X152.075 Y109.607
X152.024 Y109.613
X151.548 Y109.677
X151.493 Y109.686
X151.03 Y109.766
X150.971 Y109.777
X150.523 Y109.873
X150.462 Y109.888
X150.028 Y110.
X149.967 Y110.017
X149.546 Y110.145
X149.486 Y110.164
X149.081 Y110.306
X149.016 Y110.331
X148.624 Y110.489
X148.562 Y110.515
X148.185 Y110.687
X148.122 Y110.718
X147.76 Y110.904
X147.699 Y110.937
X147.351 Y111.137
X147.288 Y111.175
X146.956 Y111.388
X146.891 Y111.433
X146.575 Y111.66
X146.513 Y111.707
X146.213 Y111.947
X146.146 Y112.003
X145.864 Y112.257
X145.797 Y112.321
X145.534 Y112.589
X145.467 Y112.663
X145.224 Y112.946
X145.157 Y113.029
X144.936 Y113.327
X144.869 Y113.426
X144.679 Y113.731
G3 X144.265 Y113.826 I-0.254 J-0.159
G1 X144.011 Y113.667
X143.954 Y113.631 Z0.258
X143.9 Y113.598 Z0.28
X143.852 Y113.568 Z0.315
X143.812 Y113.542 Z0.363
X143.782 Y113.523 Z0.42
X143.763 Y113.512 Z0.483
X143.756 Y113.508 Z0.55
G0 Z21.243
X134.747 Y112.899
G1 Z17.243 F133.3
Z0.55
X134.741 Y112.903 Z0.483 F400
X134.723 Y112.916 Z0.42
X134.694 Y112.936 Z0.363
X134.655 Y112.964 Z0.315
X134.609 Y112.997 Z0.28
X134.557 Y113.034 Z0.258
X134.503 Y113.073 Z0.25
X134.258 Y113.247
G3 X133.84 Y113.176 I-0.174 J-0.244
G1 X133.82 Y113.149
X133.599 Y112.851
X133.519 Y112.75
X133.276 Y112.467
X133.195 Y112.379
X132.932 Y112.111
X132.852 Y112.035
X132.57 Y111.781
X132.489 Y111.712
X132.189 Y111.472
X132.115 Y111.416
X131.799 Y111.189
X131.721 Y111.136
X131.389 Y110.923
X131.314 Y110.877
X130.966 Y110.677
X130.892 Y110.637
X130.53 Y110.451
X130.454 Y110.414
X130.077 Y110.242
X130.003 Y110.211
X129.611 Y110.053
X129.534 Y110.023
X129.129 Y109.881
X129.057 Y109.858
X128.636 Y109.73
X128.562 Y109.709
X128.128 Y109.597
X128.055 Y109.58
X127.607 Y109.484
X127.536 Y109.47
X127.073 Y109.39
X127.007 Y109.38
X126.531 Y109.316
X126.47 Y109.309
X125.979 Y109.26
X125.914 Y109.255
X125.41 Y109.223
X125.355 Y109.22
X124.837 Y109.203
X124.778 Y109.202
X124.246
X124.226
X121.757 Y109.23
X119.289 Y109.202
X119.269
X118.737
X118.678 Y109.203
X118.16 Y109.22
X118.105 Y109.223
X117.601 Y109.255
X117.536 Y109.26
X117.045 Y109.309
X116.984 Y109.316
X116.508 Y109.38
X116.442 Y109.39
X115.979 Y109.47
X115.908 Y109.484
X115.46 Y109.58
X115.387 Y109.597
X114.953 Y109.709
X114.879 Y109.73
X114.458 Y109.858
X114.386 Y109.881
X113.981 Y110.023
X113.904 Y110.053
X113.512 Y110.211
X113.438 Y110.242
X113.061 Y110.414
X112.985 Y110.451
X112.623 Y110.637
X112.549 Y110.677
X112.201 Y110.877
X112.126 Y110.923
X111.794 Y111.136
X111.716 Y111.189
X111.4 Y111.416
X111.326 Y111.472
X111.026 Y111.712
X110.945 Y111.781
X110.663 Y112.035
X110.583 Y112.111
X110.32 Y112.379
X110.239 Y112.467
X109.996 Y112.75
X109.916 Y112.851
X109.695 Y113.149
X109.615 Y113.267
X109.418 Y113.582
X109.345 Y113.71
X109.173 Y114.043
X109.111 Y114.175
X108.964 Y114.527
X108.912 Y114.667
X108.792 Y115.038
X108.754 Y115.173
X108.66 Y115.566
X108.634 Y115.697
X108.567 Y116.11
X108.552 Y116.225
X108.51 Y116.66
X108.503 Y116.766
X108.486 Y117.224
X108.485 Y117.31
X108.49 Y117.788
X108.492 Y117.863
X108.518 Y118.362
X108.523 Y118.424
X108.568 Y118.942
X108.573 Y118.997
X108.636 Y119.531
X108.642 Y119.574
X108.72 Y120.122
X108.725 Y120.157
X108.816 Y120.716
X108.823 Y120.754
X108.927 Y121.317
X108.933 Y121.348
X109.047 Y121.91
X109.054 Y121.943
X109.178 Y122.5
X109.187 Y122.536
X109.319 Y123.08
X109.329 Y123.117
X109.469 Y123.642
X109.481 Y123.685
X109.628 Y124.186
X109.646 Y124.243
X109.801 Y124.713
X109.824 Y124.78
X109.986 Y125.213
X110.01 Y125.273
X110.094 Y125.475
X110.116 Y125.526
X110.202 Y125.716
X110.225 Y125.765
X110.313 Y125.945
X110.347 Y126.011
X110.438 Y126.179
X110.475 Y126.244
X110.568 Y126.4
X110.612 Y126.469
X110.707 Y126.613
X110.773 Y126.707
X110.872 Y126.838
X110.931 Y126.912
X111.032 Y127.032
X111.118 Y127.128
X111.222 Y127.235
X111.318 Y127.326
X111.425 Y127.421
X111.495 Y127.48
X111.326 Y127.545
X111.306 Y127.552
X110.979 Y127.682
X110.953 Y127.693
X110.65 Y127.819
X110.629 Y127.828
X110.348 Y127.949
X110.311 Y127.965
X110.053 Y128.083
X110.022 Y128.098
X109.787 Y128.211
X109.747 Y128.231
X109.534 Y128.34
X109.48 Y128.369
X109.291 Y128.474
X109.229 Y128.509
X109.063 Y128.61
X108.993 Y128.655
X108.849 Y128.752
X108.764 Y128.813
X108.642 Y128.906
X108.536 Y128.993
X108.436 Y129.082
X108.37 Y129.145
X108.307 Y129.21
X108.229 Y129.295
X108.148 Y129.389
X108.074 Y129.488
X108.018 Y129.569
G2 X107.865 Y129.839 I1.481 J1.024
G1 X107.829 Y129.917
G2 X107.703 Y130.295 I1.634 J0.754
G1 X107.687 Y130.37
G2 X107.649 Y130.822 I1.76 J0.376
G1 X107.652 Y130.893
G2 X107.745 Y131.394 I1.798 J-0.076
G1 X107.768 Y131.462
G2 X107.93 Y131.811 I1.705 J-0.577
G1 X107.969 Y131.876
G2 X108.176 Y132.157 I1.543 J-0.926
G1 X108.232 Y132.219
G2 X108.416 Y132.395 I1.336 J-1.207
G1 X108.488 Y132.455
X108.559 Y132.511
X108.634 Y132.564
X108.72 Y132.622
X108.833 Y132.693
X108.931 Y132.749
X109.025 Y132.799
X109.136 Y132.854
X109.248 Y132.905
X109.5 Y133.009
X109.598 Y133.046
X109.884 Y133.145
X109.944 Y133.164
X110.256 Y133.26
X110.303 Y133.274
X110.634 Y133.366
X110.665 Y133.375
X111.009 Y133.464
X111.051 Y133.474
X111.763 Y133.64
X111.815 Y133.651
X112.537 Y133.797
X112.602 Y133.809
X113.319 Y133.927
X113.39 Y133.937
X113.754 Y133.982
X113.72 Y134.301
X113.659 Y134.756
X113.587 Y135.19
X113.507 Y135.601
X113.417 Y135.989
X113.32 Y136.353
X113.214 Y136.691
X113.1 Y137.01
X112.979 Y137.306
X112.852 Y137.58
X112.721 Y137.831
X112.582 Y138.067
X112.439 Y138.287
X112.292 Y138.49
X112.138 Y138.684
X111.978 Y138.867
X111.815 Y139.041
X111.648 Y139.204
X111.477 Y139.362
X111.305 Y139.512
X111.129 Y139.657
X110.958 Y139.792
X110.792 Y139.917
X110.623 Y140.039
X110.46 Y140.152
X110.307 Y140.255
X110.164 Y140.346
X110.028 Y140.429
X109.881 Y140.514
G2 X109.225 Y142.974 I0.902 J1.558
X109.713 Y143.52 I1.558 J-0.902
G1 X109.874 Y143.639
X109.961 Y143.715
X110.034 Y143.791
X110.102 Y143.879
X110.169 Y143.981
X110.233 Y144.099
X110.292 Y144.232
X110.345 Y144.384
X110.392 Y144.552
X110.43 Y144.737
X110.459 Y144.938
X110.477 Y145.14
X110.483 Y145.34
X110.477 Y145.538
X110.461 Y145.725
X110.436 Y145.899
X110.403 Y146.052
X110.366 Y146.182
X110.323 Y146.299
X110.274 Y146.407
X110.216 Y146.515
X110.15 Y146.621
X109.916 Y146.948
X109.781 Y147.124
X109.62 Y147.333
X109.612 Y147.343
X109.443 Y147.565
X109.427 Y147.586
X109.252 Y147.823
X109.228 Y147.856
X109.05 Y148.109
X109.026 Y148.144
X108.846 Y148.413
X108.832 Y148.434
X108.649 Y148.716
X108.632 Y148.743
X108.448 Y149.038
X108.43 Y149.068
X108.063 Y149.682
X108.048 Y149.706
X107.689 Y150.329
X107.685 Y150.337
X107.341 Y150.941
X107.177 Y151.229
X107.173 Y151.237
X107.017 Y151.514
X107.016 Y151.515
X106.867 Y151.78
X106.856 Y151.8
X106.718 Y152.053
X106.704 Y152.079
X106.576 Y152.323
X106.556 Y152.362
X106.44 Y152.597
X106.412 Y152.656
X106.309 Y152.885
X106.277 Y152.961
X106.188 Y153.186
X106.156 Y153.274
X106.081 Y153.497
X106.047 Y153.611
X105.988 Y153.834
X105.964 Y153.938
X105.919 Y154.161
X105.898 Y154.288
X105.869 Y154.514
X105.858 Y154.617
X105.842 Y154.845
X105.838 Y154.955
X105.836 Y155.185
X105.838 Y155.279
X105.848 Y155.511
X105.854 Y155.602
X105.876 Y155.835
X105.89 Y155.948
X105.964 Y156.414
X105.987 Y156.53
X105.918 Y156.589
X105.852 Y156.651
X105.242 Y157.261
G2 X104.715 Y158.534 I1.273 J1.273
G1 Y160.363
G2 X105.242 Y161.636 I1.8 J0.
G1 X105.852 Y162.246
G2 X107.125 Y162.773 I1.273 J-1.273
G1 X136.39
G2 X137.663 Y162.246 I0. J-1.8
G1 X138.273 Y161.636
G2 X138.8 Y160.363 I-1.273 J-1.273
G1 Y158.534
G2 X138.273 Y157.261 I-1.8 J0.
G1 X137.663 Y156.651
X137.597 Y156.589
X137.528 Y156.53
X137.551 Y156.414
X137.625 Y155.948
X137.639 Y155.835
X137.661 Y155.602
X137.667 Y155.511
X137.677 Y155.279
X137.679 Y155.185
X137.677 Y154.955
X137.673 Y154.845
X137.657 Y154.617
X137.646 Y154.514
X137.617 Y154.288
X137.596 Y154.161
X137.551 Y153.938
X137.527 Y153.834
X137.468 Y153.611
X137.434 Y153.497
X137.359 Y153.274
X137.327 Y153.186
X137.238 Y152.961
X137.206 Y152.885
X137.103 Y152.656
X137.075 Y152.597
X136.959 Y152.362
X136.939 Y152.323
X136.811 Y152.079
X136.797 Y152.053
X136.659 Y151.8
X136.648 Y151.78
X136.499 Y151.515
X136.498 Y151.514
X136.342 Y151.237
X136.338 Y151.229
X136.174 Y150.941
X135.83 Y150.337
X135.826 Y150.329
X135.467 Y149.706
X135.452 Y149.682
X135.085 Y149.068
X135.067 Y149.038
X134.883 Y148.743
X134.866 Y148.716
X134.683 Y148.434
X134.669 Y148.413
X134.489 Y148.144
X134.465 Y148.109
X134.287 Y147.856
X134.263 Y147.823
X134.088 Y147.586
X134.072 Y147.565
X133.903 Y147.343
X133.895 Y147.333
X133.734 Y147.124
X133.599 Y146.948
X133.365 Y146.621
X133.299 Y146.515
X133.241 Y146.407
X133.192 Y146.299
X133.149 Y146.182
X133.112 Y146.052
X133.079 Y145.899
X133.054 Y145.725
X133.038 Y145.538
X133.032 Y145.34
X133.038 Y145.14
X133.056 Y144.938
X133.085 Y144.737
X133.123 Y144.552
X133.17 Y144.384
X133.223 Y144.232
X133.282 Y144.099
X133.346 Y143.981
X133.413 Y143.879
X133.481 Y143.791
X133.554 Y143.715
X133.641 Y143.639
X133.802 Y143.52
G2 X134.18 Y141.002 I-1.07 J-1.448
X133.634 Y140.514 I-1.448 J1.07
G1 X133.487 Y140.429
X133.351 Y140.346
X133.208 Y140.255
X133.055 Y140.152
X132.892 Y140.039
X132.723 Y139.917
X132.557 Y139.792
X132.386 Y139.657
X132.21 Y139.512
X132.038 Y139.362
X131.867 Y139.204
X131.7 Y139.041
X131.537 Y138.867
X131.377 Y138.684
X131.223 Y138.49
X131.076 Y138.287
X130.933 Y138.067
X130.794 Y137.831
X130.663 Y137.58
X130.536 Y137.306
X130.415 Y137.01
X130.301 Y136.691
X130.195 Y136.353
X130.098 Y135.989
X130.008 Y135.601
X129.928 Y135.19
X129.856 Y134.756
X129.795 Y134.301
X129.761 Y133.982
X130.125 Y133.937
X130.196 Y133.927
X130.913 Y133.809
X130.978 Y133.797
X131.7 Y133.651
X131.752 Y133.64
X132.464 Y133.474
X132.506 Y133.464
X132.85 Y133.375
X132.881 Y133.366
X133.212 Y133.274
X133.259 Y133.26
X133.571 Y133.164
X133.631 Y133.145
X133.917 Y133.046
X134.015 Y133.009
X134.267 Y132.905
X134.379 Y132.854
X134.49 Y132.799
X134.584 Y132.749
X134.682 Y132.693
X134.795 Y132.622
X134.881 Y132.564
X134.956 Y132.511
X135.027 Y132.455
X135.099 Y132.395
G2 X135.283 Y132.219 I-1.152 J-1.383
G1 X135.339 Y132.157
G2 X135.546 Y131.876 I-1.336 J-1.207
G1 X135.585 Y131.811
G2 X135.747 Y131.462 I-1.543 J-0.926
G1 X135.77 Y131.394
G2 X135.863 Y130.893 I-1.705 J-0.577
G1 X135.866 Y130.822
G2 X135.828 Y130.37 I-1.798 J-0.076
G1 X135.812 Y130.295
G2 X135.686 Y129.917 I-1.76 J0.376
G1 X135.65 Y129.839
G2 X135.497 Y129.569 I-1.634 J0.754
G1 X135.441 Y129.488
X135.367 Y129.389
X135.286 Y129.295
X135.208 Y129.21
X135.145 Y129.145
X135.079 Y129.082
X134.979 Y128.993
X134.873 Y128.906
X134.751 Y128.813
X134.666 Y128.752
X134.522 Y128.655
X134.452 Y128.61
X134.286 Y128.509
X134.224 Y128.474
X134.035 Y128.369
X133.981 Y128.34
X133.768 Y128.231
X133.728 Y128.211
X133.493 Y128.098
X133.462 Y128.083
X133.204 Y127.965
X133.167 Y127.949
X132.886 Y127.828
X132.865 Y127.819
X132.562 Y127.693
X132.536 Y127.682
X132.209 Y127.552
X132.189 Y127.545
X132.02 Y127.48
X132.09 Y127.421
X132.197 Y127.326
X132.293 Y127.235
X132.397 Y127.128
X132.483 Y127.032
X132.584 Y126.912
X132.643 Y126.838
X132.742 Y126.707
X132.808 Y126.613
X132.903 Y126.469
X132.947 Y126.4
X133.04 Y126.244
X133.077 Y126.179
X133.168 Y126.011
X133.202 Y125.945
X133.29 Y125.765
X133.313 Y125.716
X133.399 Y125.526
X133.421 Y125.475
X133.505 Y125.273
X133.529 Y125.213
X133.691 Y124.78
X133.714 Y124.713
X133.869 Y124.243
X133.887 Y124.186
X134.034 Y123.685
X134.046 Y123.642
X134.186 Y123.117
X134.195 Y123.08
X134.329 Y122.536
X134.337 Y122.5
X134.461 Y121.943
X134.468 Y121.91
X134.582 Y121.348
X134.588 Y121.317
X134.692 Y120.754
X134.699 Y120.716
X134.79 Y120.157
X134.795 Y120.122
X134.873 Y119.574
X134.879 Y119.531
X134.942 Y118.997
X134.947 Y118.942
X134.992 Y118.424
X134.997 Y118.362
X135.023 Y117.863
X135.025 Y117.788
X135.03 Y117.31
X135.029 Y117.224
X135.012 Y116.766
X135.005 Y116.66
X134.963 Y116.225
X134.948 Y116.11
X134.881 Y115.697
X134.855 Y115.566
X134.761 Y115.173
X134.723 Y115.038
X134.603 Y114.667
X134.551 Y114.527
X134.404 Y114.175
X134.342 Y114.043
X134.17 Y113.71
X134.097 Y113.582
X133.9 Y113.267
X133.84 Y113.176
G2 X133.585 Y113.08 I-0.2 J0.143
G3 X133.327 Y112.989 I-0.057 J-0.249
G1 X133.291 Y112.946
X133.048 Y112.663
X132.981 Y112.589
X132.718 Y112.321
X132.651 Y112.257
X132.369 Y112.003
X132.302 Y111.947
X132.002 Y111.707
X131.94 Y111.66
X131.624 Y111.433
X131.559 Y111.388
X131.227 Y111.175
X131.164 Y111.137
X130.816 Y110.937
X130.755 Y110.904
X130.393 Y110.718
X130.33 Y110.687
X129.953 Y110.515
X129.891 Y110.489
X129.499 Y110.331
X129.434 Y110.306
X129.029 Y110.164
X128.969 Y110.145
X128.548 Y110.017
X128.487 Y110.
X128.053 Y109.888
X127.992 Y109.873
X127.544 Y109.777
X127.485 Y109.766
X127.022 Y109.686
X126.967 Y109.677
X126.491 Y109.613
X126.44 Y109.607
X125.949 Y109.558
X125.895 Y109.554
X125.391 Y109.522
X125.345 Y109.52
X124.827 Y109.503
X124.778 Y109.502
X124.246
X124.229
X121.757 Y109.53
X119.286 Y109.502
X119.269
X118.737
X118.688 Y109.503
X118.17 Y109.52
X118.124 Y109.522
X117.62 Y109.554
X117.566 Y109.558
X117.075 Y109.607
X117.024 Y109.613
X116.548 Y109.677
X116.493 Y109.686
X116.03 Y109.766
X115.971 Y109.777
X115.523 Y109.873
X115.462 Y109.888
X115.028 Y110.
X114.967 Y110.017
X114.546 Y110.145
X114.486 Y110.164
X114.081 Y110.306
X114.016 Y110.331
X113.624 Y110.489
X113.562 Y110.515
X113.185 Y110.687
X113.122 Y110.718
X112.76 Y110.904
X112.699 Y110.937
X112.351 Y111.137
X112.288 Y111.175
X111.956 Y111.388
X111.891 Y111.433
X111.575 Y111.66
X111.513 Y111.707
X111.213 Y111.947
X111.146 Y112.003
X110.864 Y112.257
X110.797 Y112.321
X110.534 Y112.589
X110.467 Y112.663
X110.224 Y112.946
X110.157 Y113.029
X109.936 Y113.327
X109.869 Y113.426
X109.672 Y113.741
X109.611 Y113.848
X109.439 Y114.181
X109.388 Y114.291
X109.241 Y114.643
X109.198 Y114.759
X109.078 Y115.13
X109.046 Y115.243
X108.952 Y115.636
X108.93 Y115.745
X108.863 Y116.158
X108.851 Y116.254
X108.809 Y116.689
X108.803 Y116.777
X108.786 Y117.235
X108.785 Y117.307
X108.79 Y117.785
X108.792 Y117.847
X108.818 Y118.346
X108.822 Y118.398
X108.867 Y118.916
X108.871 Y118.962
X108.934 Y119.496
X108.939 Y119.531
X109.017 Y120.079
X109.021 Y120.109
X109.112 Y120.668
X109.118 Y120.699
X109.222 Y121.262
X109.227 Y121.288
X109.341 Y121.85
X109.347 Y121.878
X109.471 Y122.435
X109.478 Y122.465
X109.611 Y123.009
X109.619 Y123.039
X109.759 Y123.564
X109.769 Y123.6
X109.916 Y124.101
X109.93 Y124.149
X110.085 Y124.619
X110.105 Y124.675
X110.267 Y125.108
X110.287 Y125.158
X110.371 Y125.36
X110.389 Y125.403
X110.475 Y125.593
X110.494 Y125.633
X110.582 Y125.813
X110.611 Y125.868
X110.702 Y126.036
X110.733 Y126.09
X110.826 Y126.246
X110.862 Y126.304
X110.957 Y126.448
X111.012 Y126.526
X111.111 Y126.657
X111.16 Y126.719
X111.261 Y126.839
X111.333 Y126.918
X111.437 Y127.025
X111.517 Y127.102
X111.624 Y127.197
X111.71 Y127.267
X111.82 Y127.351
X111.911 Y127.416
X112.023 Y127.489
X112.141 Y127.558
X111.8 Y127.684
X111.782 Y127.691
X111.433 Y127.825
X111.417 Y127.831
X111.09 Y127.961
X111.068 Y127.97
X110.765 Y128.096
X110.748 Y128.103
X110.467 Y128.224
X110.436 Y128.238
X110.178 Y128.356
X110.152 Y128.368
X109.917 Y128.481
X109.884 Y128.498
X109.671 Y128.607
X109.626 Y128.631
X109.437 Y128.736
X109.385 Y128.766
X109.219 Y128.867
X109.161 Y128.904
X109.017 Y129.001
X108.946 Y129.052
X108.824 Y129.145
X108.736 Y129.217
X108.636 Y129.307
X108.528 Y129.413
X108.45 Y129.498
X108.383 Y129.576
X108.321 Y129.659
X108.265 Y129.74
G2 X108.137 Y129.964 I1.234 J0.853
G1 X108.101 Y130.042
G2 X107.996 Y130.358 I1.362 J0.629
G1 X107.98 Y130.433
G2 X107.948 Y130.809 I1.467 J0.313
G1 X107.951 Y130.88
G2 X108.029 Y131.298 I1.499 J-0.063
G1 X108.052 Y131.366
G2 X108.187 Y131.657 I1.421 J-0.481
G1 X108.226 Y131.722
G2 X108.399 Y131.955 I1.286 J-0.772
G1 X108.455 Y132.017
X108.529 Y132.094
X108.608 Y132.164
X108.68 Y132.224
X108.801 Y132.316
X108.887 Y132.374
X108.982 Y132.432
X109.08 Y132.488
X109.158 Y132.53
X109.269 Y132.585
X109.363 Y132.628
X109.615 Y132.732
X109.696 Y132.762
X109.982 Y132.861
X110.032 Y132.878
X110.344 Y132.974
X110.383 Y132.985
X110.714 Y133.077
X110.74 Y133.084
X111.084 Y133.173
X111.119 Y133.182
X111.831 Y133.348
X111.875 Y133.357
X112.597 Y133.503
X112.65 Y133.513
X113.367 Y133.631
X113.427 Y133.64
X114.08 Y133.721
X114.069 Y133.852
X114.018 Y134.337
X113.955 Y134.8
X113.882 Y135.243
X113.801 Y135.664
X113.708 Y136.061
X113.608 Y136.436
X113.499 Y136.787
X113.38 Y137.117
X113.254 Y137.425
X113.122 Y137.712
X112.984 Y137.977
X112.837 Y138.225
X112.686 Y138.457
X112.531 Y138.672
X112.368 Y138.876
X112.201 Y139.068
X112.029 Y139.25
X111.855 Y139.422
X111.677 Y139.585
X111.499 Y139.741
X111.318 Y139.89
X111.141 Y140.03
X110.97 Y140.158
X110.796 Y140.283
X110.63 Y140.4
X110.471 Y140.506
X110.323 Y140.601
X110.181 Y140.687
X110.031 Y140.774
G2 X109.485 Y142.824 I0.752 J1.298
X109.892 Y143.278 I1.298 J-0.752
G1 X110.063 Y143.405
X110.169 Y143.498
X110.261 Y143.595
X110.346 Y143.704
X110.427 Y143.827
X110.502 Y143.966
X110.571 Y144.121
X110.632 Y144.293
X110.684 Y144.482
X110.726 Y144.685
X110.758 Y144.903
X110.777 Y145.122
X110.783 Y145.34
X110.777 Y145.555
X110.759 Y145.76
X110.731 Y145.952
X110.694 Y146.124
X110.651 Y146.275
X110.601 Y146.412
X110.543 Y146.54
X110.475 Y146.666
X110.399 Y146.788
X110.157 Y147.127
X110.018 Y147.307
X109.857 Y147.516
X109.85 Y147.524
X109.681 Y147.746
X109.668 Y147.764
X109.493 Y148.001
X109.473 Y148.029
X109.295 Y148.282
X109.275 Y148.311
X109.095 Y148.58
X109.084 Y148.597
X108.901 Y148.879
X108.886 Y148.902
X108.702 Y149.197
X108.687 Y149.221
X108.32 Y149.835
X108.308 Y149.856
X107.949 Y150.479
X107.946 Y150.486
X107.602 Y151.09
X107.438 Y151.378
X107.434 Y151.384
X107.278 Y151.661
Y151.662
X107.129 Y151.927
X107.119 Y151.944
X106.981 Y152.197
X106.97 Y152.218
X106.842 Y152.462
X106.825 Y152.495
X106.709 Y152.73
X106.686 Y152.779
X106.583 Y153.008
X106.556 Y153.071
X106.467 Y153.296
X106.44 Y153.37
X106.365 Y153.593
X106.337 Y153.687
X106.278 Y153.91
X106.258 Y153.997
X106.213 Y154.22
X106.195 Y154.326
X106.166 Y154.552
X106.158 Y154.638
X106.142 Y154.866
X106.138 Y154.958
X106.136 Y155.188
X106.137 Y155.266
X106.147 Y155.498
X106.153 Y155.574
X106.175 Y155.807
X106.187 Y155.901
X106.261 Y156.367
X106.281 Y156.473
X106.324 Y156.656
G2 X106.064 Y156.863 I0.801 J1.268
G1 X105.454 Y157.473
G2 X105.015 Y158.534 I1.061 J1.061
G1 Y160.363
G2 X105.454 Y161.424 I1.5 J0.
G1 X106.064 Y162.034
G2 X107.125 Y162.473 I1.061 J-1.061
G1 X136.39
G2 X137.451 Y162.034 I0. J-1.5
G1 X138.061 Y161.424
G2 X138.5 Y160.363 I-1.061 J-1.061
G1 Y158.534
G2 X138.061 Y157.473 I-1.5 J0.
G1 X137.451 Y156.863
G2 X137.191 Y156.656 I-1.061 J1.061
G1 X137.234 Y156.473
X137.254 Y156.367
X137.328 Y155.901
X137.34 Y155.807
X137.362 Y155.574
X137.368 Y155.498
X137.378 Y155.266
X137.379 Y155.188
X137.377 Y154.958
X137.373 Y154.866
X137.357 Y154.638
X137.349 Y154.552
X137.32 Y154.326
X137.302 Y154.22
X137.257 Y153.997
X137.237 Y153.91
X137.178 Y153.687
X137.15 Y153.593
X137.075 Y153.37
X137.048 Y153.296
X136.959 Y153.071
X136.932 Y153.008
X136.829 Y152.779
X136.806 Y152.73
X136.69 Y152.495
X136.673 Y152.462
X136.545 Y152.218
X136.534 Y152.197
X136.396 Y151.944
X136.386 Y151.927
X136.237 Y151.662
Y151.661
X136.081 Y151.384
X136.077 Y151.378
X135.913 Y151.09
X135.569 Y150.486
X135.566 Y150.479
X135.207 Y149.856
X135.195 Y149.835
X134.828 Y149.221
X134.813 Y149.197
X134.629 Y148.902
X134.614 Y148.879
X134.431 Y148.597
X134.42 Y148.58
X134.24 Y148.311
X134.22 Y148.282
X134.042 Y148.029
X134.022 Y148.001
X133.847 Y147.764
X133.834 Y147.746
X133.665 Y147.524
X133.658 Y147.516
X133.497 Y147.307
X133.358 Y147.127
X133.116 Y146.788
X133.04 Y146.666
X132.972 Y146.54
X132.914 Y146.412
X132.864 Y146.275
X132.821 Y146.124
X132.784 Y145.952
X132.756 Y145.76
X132.738 Y145.555
X132.732 Y145.34
X132.738 Y145.122
X132.757 Y144.903
X132.789 Y144.685
X132.831 Y144.482
X132.883 Y144.293
X132.944 Y144.121
X133.013 Y143.966
X133.088 Y143.827
X133.169 Y143.704
X133.254 Y143.595
X133.346 Y143.498
X133.452 Y143.405
X133.623 Y143.278
G2 X133.938 Y141.181 I-0.891 J-1.206
X133.484 Y140.774 I-1.206 J0.891
G1 X133.334 Y140.687
X133.192 Y140.601
X133.044 Y140.506
X132.885 Y140.4
X132.719 Y140.283
X132.545 Y140.158
X132.374 Y140.03
X132.197 Y139.89
X132.016 Y139.741
X131.838 Y139.585
X131.66 Y139.422
X131.486 Y139.25
X131.314 Y139.068
X131.147 Y138.876
X130.984 Y138.672
X130.829 Y138.457
X130.678 Y138.225
X130.531 Y137.977
X130.393 Y137.712
X130.261 Y137.425
X130.135 Y137.117
X130.016 Y136.787
X129.907 Y136.436
X129.807 Y136.061
X129.714 Y135.664
X129.633 Y135.243
X129.56 Y134.8
X129.497 Y134.337
X129.446 Y133.852
X129.435 Y133.721
X130.088 Y133.64
X130.148 Y133.631
X130.865 Y133.513
X130.918 Y133.503
X131.64 Y133.357
X131.684 Y133.348
X132.396 Y133.182
X132.431 Y133.173
X132.775 Y133.084
X132.801 Y133.077
X133.132 Y132.985
X133.171 Y132.974
X133.483 Y132.878
X133.533 Y132.861
X133.819 Y132.762
X133.9 Y132.732
X134.152 Y132.628
X134.246 Y132.585
X134.357 Y132.53
X134.435 Y132.488
X134.533 Y132.432
X134.628 Y132.374
X134.714 Y132.316
X134.835 Y132.224
X134.907 Y132.164
X134.986 Y132.094
X135.06 Y132.017
X135.116 Y131.955
G2 X135.289 Y131.722 I-1.113 J-1.005
G1 X135.328 Y131.657
G2 X135.463 Y131.366 I-1.286 J-0.772
G1 X135.486 Y131.298
G2 X135.564 Y130.88 I-1.421 J-0.481
G1 X135.567 Y130.809
G2 X135.535 Y130.433 I-1.499 J-0.063
G1 X135.519 Y130.358
G2 X135.414 Y130.042 I-1.467 J0.313
G1 X135.378 Y129.964
G2 X135.25 Y129.74 I-1.362 J0.629
G1 X135.194 Y129.659
X135.132 Y129.576
X135.065 Y129.498
X134.987 Y129.413
X134.879 Y129.307
X134.779 Y129.217
X134.691 Y129.145
X134.569 Y129.052
X134.498 Y129.001
X134.354 Y128.904
X134.296 Y128.867
X134.13 Y128.766
X134.078 Y128.736
X133.889 Y128.631
X133.844 Y128.607
X133.631 Y128.498
X133.598 Y128.481
X133.363 Y128.368
X133.337 Y128.356
X133.079 Y128.238
X133.048 Y128.224
X132.767 Y128.103
X132.75 Y128.096
X132.447 Y127.97
X132.425 Y127.961
X132.098 Y127.831
X132.082 Y127.825
X131.733 Y127.691
X131.715 Y127.684
X131.374 Y127.558
X131.492 Y127.489
X131.604 Y127.416
X131.695 Y127.351
X131.805 Y127.267
X131.891 Y127.197
X131.998 Y127.102
X132.078 Y127.025
X132.182 Y126.918
X132.254 Y126.839
X132.355 Y126.719
X132.404 Y126.657
X132.503 Y126.526
X132.558 Y126.448
X132.653 Y126.304
X132.689 Y126.246
X132.782 Y126.09
X132.813 Y126.036
X132.904 Y125.868
X132.933 Y125.813
X133.021 Y125.633
X133.04 Y125.593
X133.126 Y125.403
X133.144 Y125.36
X133.228 Y125.158
X133.248 Y125.108
X133.41 Y124.675
X133.43 Y124.619
X133.585 Y124.149
X133.599 Y124.101
X133.746 Y123.6
X133.756 Y123.564
X133.896 Y123.039
X133.904 Y123.009
X134.037 Y122.465
X134.044 Y122.435
X134.168 Y121.878
X134.174 Y121.85
X134.288 Y121.288
X134.293 Y121.262
X134.397 Y120.699
X134.403 Y120.668
X134.494 Y120.109
X134.498 Y120.079
X134.576 Y119.531
X134.581 Y119.496
X134.644 Y118.962
X134.648 Y118.916
X134.693 Y118.398
X134.697 Y118.346
X134.723 Y117.847
X134.725 Y117.785
X134.73 Y117.307
X134.729 Y117.235
X134.712 Y116.777
X134.706 Y116.689
X134.664 Y116.254
X134.652 Y116.158
X134.585 Y115.745
X134.563 Y115.636
X134.469 Y115.243
X134.437 Y115.13
X134.317 Y114.759
X134.274 Y114.643
X134.127 Y114.291
X134.076 Y114.181
X133.904 Y113.848
X133.843 Y113.741
X133.646 Y113.426
X133.579 Y113.327
X133.358 Y113.029
X133.327 Y112.989
G3 X133.264 Y112.769 I0.235 J-0.187
X133.375 Y112.568 I0.298 J0.034
G1 X133.61 Y112.381
X133.662 Y112.34 Z0.258
X133.712 Y112.3 Z0.28
X133.756 Y112.265 Z0.315
X133.794 Y112.235 Z0.363
X133.822 Y112.213 Z0.42
X133.839 Y112.199 Z0.483
X133.845 Y112.195 Z0.55
G0 Z21.243
X133.884 Y105.536
G1 Z17.243 F133.3
Z0.55
X133.878 Y105.532 Z0.483 F400
X133.86 Y105.519 Z0.42
X133.83 Y105.498 Z0.363
X133.792 Y105.471 Z0.315
X133.745 Y105.438 Z0.28
X133.694 Y105.401 Z0.258
X133.639 Y105.362 Z0.25
X133.395 Y105.188
G3 X133.325 Y104.77 I0.174 J-0.244
G1 X133.385 Y104.679
X133.582 Y104.364
X133.655 Y104.236
X133.827 Y103.903
X133.889 Y103.771
X134.036 Y103.419
X134.088 Y103.279
X134.208 Y102.908
X134.246 Y102.773
X134.34 Y102.38
X134.366 Y102.249
X134.433 Y101.836
X134.448 Y101.721
X134.49 Y101.286
X134.497 Y101.18
X134.514 Y100.722
X134.515 Y100.636
X134.51 Y100.158
X134.508 Y100.083
X134.482 Y99.584
X134.477 Y99.522
X134.432 Y99.004
X134.427 Y98.95
X134.364 Y98.415
X134.358 Y98.372
X134.28 Y97.824
X134.275 Y97.788
X134.184 Y97.23
X134.177 Y97.192
X134.073 Y96.629
X134.067 Y96.599
X133.953 Y96.036
X133.946 Y96.002
X133.822 Y95.446
X133.814 Y95.41
X133.681 Y94.865
X133.671 Y94.829
X133.531 Y94.304
X133.519 Y94.26
X133.372 Y93.76
X133.354 Y93.703
X133.199 Y93.233
X133.176 Y93.167
X133.014 Y92.734
X132.99 Y92.672
X132.906 Y92.47
X132.885 Y92.423
X132.799 Y92.232
X132.774 Y92.18
X132.686 Y92.
X132.653 Y91.934
X132.562 Y91.766
X132.525 Y91.702
X132.432 Y91.546
X132.388 Y91.476
X132.293 Y91.332
X132.229 Y91.242
X132.13 Y91.11
X132.066 Y91.029
X131.965 Y90.91
X131.882 Y90.819
X131.778 Y90.712
X131.684 Y90.622
X131.577 Y90.527
X131.505 Y90.466
X131.674 Y90.401
X131.693 Y90.394
X132.02 Y90.264
X132.046 Y90.254
X132.349 Y90.128
X132.373 Y90.117
X132.654 Y89.996
X132.686 Y89.982
X132.944 Y89.865
X132.979 Y89.848
X133.214 Y89.735
X133.254 Y89.715
X133.467 Y89.606
X133.52 Y89.578
X133.709 Y89.473
X133.77 Y89.437
X133.936 Y89.336
X134.006 Y89.292
X134.15 Y89.195
X134.235 Y89.133
X134.357 Y89.04
X134.464 Y88.953
X134.564 Y88.864
X134.631 Y88.801
X134.695 Y88.735
X134.773 Y88.65
X134.854 Y88.555
X134.928 Y88.454
X134.984 Y88.373
G2 X135.135 Y88.108 I-1.483 J-1.02
G1 X135.171 Y88.03
G2 X135.297 Y87.653 I-1.634 J-0.755
G1 X135.313 Y87.579
G2 X135.351 Y87.125 I-1.76 J-0.378
G1 X135.348 Y87.054
G2 X135.255 Y86.553 I-1.798 J0.076
G1 X135.232 Y86.485
G2 X135.072 Y86.137 I-1.705 J0.577
G1 X135.033 Y86.072
G2 X134.829 Y85.795 I-1.545 J0.924
G1 X134.773 Y85.732
G2 X134.585 Y85.552 I-1.341 J1.201
G1 X134.513 Y85.492
X134.441 Y85.434
X134.365 Y85.38
X134.279 Y85.322
X134.166 Y85.252
X134.068 Y85.196
X133.967 Y85.143
X133.856 Y85.089
X133.752 Y85.042
X133.5 Y84.938
X133.404 Y84.901
X133.118 Y84.802
X133.055 Y84.781
X132.743 Y84.685
X132.699 Y84.672
X132.368 Y84.58
X132.335 Y84.571
X131.991 Y84.482
X131.949 Y84.472
X131.237 Y84.306
X131.183 Y84.294
X130.461 Y84.149
X130.399 Y84.138
X129.682 Y84.019
X129.612 Y84.009
X129.246 Y83.963
X129.28 Y83.645
X129.341 Y83.191
X129.413 Y82.756
X129.493 Y82.345
X129.583 Y81.957
X129.68 Y81.593
X129.786 Y81.255
X129.9 Y80.936
X130.021 Y80.64
X130.148 Y80.366
X130.279 Y80.115
X130.417 Y79.879
X130.561 Y79.659
X130.708 Y79.456
X130.863 Y79.262
X131.021 Y79.079
X131.185 Y78.906
X131.352 Y78.741
X131.523 Y78.583
X131.695 Y78.434
X131.869 Y78.29
X132.042 Y78.154
X132.21 Y78.028
X132.376 Y77.907
X132.538 Y77.795
X132.692 Y77.692
X132.836 Y77.6
X132.974 Y77.516
X133.123 Y77.429
G2 X133.772 Y74.967 I-0.906 J-1.555
X133.284 Y74.424 I-1.555 J0.906
G1 X133.125 Y74.307
X133.041 Y74.233
X132.966 Y74.154
X132.897 Y74.066
X132.831 Y73.966
X132.767 Y73.848
X132.708 Y73.714
X132.655 Y73.562
X132.608 Y73.393
X132.57 Y73.209
X132.541 Y73.009
X132.523 Y72.806
X132.517 Y72.606
X132.523 Y72.408
X132.539 Y72.22
X132.564 Y72.048
X132.597 Y71.894
X132.634 Y71.764
X132.677 Y71.648
X132.727 Y71.538
X132.785 Y71.429
X132.85 Y71.325
X133.084 Y70.998
X133.22 Y70.822
X133.38 Y70.614
X133.39 Y70.602
X133.559 Y70.379
X133.573 Y70.36
X133.748 Y70.123
X133.772 Y70.09
X133.95 Y69.837
X133.973 Y69.803
X134.153 Y69.535
X134.169 Y69.511
X134.352 Y69.228
X134.368 Y69.202
X134.552 Y68.907
X134.57 Y68.878
X134.937 Y68.264
X134.952 Y68.239
X135.311 Y67.616
X135.315 Y67.608
X135.659 Y67.004
X135.823 Y66.716
X135.827 Y66.71
X135.983 Y66.433
X135.984 Y66.432
X136.133 Y66.167
X136.145 Y66.145
X136.283 Y65.891
X136.295 Y65.868
X136.423 Y65.625
X136.444 Y65.583
X136.56 Y65.348
X136.588 Y65.29
X136.691 Y65.061
X136.723 Y64.985
X136.812 Y64.76
X136.844 Y64.672
X136.919 Y64.449
X136.953 Y64.336
X137.012 Y64.114
X137.037 Y64.007
X137.082 Y63.783
X137.102 Y63.658
X137.131 Y63.432
X137.142 Y63.329
X137.158 Y63.101
X137.162 Y62.991
X137.164 Y62.76
X137.162 Y62.667
X137.152 Y62.435
X137.146 Y62.344
X137.124 Y62.111
X137.11 Y61.998
X137.036 Y61.532
X137.013 Y61.416
X137.082 Y61.357
X137.147 Y61.295
X137.757 Y60.685
G2 X138.285 Y59.412 I-1.272 J-1.273
G1 Y57.583
G2 X137.757 Y56.31 I-1.8 J0.
G1 X137.147 Y55.7
G2 X135.875 Y55.173 I-1.272 J1.273
G1 X106.61
G2 X105.338 Y55.7 I0. J1.8
G1 X104.728 Y56.31
G2 X104.2 Y57.583 I1.272 J1.273
G1 Y59.412
G2 X104.728 Y60.685 I1.8 J0.
G1 X105.338 Y61.295
X105.403 Y61.357
X105.472 Y61.416
X105.449 Y61.532
X105.375 Y61.998
X105.361 Y62.111
X105.339 Y62.344
X105.333 Y62.435
X105.323 Y62.667
X105.321 Y62.76
X105.323 Y62.991
X105.327 Y63.101
X105.343 Y63.329
X105.354 Y63.432
X105.383 Y63.658
X105.403 Y63.783
X105.448 Y64.007
X105.473 Y64.114
X105.532 Y64.336
X105.566 Y64.449
X105.641 Y64.672
X105.673 Y64.76
X105.762 Y64.985
X105.794 Y65.061
X105.897 Y65.29
X105.925 Y65.348
X106.041 Y65.583
X106.062 Y65.625
X106.19 Y65.868
X106.202 Y65.891
X106.34 Y66.145
X106.352 Y66.167
X106.501 Y66.432
X106.502 Y66.433
X106.658 Y66.71
X106.662 Y66.716
X106.826 Y67.004
X107.17 Y67.608
X107.174 Y67.616
X107.533 Y68.239
X107.548 Y68.264
X107.915 Y68.878
X107.933 Y68.907
X108.117 Y69.202
X108.133 Y69.228
X108.316 Y69.511
X108.332 Y69.535
X108.512 Y69.803
X108.535 Y69.837
X108.713 Y70.09
X108.737 Y70.123
X108.912 Y70.36
X108.926 Y70.379
X109.095 Y70.602
X109.105 Y70.614
X109.265 Y70.822
X109.401 Y70.998
X109.635 Y71.325
X109.7 Y71.429
X109.758 Y71.538
X109.808 Y71.648
X109.851 Y71.764
X109.888 Y71.894
X109.921 Y72.048
X109.946 Y72.22
X109.962 Y72.408
X109.968 Y72.606
X109.962 Y72.806
X109.944 Y73.009
X109.915 Y73.209
X109.877 Y73.393
X109.83 Y73.562
X109.777 Y73.714
X109.718 Y73.848
X109.654 Y73.966
X109.588 Y74.066
X109.519 Y74.154
X109.444 Y74.233
X109.36 Y74.307
X109.201 Y74.424
G2 X108.818 Y76.94 I1.067 J1.45
X109.362 Y77.429 I1.45 J-1.067
G1 X109.511 Y77.516
X109.649 Y77.6
X109.793 Y77.692
X109.947 Y77.795
X110.109 Y77.907
X110.275 Y78.028
X110.443 Y78.154
X110.616 Y78.29
X110.79 Y78.434
X110.962 Y78.583
X111.133 Y78.741
X111.3 Y78.906
X111.464 Y79.079
X111.622 Y79.262
X111.777 Y79.456
X111.924 Y79.659
X112.068 Y79.879
X112.206 Y80.115
X112.337 Y80.366
X112.464 Y80.64
X112.585 Y80.936
X112.699 Y81.255
X112.805 Y81.593
X112.902 Y81.957
X112.992 Y82.345
X113.072 Y82.756
X113.144 Y83.191
X113.205 Y83.645
X113.239 Y83.963
X112.873 Y84.009
X112.803 Y84.019
X112.086 Y84.138
X112.024 Y84.149
X111.302 Y84.294
X111.248 Y84.306
X110.536 Y84.472
X110.494 Y84.482
X110.15 Y84.571
X110.117 Y84.58
X109.786 Y84.672
X109.742 Y84.685
X109.43 Y84.781
X109.367 Y84.802
X109.081 Y84.901
X108.985 Y84.938
X108.733 Y85.042
X108.629 Y85.089
X108.518 Y85.143
X108.417 Y85.196
X108.319 Y85.252
X108.206 Y85.322
X108.12 Y85.38
X108.044 Y85.434
X107.972 Y85.492
X107.9 Y85.552
G2 X107.712 Y85.732 I1.153 J1.382
G1 X107.656 Y85.795
G2 X107.452 Y86.072 I1.341 J1.201
G1 X107.413 Y86.137
G2 X107.253 Y86.485 I1.545 J0.924
G1 X107.23 Y86.553
G2 X107.137 Y87.054 I1.705 J0.577
G1 X107.134 Y87.125
G2 X107.172 Y87.579 I1.798 J0.076
G1 X107.188 Y87.653
G2 X107.314 Y88.03 I1.76 J-0.378
G1 X107.35 Y88.108
G2 X107.501 Y88.373 I1.634 J-0.755
G1 X107.557 Y88.454
X107.631 Y88.555
X107.712 Y88.65
X107.79 Y88.735
X107.854 Y88.801
X107.921 Y88.864
X108.021 Y88.953
X108.128 Y89.04
X108.25 Y89.133
X108.335 Y89.195
X108.479 Y89.292
X108.549 Y89.336
X108.715 Y89.437
X108.776 Y89.473
X108.965 Y89.578
X109.018 Y89.606
X109.231 Y89.715
X109.271 Y89.735
X109.506 Y89.848
X109.541 Y89.865
X109.799 Y89.982
X109.831 Y89.996
X110.112 Y90.117
X110.136 Y90.128
X110.439 Y90.254
X110.465 Y90.264
X110.792 Y90.394
X110.811 Y90.401
X110.98 Y90.466
X110.908 Y90.527
X110.801 Y90.622
X110.707 Y90.712
X110.603 Y90.819
X110.52 Y90.91
X110.419 Y91.029
X110.355 Y91.11
X110.256 Y91.242
X110.192 Y91.332
X110.097 Y91.476
X110.053 Y91.546
X109.96 Y91.702
X109.923 Y91.766
X109.832 Y91.934
X109.799 Y92.
X109.711 Y92.18
X109.686 Y92.232
X109.6 Y92.423
X109.579 Y92.47
X109.495 Y92.672
X109.471 Y92.734
X109.309 Y93.167
X109.286 Y93.233
X109.131 Y93.703
X109.113 Y93.76
X108.966 Y94.26
X108.954 Y94.304
X108.814 Y94.829
X108.804 Y94.865
X108.671 Y95.41
X108.663 Y95.446
X108.539 Y96.002
X108.532 Y96.036
X108.418 Y96.599
X108.412 Y96.629
X108.308 Y97.192
X108.301 Y97.23
X108.21 Y97.788
X108.205 Y97.824
X108.127 Y98.372
X108.121 Y98.415
X108.058 Y98.95
X108.053 Y99.004
X108.008 Y99.522
X108.003 Y99.584
X107.977 Y100.083
X107.975 Y100.158
X107.97 Y100.636
X107.971 Y100.722
X107.988 Y101.18
X107.995 Y101.286
X108.037 Y101.721
X108.052 Y101.836
X108.119 Y102.249
X108.145 Y102.38
X108.239 Y102.773
X108.277 Y102.908
X108.397 Y103.279
X108.449 Y103.419
X108.596 Y103.771
X108.658 Y103.903
X108.83 Y104.236
X108.903 Y104.364
X109.1 Y104.679
X109.18 Y104.797
X109.401 Y105.095
X109.481 Y105.196
X109.724 Y105.479
X109.805 Y105.567
X110.068 Y105.835
X110.148 Y105.911
X110.43 Y106.165
X110.511 Y106.234
X110.811 Y106.474
X110.885 Y106.53
X111.201 Y106.757
X111.279 Y106.81
X111.611 Y107.023
X111.686 Y107.069
X112.034 Y107.269
X112.108 Y107.309
X112.47 Y107.495
X112.546 Y107.532
X112.923 Y107.704
X112.997 Y107.735
X113.389 Y107.893
X113.466 Y107.923
X113.871 Y108.065
X113.943 Y108.088
X114.364 Y108.216
X114.442 Y108.238
X114.876 Y108.349
X114.941 Y108.364
X115.389 Y108.461
X115.464 Y108.476
X115.927 Y108.556
X115.993 Y108.566
X116.469 Y108.63
X116.53 Y108.637
X117.021 Y108.686
X117.086 Y108.691
X117.59 Y108.723
X117.645 Y108.726
X118.163 Y108.743
X118.222 Y108.744
X118.754
X118.774
X121.243 Y108.716
X123.711 Y108.744
X123.731
X124.263
X124.322 Y108.743
X124.84 Y108.726
X124.895 Y108.723
X125.399 Y108.691
X125.464 Y108.686
X125.955 Y108.637
X126.016 Y108.63
X126.492 Y108.566
X126.558 Y108.556
X127.021 Y108.476
X127.096 Y108.461
X127.544 Y108.364
X127.609 Y108.349
X128.043 Y108.238
X128.121 Y108.216
X128.542 Y108.088
X128.614 Y108.065
X129.019 Y107.923
X129.096 Y107.893
X129.488 Y107.735
X129.562 Y107.704
X129.939 Y107.532
X130.015 Y107.495
X130.377 Y107.309
X130.451 Y107.269
X130.799 Y107.069
X130.874 Y107.023
X131.206 Y106.81
X131.284 Y106.757
X131.6 Y106.53
X131.674 Y106.474
X131.974 Y106.234
X132.055 Y106.165
X132.337 Y105.911
X132.417 Y105.835
X132.68 Y105.567
X132.761 Y105.479
X133.004 Y105.196
X133.084 Y105.095
X133.305 Y104.797
X133.325 Y104.77
G2 X133.327 Y104.492 I-0.197 J-0.14
G3 X133.321 Y104.215 I0.208 J-0.143
G1 X133.328 Y104.205
X133.389 Y104.098
X133.561 Y103.765
X133.612 Y103.655
X133.759 Y103.303
X133.802 Y103.187
X133.922 Y102.816
X133.954 Y102.703
X134.048 Y102.31
X134.07 Y102.201
X134.137 Y101.788
X134.149 Y101.692
X134.191 Y101.257
X134.197 Y101.169
X134.214 Y100.711
X134.215 Y100.639
X134.21 Y100.161
X134.208 Y100.099
X134.182 Y99.6
X134.178 Y99.548
X134.133 Y99.03
X134.129 Y98.985
X134.066 Y98.45
X134.061 Y98.414
X133.983 Y97.866
X133.978 Y97.836
X133.887 Y97.278
X133.882 Y97.247
X133.778 Y96.684
X133.773 Y96.659
X133.659 Y96.096
X133.653 Y96.067
X133.529 Y95.511
X133.522 Y95.481
X133.389 Y94.937
X133.381 Y94.907
X133.241 Y94.381
X133.231 Y94.345
X133.084 Y93.844
X133.069 Y93.797
X132.914 Y93.327
X132.895 Y93.272
X132.733 Y92.839
X132.713 Y92.787
X132.629 Y92.585
X132.612 Y92.546
X132.526 Y92.355
X132.505 Y92.312
X132.417 Y92.132
X132.389 Y92.077
X132.298 Y91.909
X132.267 Y91.856
X132.174 Y91.7
X132.138 Y91.642
X132.043 Y91.498
X131.99 Y91.422
X131.891 Y91.291
X131.837 Y91.223
X131.736 Y91.104
X131.667 Y91.028
X131.563 Y90.921
X131.485 Y90.846
X131.378 Y90.751
X131.289 Y90.678
X131.179 Y90.594
X131.088 Y90.53
X130.976 Y90.457
X130.859 Y90.388
X131.201 Y90.261
X131.217 Y90.255
X131.566 Y90.121
X131.582 Y90.115
X131.909 Y89.985
X131.931 Y89.976
X132.234 Y89.851
X132.254 Y89.842
X132.535 Y89.721
X132.561 Y89.709
X132.819 Y89.592
X132.849 Y89.578
X133.084 Y89.464
X133.117 Y89.448
X133.33 Y89.339
X133.374 Y89.316
X133.563 Y89.211
X133.614 Y89.181
X133.78 Y89.08
X133.838 Y89.043
X133.982 Y88.946
X134.054 Y88.895
X134.176 Y88.802
X134.264 Y88.729
X134.364 Y88.64
X134.473 Y88.532
X134.551 Y88.447
X134.619 Y88.368
X134.681 Y88.284
X134.737 Y88.203
G2 X134.863 Y87.982 I-1.236 J-0.85
G1 X134.899 Y87.904
G2 X135.003 Y87.59 I-1.362 J-0.629
G1 X135.019 Y87.516
G2 X135.052 Y87.137 I-1.466 J-0.315
G1 X135.049 Y87.066
G2 X134.971 Y86.649 I-1.499 J0.063
G1 X134.948 Y86.581
G2 X134.814 Y86.291 I-1.421 J0.481
G1 X134.775 Y86.226
G2 X134.605 Y85.995 I-1.287 J0.77
G1 X134.549 Y85.933
X134.474 Y85.855
X134.393 Y85.782
X134.321 Y85.722
X134.198 Y85.629
X134.112 Y85.571
X134.017 Y85.513
X133.919 Y85.457
X133.835 Y85.412
X133.724 Y85.358
X133.638 Y85.319
X133.386 Y85.215
X133.306 Y85.185
X133.02 Y85.085
X132.967 Y85.068
X132.655 Y84.972
X132.618 Y84.961
X132.287 Y84.869
X132.26 Y84.861
X131.916 Y84.772
X131.881 Y84.764
X131.169 Y84.598
X131.124 Y84.588
X130.402 Y84.443
X130.35 Y84.434
X129.633 Y84.315
X129.575 Y84.307
X128.92 Y84.225
X128.931 Y84.093
X128.982 Y83.609
X129.045 Y83.146
X129.118 Y82.703
X129.199 Y82.283
X129.292 Y81.885
X129.392 Y81.51
X129.501 Y81.159
X129.62 Y80.829
X129.746 Y80.521
X129.879 Y80.234
X130.016 Y79.969
X130.162 Y79.721
X130.314 Y79.489
X130.469 Y79.274
X130.632 Y79.07
X130.799 Y78.878
X130.97 Y78.696
X131.145 Y78.524
X131.323 Y78.36
X131.501 Y78.205
X131.681 Y78.057
X131.859 Y77.917
X132.032 Y77.786
X132.203 Y77.663
X132.369 Y77.547
X132.528 Y77.441
X132.677 Y77.346
X132.821 Y77.258
X132.972 Y77.17
G2 X133.513 Y75.118 I-0.755 J-1.296
X133.106 Y74.665 I-1.296 J0.755
G1 X132.937 Y74.541
X132.832 Y74.449
X132.739 Y74.35
X132.653 Y74.242
X132.573 Y74.12
X132.498 Y73.98
X132.429 Y73.825
X132.368 Y73.653
X132.316 Y73.464
X132.274 Y73.261
X132.242 Y73.044
X132.223 Y72.823
X132.217 Y72.606
X132.223 Y72.391
X132.241 Y72.186
X132.269 Y71.995
X132.306 Y71.822
X132.349 Y71.671
X132.399 Y71.534
X132.458 Y71.405
X132.525 Y71.279
X132.6 Y71.158
X132.843 Y70.82
X132.982 Y70.639
X133.143 Y70.431
X133.151 Y70.42
X133.32 Y70.198
X133.332 Y70.182
X133.507 Y69.945
X133.526 Y69.917
X133.704 Y69.664
X133.724 Y69.636
X133.904 Y69.368
X133.917 Y69.348
X134.1 Y69.065
X134.114 Y69.044
X134.298 Y68.749
X134.313 Y68.724
X134.68 Y68.11
X134.692 Y68.09
X135.051 Y67.467
X135.054 Y67.46
X135.398 Y66.856
X135.562 Y66.568
X135.566 Y66.562
X135.722 Y66.286
Y66.285
X135.871 Y66.02
X135.882 Y66.001
X136.02 Y65.748
X136.03 Y65.729
X136.158 Y65.485
X136.175 Y65.45
X136.291 Y65.215
X136.314 Y65.167
X136.417 Y64.938
X136.444 Y64.875
X136.533 Y64.65
X136.56 Y64.576
X136.635 Y64.353
X136.663 Y64.259
X136.722 Y64.037
X136.743 Y63.948
X136.788 Y63.724
X136.805 Y63.62
X136.834 Y63.394
X136.842 Y63.308
X136.858 Y63.08
X136.862 Y62.988
X136.864 Y62.758
X136.863 Y62.68
X136.853 Y62.448
X136.847 Y62.372
X136.825 Y62.139
X136.813 Y62.045
X136.739 Y61.579
X136.719 Y61.472
X136.676 Y61.29
G2 X136.935 Y61.082 I-0.801 J-1.268
G1 X137.545 Y60.473
G2 X137.985 Y59.412 I-1.06 J-1.061
G1 Y57.583
G2 X137.545 Y56.522 I-1.5 J0.
G1 X136.935 Y55.912
G2 X135.875 Y55.473 I-1.06 J1.061
G1 X106.61
G2 X105.55 Y55.912 I0. J1.5
G1 X104.94 Y56.522
G2 X104.5 Y57.583 I1.06 J1.061
G1 Y59.412
G2 X104.94 Y60.473 I1.5 J0.
G1 X105.55 Y61.082
G2 X105.809 Y61.29 I1.06 J-1.061
G1 X105.766 Y61.472
X105.746 Y61.579
X105.672 Y62.045
X105.66 Y62.139
X105.638 Y62.372
X105.632 Y62.448
X105.622 Y62.68
X105.621 Y62.758
X105.623 Y62.988
X105.627 Y63.08
X105.643 Y63.308
X105.651 Y63.394
X105.68 Y63.62
X105.697 Y63.724
X105.742 Y63.948
X105.763 Y64.037
X105.822 Y64.259
X105.85 Y64.353
X105.925 Y64.576
X105.952 Y64.65
X106.041 Y64.875
X106.068 Y64.938
X106.171 Y65.167
X106.194 Y65.215
X106.31 Y65.45
X106.327 Y65.485
X106.455 Y65.729
X106.465 Y65.748
X106.603 Y66.001
X106.614 Y66.02
X106.763 Y66.285
Y66.286
X106.919 Y66.562
X106.923 Y66.568
X107.087 Y66.856
X107.431 Y67.46
X107.434 Y67.467
X107.793 Y68.09
X107.805 Y68.11
X108.172 Y68.724
X108.187 Y68.749
X108.371 Y69.044
X108.385 Y69.065
X108.568 Y69.348
X108.581 Y69.368
X108.761 Y69.636
X108.781 Y69.664
X108.959 Y69.917
X108.978 Y69.945
X109.153 Y70.182
X109.165 Y70.198
X109.334 Y70.42
X109.342 Y70.431
X109.503 Y70.639
X109.642 Y70.82
X109.885 Y71.158
X109.96 Y71.279
X110.027 Y71.405
X110.086 Y71.534
X110.136 Y71.671
X110.179 Y71.822
X110.216 Y71.995
X110.244 Y72.186
X110.262 Y72.391
X110.268 Y72.606
X110.262 Y72.823
X110.243 Y73.044
X110.211 Y73.261
X110.169 Y73.464
X110.117 Y73.653
X110.056 Y73.825
X109.987 Y73.98
X109.912 Y74.12
X109.832 Y74.242
X109.746 Y74.35
X109.653 Y74.449
X109.548 Y74.541
X109.379 Y74.665
G2 X109.06 Y76.763 I0.889 J1.208
X109.513 Y77.17 I1.208 J-0.889
G1 X109.664 Y77.258
X109.808 Y77.346
X109.957 Y77.441
X110.116 Y77.547
X110.282 Y77.663
X110.453 Y77.786
X110.626 Y77.917
X110.804 Y78.057
X110.984 Y78.205
X111.162 Y78.36
X111.34 Y78.524
X111.515 Y78.696
X111.686 Y78.878
X111.853 Y79.07
X112.016 Y79.274
X112.171 Y79.489
X112.323 Y79.721
X112.469 Y79.969
X112.606 Y80.234
X112.739 Y80.521
X112.865 Y80.829
X112.984 Y81.159
X113.093 Y81.51
X113.193 Y81.885
X113.286 Y82.283
X113.367 Y82.703
X113.44 Y83.146
X113.503 Y83.609
X113.554 Y84.093
X113.565 Y84.225
X112.91 Y84.307
X112.852 Y84.315
X112.135 Y84.434
X112.083 Y84.443
X111.361 Y84.588
X111.316 Y84.598
X110.604 Y84.764
X110.569 Y84.772
X110.225 Y84.861
X110.198 Y84.869
X109.867 Y84.961
X109.83 Y84.972
X109.518 Y85.068
X109.465 Y85.085
X109.179 Y85.185
X109.099 Y85.215
X108.847 Y85.319
X108.761 Y85.358
X108.65 Y85.412
X108.566 Y85.457
X108.468 Y85.513
X108.373 Y85.571
X108.287 Y85.629
X108.164 Y85.722
X108.092 Y85.782
X108.011 Y85.855
X107.936 Y85.933
X107.88 Y85.995
G2 X107.71 Y86.226 I1.117 J1.001
G1 X107.671 Y86.291
G2 X107.537 Y86.581 I1.287 J0.77
G1 X107.514 Y86.649
G2 X107.436 Y87.066 I1.421 J0.481
G1 X107.433 Y87.137
G2 X107.466 Y87.516 I1.499 J0.063
G1 X107.482 Y87.59
G2 X107.586 Y87.904 I1.466 J-0.315
G1 X107.622 Y87.982
G2 X107.748 Y88.203 I1.362 J-0.629
G1 X107.804 Y88.284
X107.866 Y88.368
X107.934 Y88.447
X108.012 Y88.532
X108.121 Y88.64
X108.221 Y88.729
X108.309 Y88.802
X108.431 Y88.895
X108.503 Y88.946
X108.647 Y89.043
X108.705 Y89.08
X108.871 Y89.181
X108.922 Y89.211
X109.111 Y89.316
X109.155 Y89.339
X109.368 Y89.448
X109.401 Y89.464
X109.636 Y89.578
X109.666 Y89.592
X109.924 Y89.709
X109.95 Y89.721
X110.231 Y89.842
X110.251 Y89.851
X110.554 Y89.976
X110.576 Y89.985
X110.903 Y90.115
X110.919 Y90.121
X111.268 Y90.255
X111.284 Y90.261
X111.626 Y90.388
X111.509 Y90.457
X111.397 Y90.53
X111.306 Y90.594
X111.196 Y90.678
X111.107 Y90.751
X111. Y90.846
X110.922 Y90.921
X110.818 Y91.028
X110.749 Y91.104
X110.648 Y91.223
X110.594 Y91.291
X110.495 Y91.422
X110.442 Y91.498
X110.347 Y91.642
X110.311 Y91.7
X110.218 Y91.856
X110.187 Y91.909
X110.096 Y92.077
X110.068 Y92.132
X109.98 Y92.312
X109.959 Y92.355
X109.873 Y92.546
X109.856 Y92.585
X109.772 Y92.787
X109.752 Y92.839
X109.59 Y93.272
X109.571 Y93.327
X109.416 Y93.797
X109.401 Y93.844
X109.254 Y94.345
X109.244 Y94.381
X109.104 Y94.907
X109.096 Y94.937
X108.963 Y95.481
X108.956 Y95.511
X108.832 Y96.067
X108.826 Y96.096
X108.712 Y96.659
X108.707 Y96.684
X108.603 Y97.247
X108.598 Y97.278
X108.507 Y97.836
X108.502 Y97.866
X108.424 Y98.414
X108.419 Y98.45
X108.356 Y98.985
X108.352 Y99.03
X108.307 Y99.548
X108.303 Y99.6
X108.277 Y100.099
X108.275 Y100.161
X108.27 Y100.639
X108.271 Y100.711
X108.288 Y101.169
X108.294 Y101.257
X108.336 Y101.692
X108.348 Y101.788
X108.415 Y102.201
X108.437 Y102.31
X108.531 Y102.703
X108.563 Y102.816
X108.683 Y103.187
X108.726 Y103.303
X108.873 Y103.655
X108.924 Y103.765
X109.096 Y104.098
X109.157 Y104.205
X109.354 Y104.52
X109.421 Y104.619
X109.642 Y104.917
X109.709 Y105.
X109.952 Y105.283
X110.019 Y105.357
X110.282 Y105.625
X110.349 Y105.689
X110.631 Y105.943
X110.698 Y105.999
X110.998 Y106.239
X111.06 Y106.286
X111.376 Y106.513
X111.441 Y106.558
X111.773 Y106.771
X111.836 Y106.809
X112.184 Y107.009
X112.245 Y107.042
X112.607 Y107.228
X112.67 Y107.259
X113.047 Y107.431
X113.109 Y107.457
X113.501 Y107.615
X113.566 Y107.64
X113.971 Y107.782
X114.031 Y107.801
X114.452 Y107.929
X114.516 Y107.947
X114.95 Y108.058
X115.005 Y108.071
X115.453 Y108.168
X115.515 Y108.18
X115.978 Y108.26
X116.033 Y108.269
X116.509 Y108.333
X116.56 Y108.339
X117.051 Y108.388
X117.105 Y108.392
X117.609 Y108.424
X117.655 Y108.426
X118.173 Y108.443
X118.222 Y108.444
X118.754
X118.771
X121.243 Y108.416
X123.714 Y108.444
X123.731
X124.263
X124.312 Y108.443
X124.83 Y108.426
X124.876 Y108.424
X125.38 Y108.392
X125.434 Y108.388
X125.925 Y108.339
X125.976 Y108.333
X126.452 Y108.269
X126.507 Y108.26
X126.97 Y108.18
X127.032 Y108.168
X127.48 Y108.071
X127.535 Y108.058
X127.969 Y107.947
X128.033 Y107.929
X128.454 Y107.801
X128.514 Y107.782
X128.919 Y107.64
X128.984 Y107.615
X129.376 Y107.457
X129.438 Y107.431
X129.815 Y107.259
X129.878 Y107.228
X130.24 Y107.042
X130.301 Y107.009
X130.649 Y106.809
X130.712 Y106.771
X131.044 Y106.558
X131.109 Y106.513
X131.425 Y106.286
X131.487 Y106.239
X131.787 Y105.999
X131.854 Y105.943
X132.136 Y105.689
X132.203 Y105.625
X132.466 Y105.357
X132.533 Y105.283
X132.776 Y105.
X132.843 Y104.917
X133.064 Y104.619
X133.131 Y104.52
X133.321 Y104.215
G3 X133.735 Y104.12 I0.254 J0.159
G1 X133.989 Y104.279
X134.046 Y104.315 Z0.258
X134.1 Y104.348 Z0.28
X134.148 Y104.378 Z0.315
X134.188 Y104.404 Z0.363
X134.218 Y104.423 Z0.42
X134.237 Y104.434 Z0.483
X134.244 Y104.438 Z0.55
G0 Z21.243
X98.883 Y105.536
G1 Z17.243 F133.3
Z0.55
X98.877 Y105.532 Z0.483 F400
X98.859 Y105.519 Z0.42
X98.83 Y105.498 Z0.363
X98.791 Y105.471 Z0.315
X98.745 Y105.438 Z0.28
X98.693 Y105.401 Z0.258
X98.639 Y105.362 Z0.25
X98.395 Y105.188
G3 X98.325 Y104.77 I0.174 J-0.244
G1 X98.384 Y104.68
X98.581 Y104.365
X98.654 Y104.238
X98.827 Y103.905
X98.89 Y103.769
X99.037 Y103.417
X99.087 Y103.28
X99.208 Y102.909
X99.246 Y102.771
X99.34 Y102.378
X99.365 Y102.25
X99.433 Y101.838
X99.448 Y101.72
X99.49 Y101.285
X99.497 Y101.182
X99.514 Y100.724
X99.515 Y100.636
X99.51 Y100.158
X99.508 Y100.083
X99.482 Y99.584
X99.477 Y99.521
X99.432 Y99.003
X99.427 Y98.951
X99.364 Y98.416
X99.358 Y98.372
X99.28 Y97.824
X99.274 Y97.786
X99.183 Y97.228
X99.177 Y97.193
X99.073 Y96.63
X99.067 Y96.598
X98.952 Y96.035
X98.946 Y96.003
X98.822 Y95.446
X98.814 Y95.412
X98.681 Y94.868
X98.672 Y94.829
X98.531 Y94.303
X98.519 Y94.259
X98.371 Y93.758
X98.354 Y93.704
X98.2 Y93.234
X98.176 Y93.167
X98.014 Y92.733
X97.989 Y92.672
X97.905 Y92.47
X97.885 Y92.423
X97.799 Y92.232
X97.774 Y92.178
X97.685 Y91.998
X97.654 Y91.937
X97.563 Y91.769
X97.526 Y91.703
X97.433 Y91.547
X97.385 Y91.472
X97.29 Y91.328
X97.233 Y91.247
X97.134 Y91.115
X97.065 Y91.028
X96.964 Y90.909
X96.882 Y90.819
X96.778 Y90.712
X96.684 Y90.622
X96.577 Y90.527
X96.505 Y90.466
X96.673 Y90.402
X96.694 Y90.393
X97.02 Y90.264
X97.044 Y90.254
X97.348 Y90.128
X97.374 Y90.117
X97.655 Y89.996
X97.686 Y89.982
X97.944 Y89.865
X97.979 Y89.848
X98.214 Y89.735
X98.257 Y89.714
X98.469 Y89.605
X98.518 Y89.578
X98.707 Y89.474
X98.767 Y89.439
X98.934 Y89.338
X99.006 Y89.292
X99.15 Y89.195
X99.238 Y89.132
X99.359 Y89.039
X99.466 Y88.951
X99.566 Y88.862
X99.632 Y88.799
X99.695 Y88.734
X99.773 Y88.649
X99.85 Y88.558
X99.922 Y88.463
X99.978 Y88.382
G2 X100.136 Y88.106 I-1.477 J-1.029
G1 X100.172 Y88.028
G2 X100.297 Y87.651 I-1.635 J-0.753
G1 X100.313 Y87.577
G2 X100.351 Y87.11 I-1.76 J-0.376
G1 X100.347 Y87.038
G2 X100.262 Y86.575 I-1.798 J0.091
G1 X100.24 Y86.507
G2 X100.066 Y86.127 I-1.713 J0.554
G1 X100.026 Y86.062
G2 X99.827 Y85.794 I-1.538 J0.934
G1 X99.771 Y85.731
G2 X99.59 Y85.556 I-1.34 J1.202
G1 X99.519 Y85.496
X99.444 Y85.437
X99.367 Y85.381
X99.281 Y85.324
X99.161 Y85.249
X99.062 Y85.193
X98.968 Y85.144
X98.858 Y85.089
X98.752 Y85.041
X98.499 Y84.937
X98.404 Y84.901
X98.118 Y84.802
X98.055 Y84.781
X97.744 Y84.685
X97.699 Y84.672
X97.368 Y84.58
X97.334 Y84.571
X96.99 Y84.482
X96.949 Y84.472
X96.237 Y84.306
X96.183 Y84.294
X95.461 Y84.149
X95.399 Y84.138
X94.682 Y84.019
X94.612 Y84.009
X94.246 Y83.963
X94.281 Y83.645
X94.342 Y83.189
X94.412 Y82.756
X94.493 Y82.345
X94.582 Y81.958
X94.68 Y81.594
X94.787 Y81.253
X94.9 Y80.936
X95.02 Y80.641
X95.147 Y80.367
X95.279 Y80.114
X95.417 Y79.879
X95.56 Y79.66
X95.709 Y79.455
X95.863 Y79.262
X96.021 Y79.079
X96.185 Y78.906
X96.353 Y78.741
X96.523 Y78.583
X96.696 Y78.433
X96.869 Y78.29
X97.041 Y78.155
X97.211 Y78.027
X97.377 Y77.907
X97.538 Y77.795
X97.691 Y77.693
X97.837 Y77.6
X97.975 Y77.515
X98.122 Y77.429
G2 X98.773 Y74.968 I-0.905 J-1.556
X98.282 Y74.423 I-1.556 J0.905
G1 X98.125 Y74.307
X98.041 Y74.234
X97.966 Y74.154
X97.896 Y74.066
X97.83 Y73.965
X97.768 Y73.849
X97.709 Y73.715
X97.655 Y73.562
X97.608 Y73.393
X97.569 Y73.207
X97.54 Y73.011
X97.523 Y72.808
X97.517 Y72.605
X97.523 Y72.407
X97.539 Y72.22
X97.564 Y72.049
X97.597 Y71.896
X97.635 Y71.763
X97.678 Y71.646
X97.726 Y71.539
X97.785 Y71.43
X97.851 Y71.324
X98.083 Y71.
X98.219 Y70.823
X98.38 Y70.614
X98.39 Y70.602
X98.559 Y70.379
X98.576 Y70.356
X98.75 Y70.119
X98.771 Y70.09
X98.949 Y69.837
X98.97 Y69.807
X99.151 Y69.538
X99.17 Y69.51
X99.353 Y69.227
X99.369 Y69.201
X99.553 Y68.906
X99.571 Y68.877
X99.937 Y68.263
X99.951 Y68.24
X100.31 Y67.617
X100.315 Y67.608
X100.659 Y67.004
X100.66 Y67.003
X100.823 Y66.715
X100.825 Y66.713
X100.981 Y66.436
X100.986 Y66.429
X101.134 Y66.164
X101.143 Y66.148
X101.281 Y65.895
X101.296 Y65.868
X101.424 Y65.624
X101.445 Y65.583
X101.561 Y65.348
X101.589 Y65.288
X101.691 Y65.059
X101.723 Y64.985
X101.812 Y64.76
X101.844 Y64.672
X101.919 Y64.449
X101.953 Y64.336
X102.012 Y64.114
X102.037 Y64.007
X102.082 Y63.783
X102.102 Y63.658
X102.131 Y63.432
X102.142 Y63.329
X102.158 Y63.101
X102.162 Y62.991
X102.164 Y62.76
X102.162 Y62.667
X102.152 Y62.435
X102.146 Y62.344
X102.124 Y62.111
X102.11 Y61.998
X102.036 Y61.532
X102.013 Y61.416
X102.082 Y61.357
X102.147 Y61.295
X102.757 Y60.685
G2 X103.285 Y59.412 I-1.272 J-1.273
G1 Y57.583
G2 X102.757 Y56.31 I-1.8 J0.
G1 X102.147 Y55.7
G2 X100.875 Y55.173 I-1.272 J1.273
G1 X71.61
G2 X70.337 Y55.7 I0. J1.8
G1 X69.727 Y56.31
G2 X69.2 Y57.583 I1.273 J1.273
G1 Y59.412
G2 X69.727 Y60.685 I1.8 J0.
G1 X70.337 Y61.294
X70.402 Y61.357
X70.471 Y61.416
X70.449 Y61.533
X70.375 Y61.999
X70.361 Y62.113
X70.339 Y62.346
X70.333 Y62.434
X70.323 Y62.666
X70.321 Y62.762
X70.323 Y62.992
X70.327 Y63.097
X70.343 Y63.325
X70.354 Y63.439
X70.384 Y63.664
X70.403 Y63.779
X70.447 Y64.003
X70.474 Y64.117
X70.533 Y64.34
X70.565 Y64.445
X70.639 Y64.668
X70.673 Y64.76
X70.762 Y64.985
X70.794 Y65.061
X70.897 Y65.29
X70.924 Y65.348
X71.04 Y65.583
X71.061 Y65.624
X71.189 Y65.868
X71.204 Y65.895
X71.342 Y66.148
X71.351 Y66.164
X71.499 Y66.429
X71.504 Y66.436
X71.66 Y66.713
X71.662 Y66.715
X71.825 Y67.003
X71.826 Y67.004
X72.17 Y67.608
X72.175 Y67.617
X72.534 Y68.24
X72.548 Y68.263
X72.914 Y68.877
X72.932 Y68.906
X73.116 Y69.201
X73.132 Y69.227
X73.315 Y69.51
X73.334 Y69.538
X73.515 Y69.807
X73.536 Y69.837
X73.714 Y70.09
X73.735 Y70.119
X73.909 Y70.356
X73.926 Y70.379
X74.095 Y70.602
X74.105 Y70.614
X74.266 Y70.823
X74.402 Y71.
X74.634 Y71.324
X74.7 Y71.43
X74.759 Y71.539
X74.807 Y71.646
X74.85 Y71.763
X74.888 Y71.896
X74.921 Y72.049
X74.946 Y72.22
X74.962 Y72.407
X74.968 Y72.605
X74.962 Y72.808
X74.945 Y73.011
X74.916 Y73.207
X74.877 Y73.393
X74.83 Y73.562
X74.776 Y73.715
X74.717 Y73.849
X74.655 Y73.965
X74.588 Y74.066
X74.519 Y74.154
X74.444 Y74.233
X74.36 Y74.307
X74.203 Y74.423
G2 X73.817 Y76.939 I1.065 J1.451
X74.363 Y77.43 I1.451 J-1.065
G1 X74.51 Y77.515
X74.648 Y77.6
X74.794 Y77.693
X74.947 Y77.795
X75.108 Y77.907
X75.274 Y78.027
X75.444 Y78.155
X75.616 Y78.29
X75.789 Y78.433
X75.962 Y78.583
X76.132 Y78.741
X76.3 Y78.906
X76.464 Y79.079
X76.622 Y79.262
X76.776 Y79.455
X76.925 Y79.66
X77.068 Y79.879
X77.206 Y80.114
X77.338 Y80.367
X77.465 Y80.641
X77.585 Y80.936
X77.698 Y81.253
X77.805 Y81.594
X77.903 Y81.958
X77.992 Y82.345
X78.073 Y82.756
X78.143 Y83.189
X78.204 Y83.645
X78.239 Y83.963
X77.873 Y84.009
X77.803 Y84.019
X77.086 Y84.138
X77.024 Y84.149
X76.302 Y84.294
X76.248 Y84.306
X75.536 Y84.472
