(Heste V2 Alle brikker)
(Machine)
(  vendor: Autodesk)
(  model: Generic 3-axis)
(  description: This machine has XYZ axis on the Head)
(T2  D=3. CR=0. - ZMIN=0. - flat end mill)
G90

(2D Contour7)
T2 M6 (flat end mill D=3.)
S15000 M3
G64
G54
G43 H2
G0 Z30.
G0 X115.652 Y37.546
Z30.992
Z20.992
G1 Z16.992 F133.3
Z0.55
X115.658 Y37.542 Z0.483 F400
X115.677 Y37.531 Z0.42
X115.708 Y37.514 Z0.363
X115.75 Y37.49 Z0.315
X115.799 Y37.462 Z0.28
X115.854 Y37.431 Z0.258
X115.912 Y37.398 Z0.25
X116.173 Y37.25
G3 X116.401 Y37.222 I0.148 J0.261
X116.582 Y37.363 I-0.08 J0.289
G1 X116.617 Y37.423
X116.823 Y37.79
X117.021 Y38.145
X117.211 Y38.489
X117.393 Y38.824
X117.742 Y39.471
X118.063 Y40.085
X118.359 Y40.675
X118.632 Y41.25
X118.883 Y41.821
X119.113 Y42.393
X119.322 Y42.974
X119.508 Y43.566
X119.67 Y44.165
X119.808 Y44.768
X119.863 Y45.047
X119.91 Y45.321
X119.949 Y45.584
X119.972 Y45.777
X119.604 Y45.796
X119.591 Y45.797
X118.69 Y45.85
X118.677 Y45.851
X117.786 Y45.911
X117.771 Y45.912
X116.889 Y45.978
X116.874 Y45.979
X116.003 Y46.052
X115.986 Y46.054
X115.124 Y46.134
X115.107 Y46.136
X114.257 Y46.223
X114.238 Y46.225
X113.399 Y46.32
X113.38 Y46.323
X112.552 Y46.425
X112.533 Y46.428
X111.716 Y46.538
X111.698 Y46.541
X110.891 Y46.658
X110.873 Y46.661
X110.076 Y46.785
X110.059 Y46.788
X109.272 Y46.918
X109.254 Y46.921
X108.476 Y47.058
X108.46 Y47.061
X107.69 Y47.204
G2 X106.832 Y47.62 I0.328 J1.77
G1 X106.636 Y47.792
X106.6 Y47.823
X106.415 Y47.994
X106.385 Y48.023
X106.209 Y48.193
X106.175 Y48.227
X106.009 Y48.397
X105.969 Y48.439
X105.814 Y48.607
X105.781 Y48.645
X105.635 Y48.813
X105.597 Y48.858
X105.461 Y49.025
X105.419 Y49.08
X105.294 Y49.246
X105.258 Y49.295
X105.142 Y49.461
X105.102 Y49.52
X105.094 Y49.533
X105.117 Y49.231
X105.118 Y49.213
X105.171 Y48.398
X105.172 Y48.377
X105.214 Y47.583
X105.216 Y47.56
X105.247 Y46.789
Y46.764
X105.267 Y46.014
X105.268 Y45.988
X105.277 Y45.258
Y45.236
Y44.527
Y44.498
X105.266 Y43.809
X105.265 Y43.781
X105.244 Y43.111
X105.243 Y43.082
X105.212 Y42.431
X105.211 Y42.406
X105.172 Y41.772
X105.17 Y41.743
X105.122 Y41.125
X105.12 Y41.101
X105.065 Y40.498
X105.062 Y40.473
X105. Y39.883
X104.998 Y39.861
X104.93 Y39.282
X104.927 Y39.257
X104.778 Y38.123
X104.775 Y38.102
X104.456 Y35.877
X104.306 Y34.759
X104.238 Y34.201
X104.175 Y33.635
X104.118 Y33.059
X104.067 Y32.471
X104.022 Y31.877
X103.985 Y31.272
X103.954 Y30.656
X103.931 Y30.036
X103.903 Y28.756
X103.899 Y27.46
X103.91 Y26.155
X103.926 Y24.867
Y24.859
X103.931 Y24.23
Y24.216
Y23.603
Y23.582
X103.924 Y22.988
X103.923 Y22.953
X103.905 Y22.382
X103.903 Y22.343
X103.874 Y21.797
X103.871 Y21.743
X103.828 Y21.225
X103.821 Y21.158
X103.762 Y20.669
X103.75 Y20.586
X103.673 Y20.129
X103.655 Y20.035
X103.56 Y19.61
X103.531 Y19.5
X103.417 Y19.108
X103.378 Y18.987
X103.245 Y18.627
X103.194 Y18.505
X103.044 Y18.175
X102.98 Y18.048
X102.813 Y17.747
X102.742 Y17.628
X102.56 Y17.352
X102.49 Y17.254
X102.297 Y17.
X102.227 Y16.913
X102.024 Y16.678
X101.963 Y16.611
X101.753 Y16.391
X101.698 Y16.336
X101.62 Y16.261
G2 X101.253 Y15.438 I-1.775 J0.297
G1 X101.266 Y15.403
X101.327 Y15.265
X101.404 Y15.109
X101.491 Y14.947
X101.722 Y14.561
X101.985 Y14.162
X102.273 Y13.746
X102.57 Y13.323
X102.584 Y13.304
X102.872 Y12.883
X102.905 Y12.832
X103.172 Y12.413
X103.219 Y12.335
X103.46 Y11.91
X103.512 Y11.811
X103.723 Y11.378
X103.775 Y11.26
X103.951 Y10.821
X103.989 Y10.72
X104.062 Y10.501
X104.08 Y10.441
X104.144 Y10.224
X104.163 Y10.157
X104.217 Y9.944
X104.235 Y9.867
X104.278 Y9.659
X104.292 Y9.578
X104.324 Y9.379
X104.335 Y9.3
X104.357 Y9.11
X104.366 Y9.013
X104.377 Y8.833
X104.38 Y8.734
X104.381 Y8.567
X104.378 Y8.451
X104.369 Y8.297
X104.357 Y8.173
X104.339 Y8.032
X104.318 Y7.9
X104.292 Y7.773
X104.253 Y7.62
X104.219 Y7.505
X104.171 Y7.364
X104.131 Y7.262
X104.073 Y7.129
X104.028 Y7.037
X103.953 Y6.899
X103.853 Y6.732
X103.824 Y6.685
X103.75 Y6.569
X103.748 Y6.564
X103.736 Y6.526
X103.718 Y6.452
X103.696 Y6.338
X103.674 Y6.185
X103.652 Y5.989
X103.633 Y5.753
X103.629 Y5.686
G2 X104.276 Y5.27 I-0.627 J-1.687
G1 X104.875 Y4.671
G2 X105.401 Y3.399 I-1.274 J-1.272
G1 Y1.6
G2 X104.875 Y0.328 I-1.8 J0.
G1 X104.276 Y-0.272
G2 X103.002 Y-0.8 I-1.274 J1.272
G1 X74.218
G2 X72.945 Y-0.273 I0. J1.8
G1 X72.345 Y0.327
G2 X71.818 Y1.6 I1.273 J1.273
G1 Y3.399
G2 X72.345 Y4.671 I1.8 J0.
G1 X72.945 Y5.271
G2 X73.591 Y5.686 I1.273 J-1.273
G1 X73.582 Y5.82
X73.565 Y6.019
X73.545 Y6.188
X73.525 Y6.325
X73.506 Y6.431
X73.489 Y6.506
X73.476 Y6.55
X73.469 Y6.57
X73.308 Y6.826
X73.259 Y6.908
X73.215 Y6.993
X73.136 Y7.155
X73.096 Y7.242
X73.061 Y7.331
X73.027 Y7.423
X72.986 Y7.549
X72.957 Y7.651
X72.926 Y7.779
X72.903 Y7.891
X72.883 Y8.01
X72.866 Y8.132
X72.854 Y8.245
X72.845 Y8.377
X72.84 Y8.478
X72.838 Y8.622
X72.839 Y8.716
X72.844 Y8.869
X72.849 Y8.953
X72.863 Y9.115
X72.871 Y9.195
X72.893 Y9.364
X72.903 Y9.436
X72.933 Y9.612
X72.953 Y9.714
X73.038 Y10.083
X73.07 Y10.206
X73.186 Y10.587
X73.225 Y10.701
X73.371 Y11.087
X73.416 Y11.194
X73.589 Y11.576
X73.636 Y11.672
X73.835 Y12.048
X73.88 Y12.129
X74.101 Y12.5
X74.139 Y12.561
X74.379 Y12.929
X74.405 Y12.967
X74.659 Y13.337
X74.667 Y13.349
X75.188 Y14.093
X75.37 Y14.365
X75.337 Y14.384
X75.125 Y14.51
X75.056 Y14.553
X74.86 Y14.682
X74.79 Y14.73
X74.61 Y14.861
X74.54 Y14.914
X74.378 Y15.045
X74.309 Y15.103
X74.163 Y15.233
X74.1 Y15.292
X73.968 Y15.421
X73.911 Y15.479
X73.791 Y15.608
X73.724 Y15.683
X73.506 Y15.945
X73.437 Y16.034
X73.236 Y16.308
X73.161 Y16.419
X72.975 Y16.717
X72.907 Y16.836
X72.822 Y16.997
X72.773 Y17.099
X72.697 Y17.271
X72.649 Y17.389
X72.583 Y17.571
X72.543 Y17.696
X72.488 Y17.889
X72.457 Y18.018
X72.416 Y18.22
X72.395 Y18.341
X72.367 Y18.551
X72.356 Y18.662
X72.341 Y18.878
X72.336 Y18.976
X72.333 Y19.195
X72.335 Y19.312
X72.356 Y19.75
X72.366 Y19.867
X72.414 Y20.288
X72.425 Y20.372
X72.489 Y20.765
X72.503 Y20.839
X72.579 Y21.207
X72.597 Y21.286
X72.688 Y21.642
X72.71 Y21.721
X72.819 Y22.082
X72.841 Y22.15
X72.971 Y22.523
X72.99 Y22.576
X73.136 Y22.959
X73.151 Y22.996
X73.305 Y23.373
X73.316 Y23.4
X73.467 Y23.755
X73.474 Y23.771
X73.615 Y24.092
X73.616 Y24.095
X73.74 Y24.377
X73.85 Y24.63
X73.957 Y24.878
X73.97 Y24.907
X74.091 Y25.173
X74.109 Y25.213
X74.181 Y25.362
X74.198 Y25.395
X74.281 Y25.559
X74.297 Y25.59
X74.395 Y25.773
X74.411 Y25.802
X74.525 Y26.006
X74.538 Y26.03
X74.67 Y26.258
X74.682 Y26.278
X74.832 Y26.53
X74.842 Y26.547
X75.012 Y26.824
X75.02 Y26.838
X75.209 Y27.141
X75.215 Y27.151
X75.423 Y27.479
X75.428 Y27.486
X75.653 Y27.839
X75.657 Y27.845
X75.898 Y28.22
X75.901 Y28.224
X76.158 Y28.62
X76.159 Y28.622
X76.429 Y29.037
X76.43 Y29.038
X76.712 Y29.47
X77.002 Y29.915
X77.298 Y30.371
X77.902 Y31.306
X78.508 Y32.252
X79.1 Y33.193
X79.67 Y34.115
X79.942 Y34.563
X80.207 Y35.003
X80.464 Y35.433
X80.712 Y35.853
X80.951 Y36.262
X81.181 Y36.66
X81.403 Y37.047
X81.617 Y37.424
X81.823 Y37.79
X82.021 Y38.145
X82.211 Y38.49
X82.394 Y38.824
X82.741 Y39.471
X83.063 Y40.085
X83.359 Y40.676
X83.632 Y41.251
X83.883 Y41.82
X84.113 Y42.392
X84.321 Y42.974
X84.508 Y43.567
X84.671 Y44.166
X84.808 Y44.767
X84.863 Y45.045
X84.91 Y45.322
X84.949 Y45.585
X84.972 Y45.777
X84.603 Y45.796
X84.591 Y45.797
X83.69 Y45.85
X83.677 Y45.851
X82.786 Y45.911
X82.772 Y45.912
X81.89 Y45.978
X81.874 Y45.979
X81.002 Y46.052
X80.986 Y46.054
X80.125 Y46.134
X80.107 Y46.136
X79.257 Y46.223
X79.238 Y46.225
X78.399 Y46.32
X78.38 Y46.323
X77.552 Y46.425
X77.533 Y46.428
X76.716 Y46.538
X76.698 Y46.541
X75.891 Y46.658
X75.873 Y46.661
X75.076 Y46.785
X75.059 Y46.788
X74.271 Y46.918
X74.254 Y46.921
X73.476 Y47.058
X73.459 Y47.061
X72.69 Y47.204
G2 X71.831 Y47.62 I0.329 J1.77
G1 X71.635 Y47.792
X71.604 Y47.821
X71.418 Y47.992
X71.384 Y48.024
X71.208 Y48.194
X71.174 Y48.228
X71.008 Y48.398
X70.972 Y48.436
X70.817 Y48.604
X70.779 Y48.646
X70.634 Y48.814
X70.596 Y48.86
X70.46 Y49.027
X70.421 Y49.076
X70.296 Y49.243
X70.256 Y49.297
X70.141 Y49.463
X70.101 Y49.523
X70.094 Y49.533
X70.117 Y49.233
X70.118 Y49.213
X70.171 Y48.398
X70.173 Y48.376
X70.214 Y47.583
X70.215 Y47.56
X70.246 Y46.789
X70.247 Y46.764
X70.267 Y46.014
X70.268 Y45.989
X70.277 Y45.26
Y45.234
Y44.525
X70.276 Y44.498
X70.265 Y43.809
Y43.781
X70.244 Y43.112
X70.243 Y43.084
X70.212 Y42.432
X70.211 Y42.405
X70.171 Y41.771
X70.17 Y41.744
X70.122 Y41.126
X70.12 Y41.1
X70.064 Y40.497
X70.062 Y40.473
X70. Y39.882
X69.998 Y39.861
X69.93 Y39.282
X69.926 Y39.257
X69.777 Y38.123
X69.774 Y38.102
X69.456 Y35.877
X69.306 Y34.761
X69.238 Y34.202
X69.175 Y33.634
X69.118 Y33.058
X69.067 Y32.473
X69.022 Y31.877
X68.985 Y31.272
X68.954 Y30.656
X68.931 Y30.036
X68.903 Y28.757
X68.899 Y27.46
X68.91 Y26.156
X68.926 Y24.866
Y24.858
X68.931 Y24.23
Y24.216
Y23.603
Y23.581
X68.923 Y22.987
Y22.955
X68.906 Y22.384
X68.904 Y22.343
X68.875 Y21.796
X68.871 Y21.742
X68.828 Y21.224
X68.821 Y21.158
X68.762 Y20.669
X68.75 Y20.588
X68.674 Y20.13
X68.655 Y20.035
X68.56 Y19.61
X68.532 Y19.5
X68.418 Y19.108
X68.378 Y18.988
X68.246 Y18.628
X68.194 Y18.502
X68.043 Y18.172
X67.98 Y18.048
X67.813 Y17.747
X67.743 Y17.631
X67.562 Y17.355
X67.489 Y17.252
X67.296 Y16.998
X67.226 Y16.913
X67.023 Y16.678
X66.962 Y16.61
X66.751 Y16.39
X66.7 Y16.338
X66.62 Y16.262
G2 X66.253 Y15.438 I-1.775 J0.296
G1 X66.266 Y15.403
X66.327 Y15.265
X66.404 Y15.109
X66.491 Y14.948
X66.722 Y14.561
X66.985 Y14.162
X67.273 Y13.746
X67.57 Y13.323
X67.584 Y13.303
X67.871 Y12.883
X67.904 Y12.833
X68.171 Y12.413
X68.218 Y12.336
X68.459 Y11.911
X68.513 Y11.809
X68.723 Y11.377
X68.775 Y11.259
X68.951 Y10.821
X68.986 Y10.726
X69.06 Y10.507
X69.081 Y10.44
X69.145 Y10.223
X69.164 Y10.154
X69.218 Y9.941
X69.234 Y9.867
X69.277 Y9.659
X69.292 Y9.582
X69.324 Y9.382
X69.336 Y9.299
X69.357 Y9.108
X69.366 Y9.014
X69.377 Y8.834
X69.38 Y8.733
X69.381 Y8.566
X69.378 Y8.454
X69.369 Y8.299
X69.358 Y8.173
X69.34 Y8.032
X69.317 Y7.896
X69.291 Y7.769
X69.255 Y7.625
X69.221 Y7.511
X69.171 Y7.364
X69.131 Y7.262
X69.073 Y7.129
X69.028 Y7.037
X68.95 Y6.893
X68.849 Y6.726
X68.827 Y6.69
X68.751 Y6.57
X68.748 Y6.564
X68.736 Y6.526
X68.718 Y6.452
X68.696 Y6.338
X68.673 Y6.184
X68.652 Y5.988
X68.633 Y5.753
X68.629 Y5.686
G2 X69.274 Y5.271 I-0.627 J-1.687
G1 X69.874 Y4.672
G2 X70.401 Y3.399 I-1.273 J-1.273
G1 Y1.6
G2 X69.874 Y0.327 I-1.8 J0.
G1 X69.274 Y-0.273
G2 X68.002 Y-0.8 I-1.273 J1.273
G1 X39.218
G2 X37.945 Y-0.273 I0. J1.8
G1 X37.345 Y0.327
G2 X36.818 Y1.6 I1.273 J1.273
G1 Y3.399
G2 X37.345 Y4.671 I1.8 J0.
G1 X37.945 Y5.271
G2 X38.591 Y5.686 I1.273 J-1.273
G1 X38.582 Y5.82
X38.565 Y6.019
X38.545 Y6.188
X38.525 Y6.325
X38.506 Y6.431
X38.489 Y6.506
X38.476 Y6.55
X38.469 Y6.57
X38.308 Y6.826
X38.259 Y6.908
X38.215 Y6.993
X38.136 Y7.155
X38.096 Y7.242
X38.061 Y7.331
X38.027 Y7.423
X37.986 Y7.549
X37.957 Y7.651
X37.926 Y7.779
X37.903 Y7.891
X37.883 Y8.01
X37.866 Y8.132
X37.854 Y8.245
X37.845 Y8.377
X37.84 Y8.478
X37.838 Y8.622
X37.839 Y8.716
X37.844 Y8.869
X37.849 Y8.953
X37.863 Y9.115
X37.871 Y9.195
X37.893 Y9.364
X37.903 Y9.436
X37.933 Y9.612
X37.953 Y9.714
X38.038 Y10.083
X38.07 Y10.206
X38.186 Y10.587
X38.225 Y10.701
X38.371 Y11.087
X38.416 Y11.194
X38.589 Y11.576
X38.636 Y11.672
X38.835 Y12.048
X38.88 Y12.129
X39.101 Y12.5
X39.139 Y12.561
X39.379 Y12.929
X39.405 Y12.967
X39.659 Y13.337
X39.667 Y13.349
X40.188 Y14.093
X40.37 Y14.365
X40.337 Y14.384
X40.125 Y14.51
X40.056 Y14.553
X39.86 Y14.682
X39.79 Y14.73
X39.61 Y14.861
X39.54 Y14.914
X39.378 Y15.045
X39.309 Y15.103
X39.163 Y15.233
X39.1 Y15.292
X38.968 Y15.421
X38.911 Y15.479
X38.791 Y15.608
X38.724 Y15.683
X38.506 Y15.945
X38.437 Y16.034
X38.236 Y16.308
X38.161 Y16.419
X37.975 Y16.717
X37.907 Y16.836
X37.822 Y16.997
X37.773 Y17.099
X37.697 Y17.271
X37.649 Y17.389
X37.583 Y17.571
X37.543 Y17.696
X37.488 Y17.889
X37.457 Y18.018
X37.416 Y18.22
X37.395 Y18.341
X37.367 Y18.551
X37.356 Y18.662
X37.341 Y18.878
X37.336 Y18.976
X37.333 Y19.195
X37.335 Y19.312
X37.356 Y19.75
X37.366 Y19.867
X37.414 Y20.288
X37.425 Y20.372
X37.489 Y20.765
X37.503 Y20.839
X37.579 Y21.207
X37.597 Y21.286
X37.688 Y21.642
X37.71 Y21.721
X37.819 Y22.082
X37.841 Y22.15
X37.971 Y22.523
X37.99 Y22.576
X38.136 Y22.959
X38.151 Y22.996
X38.305 Y23.373
X38.316 Y23.4
X38.467 Y23.755
X38.474 Y23.771
X38.615 Y24.092
X38.616 Y24.095
X38.74 Y24.377
X38.85 Y24.63
X38.957 Y24.878
X38.97 Y24.907
X39.091 Y25.173
X39.109 Y25.213
X39.181 Y25.362
X39.198 Y25.395
X39.281 Y25.559
X39.297 Y25.59
X39.395 Y25.773
X39.411 Y25.802
X39.525 Y26.006
X39.538 Y26.03
X39.67 Y26.258
X39.682 Y26.278
X39.832 Y26.53
X39.842 Y26.547
X40.012 Y26.824
X40.02 Y26.838
X40.209 Y27.141
X40.215 Y27.151
X40.423 Y27.479
X40.428 Y27.486
X40.653 Y27.839
X40.657 Y27.845
X40.898 Y28.22
X40.901 Y28.224
X41.158 Y28.62
X41.159 Y28.622
X41.429 Y29.037
X41.43 Y29.038
X41.712 Y29.47
X42.002 Y29.915
X42.298 Y30.371
X42.902 Y31.306
X43.508 Y32.252
X44.1 Y33.193
X44.67 Y34.115
X44.942 Y34.563
X45.207 Y35.003
X45.464 Y35.433
X45.712 Y35.853
X45.951 Y36.262
X46.181 Y36.66
X46.403 Y37.047
X46.617 Y37.424
X46.823 Y37.79
X47.021 Y38.145
X47.211 Y38.49
X47.394 Y38.824
X47.741 Y39.471
X48.063 Y40.085
X48.359 Y40.676
X48.632 Y41.251
X48.883 Y41.82
X49.113 Y42.392
X49.321 Y42.974
X49.508 Y43.567
X49.671 Y44.166
X49.808 Y44.767
X49.863 Y45.045
X49.91 Y45.322
X49.949 Y45.585
X49.972 Y45.777
X49.603 Y45.796
X49.591 Y45.797
X48.69 Y45.85
X48.677 Y45.851
X47.786 Y45.911
X47.772 Y45.912
X46.89 Y45.978
X46.874 Y45.979
X46.002 Y46.052
X45.986 Y46.054
X45.125 Y46.134
X45.107 Y46.136
X44.257 Y46.223
X44.238 Y46.225
X43.399 Y46.32
X43.38 Y46.323
X42.552 Y46.425
X42.533 Y46.428
X41.716 Y46.538
X41.698 Y46.541
X40.891 Y46.658
X40.873 Y46.661
X40.076 Y46.785
X40.059 Y46.788
X39.271 Y46.918
X39.254 Y46.921
X38.476 Y47.058
X38.459 Y47.061
X37.69 Y47.204
G2 X36.831 Y47.62 I0.329 J1.77
G1 X36.635 Y47.792
X36.604 Y47.821
X36.418 Y47.992
X36.384 Y48.024
X36.208 Y48.194
X36.174 Y48.228
X36.008 Y48.398
X35.972 Y48.436
X35.817 Y48.604
X35.779 Y48.646
X35.634 Y48.814
X35.596 Y48.86
X35.46 Y49.027
X35.421 Y49.076
X35.296 Y49.243
X35.256 Y49.297
X35.141 Y49.463
X35.101 Y49.523
X35.094 Y49.533
X35.117 Y49.233
X35.118 Y49.213
X35.171 Y48.398
X35.173 Y48.376
X35.214 Y47.583
X35.215 Y47.56
X35.246 Y46.789
X35.247 Y46.764
X35.267 Y46.014
X35.268 Y45.989
X35.277 Y45.26
X35.278 Y45.234
X35.277 Y44.525
X35.276 Y44.498
X35.265 Y43.809
Y43.781
X35.244 Y43.112
X35.243 Y43.084
X35.212 Y42.432
X35.211 Y42.405
X35.171 Y41.771
X35.17 Y41.744
X35.122 Y41.126
X35.12 Y41.1
X35.064 Y40.497
X35.062 Y40.473
X35. Y39.882
X34.998 Y39.861
X34.93 Y39.282
X34.926 Y39.257
X34.777 Y38.123
X34.774 Y38.102
X34.456 Y35.877
X34.306 Y34.761
X34.238 Y34.202
X34.175 Y33.634
X34.118 Y33.058
X34.067 Y32.473
X34.022 Y31.877
X33.985 Y31.272
X33.954 Y30.656
X33.931 Y30.036
X33.903 Y28.757
X33.899 Y27.46
X33.91 Y26.156
X33.926 Y24.866
Y24.858
X33.931 Y24.23
Y24.216
Y23.603
Y23.581
X33.923 Y22.987
Y22.955
X33.906 Y22.384
X33.904 Y22.343
X33.875 Y21.796
X33.871 Y21.742
X33.828 Y21.224
X33.821 Y21.158
X33.762 Y20.669
X33.75 Y20.588
X33.674 Y20.13
X33.655 Y20.035
X33.56 Y19.61
X33.532 Y19.5
X33.418 Y19.108
X33.378 Y18.988
X33.246 Y18.628
X33.194 Y18.502
X33.043 Y18.172
X32.98 Y18.048
X32.813 Y17.747
X32.743 Y17.631
X32.562 Y17.355
X32.489 Y17.252
X32.296 Y16.998
X32.226 Y16.913
X32.023 Y16.678
X31.962 Y16.61
X31.751 Y16.39
X31.7 Y16.338
X31.62 Y16.262
G2 X31.253 Y15.438 I-1.775 J0.296
G1 X31.266 Y15.403
X31.327 Y15.265
X31.404 Y15.109
X31.491 Y14.948
X31.722 Y14.561
X31.985 Y14.162
X32.273 Y13.746
X32.57 Y13.323
X32.584 Y13.303
X32.871 Y12.883
X32.904 Y12.833
X33.171 Y12.413
X33.218 Y12.336
X33.459 Y11.911
X33.513 Y11.809
X33.723 Y11.377
X33.775 Y11.259
X33.951 Y10.821
X33.986 Y10.726
X34.06 Y10.507
X34.081 Y10.44
X34.145 Y10.223
X34.164 Y10.154
X34.218 Y9.941
X34.234 Y9.867
X34.277 Y9.659
X34.292 Y9.582
X34.324 Y9.382
X34.336 Y9.299
X34.357 Y9.108
X34.366 Y9.014
X34.377 Y8.834
X34.38 Y8.733
X34.381 Y8.566
X34.378 Y8.454
X34.369 Y8.299
X34.358 Y8.173
X34.34 Y8.032
X34.317 Y7.896
X34.291 Y7.769
X34.255 Y7.625
X34.221 Y7.511
X34.171 Y7.364
X34.131 Y7.262
X34.073 Y7.129
X34.028 Y7.037
X33.95 Y6.893
X33.849 Y6.726
X33.827 Y6.69
X33.751 Y6.57
X33.748 Y6.564
X33.736 Y6.526
X33.718 Y6.452
X33.696 Y6.338
X33.673 Y6.184
X33.652 Y5.988
X33.633 Y5.753
X33.629 Y5.686
G2 X34.274 Y5.271 I-0.627 J-1.687
G1 X34.874 Y4.672
G2 X35.401 Y3.399 I-1.273 J-1.273
G1 Y1.6
G2 X34.874 Y0.327 I-1.8 J0.
G1 X34.274 Y-0.273
G2 X33.002 Y-0.8 I-1.273 J1.273
G1 X4.218
G2 X2.945 Y-0.273 I0. J1.8
G1 X2.345 Y0.327
G2 X1.818 Y1.6 I1.273 J1.273
G1 Y3.399
G2 X2.345 Y4.671 I1.8 J0.
G1 X2.945 Y5.271
G2 X3.591 Y5.686 I1.273 J-1.273
G1 X3.582 Y5.82
X3.565 Y6.019
X3.545 Y6.188
X3.525 Y6.325
X3.506 Y6.431
X3.489 Y6.505
X3.476 Y6.55
X3.469 Y6.57
X3.308 Y6.826
X3.259 Y6.908
X3.215 Y6.993
X3.136 Y7.154
X3.096 Y7.241
X3.061 Y7.33
X3.027 Y7.422
X2.986 Y7.55
X2.957 Y7.652
X2.926 Y7.778
X2.903 Y7.89
X2.883 Y8.01
X2.866 Y8.133
X2.854 Y8.244
X2.845 Y8.377
X2.84 Y8.479
X2.838 Y8.622
X2.839 Y8.716
X2.844 Y8.868
X2.849 Y8.954
X2.863 Y9.116
X2.871 Y9.194
X2.893 Y9.364
X2.903 Y9.436
X2.933 Y9.613
X2.953 Y9.714
X3.037 Y10.083
X3.07 Y10.206
X3.186 Y10.588
X3.225 Y10.702
X3.371 Y11.087
X3.416 Y11.194
X3.589 Y11.576
X3.636 Y11.672
X3.835 Y12.048
X3.88 Y12.129
X4.101 Y12.5
X4.139 Y12.561
X4.379 Y12.929
X4.405 Y12.967
X4.659 Y13.337
X4.667 Y13.349
X5.188 Y14.093
X5.37 Y14.365
X5.337 Y14.384
X5.125 Y14.51
X5.056 Y14.553
X4.86 Y14.682
X4.79 Y14.73
X4.61 Y14.861
X4.54 Y14.914
X4.378 Y15.045
X4.309 Y15.103
X4.163 Y15.233
X4.099 Y15.292
X3.967 Y15.422
X3.912 Y15.479
X3.791 Y15.608
X3.724 Y15.683
X3.506 Y15.945
X3.436 Y16.034
X3.236 Y16.308
X3.161 Y16.419
X2.975 Y16.717
X2.907 Y16.836
X2.822 Y16.997
X2.773 Y17.099
X2.697 Y17.271
X2.649 Y17.388
X2.583 Y17.571
X2.543 Y17.697
X2.488 Y17.889
X2.457 Y18.017
X2.416 Y18.219
X2.395 Y18.341
X2.367 Y18.551
X2.356 Y18.662
X2.341 Y18.878
X2.336 Y18.975
X2.333 Y19.194
X2.335 Y19.312
X2.356 Y19.75
X2.365 Y19.867
X2.414 Y20.288
X2.425 Y20.372
X2.489 Y20.765
X2.503 Y20.84
X2.579 Y21.207
X2.597 Y21.286
X2.688 Y21.642
X2.71 Y21.721
X2.819 Y22.082
X2.841 Y22.15
X2.971 Y22.524
X2.99 Y22.576
X3.136 Y22.958
X3.151 Y22.996
X3.305 Y23.373
X3.316 Y23.4
X3.467 Y23.755
X3.474 Y23.771
X3.615 Y24.092
X3.616 Y24.095
X3.74 Y24.377
X3.85 Y24.63
X3.957 Y24.878
X3.97 Y24.907
X4.09 Y25.173
X4.109 Y25.214
X4.181 Y25.362
X4.198 Y25.395
X4.281 Y25.559
X4.297 Y25.59
X4.395 Y25.773
X4.411 Y25.802
X4.524 Y26.006
X4.539 Y26.031
X4.67 Y26.258
X4.682 Y26.279
X4.833 Y26.531
X4.842 Y26.547
X5.012 Y26.824
X5.02 Y26.838
X5.209 Y27.141
X5.215 Y27.151
X5.423 Y27.479
X5.428 Y27.487
X5.653 Y27.839
X5.657 Y27.845
X5.899 Y28.22
X5.901 Y28.224
X6.158 Y28.62
X6.159 Y28.622
X6.429 Y29.037
X6.43 Y29.038
X6.712 Y29.47
X7.002 Y29.916
X7.298 Y30.371
X7.902 Y31.306
X8.508 Y32.252
X9.1 Y33.193
X9.67 Y34.115
X9.942 Y34.563
X10.207 Y35.003
X10.464 Y35.433
X10.712 Y35.853
X10.951 Y36.262
X11.181 Y36.66
X11.403 Y37.047
X11.617 Y37.424
X11.823 Y37.79
X12.021 Y38.145
X12.211 Y38.49
X12.394 Y38.824
X12.741 Y39.471
X13.063 Y40.085
X13.359 Y40.676
X13.632 Y41.251
X13.883 Y41.82
X14.113 Y42.392
X14.321 Y42.974
X14.508 Y43.567
X14.671 Y44.166
X14.808 Y44.767
X14.863 Y45.045
X14.91 Y45.322
X14.949 Y45.585
X14.972 Y45.777
X14.603 Y45.796
X14.591 Y45.797
X13.69 Y45.85
X13.677 Y45.851
X12.786 Y45.911
X12.772 Y45.912
X11.89 Y45.978
X11.874 Y45.979
X11.002 Y46.052
X10.986 Y46.054
X10.125 Y46.134
X10.107 Y46.136
X9.257 Y46.223
X9.238 Y46.225
X8.399 Y46.32
X8.38 Y46.323
X7.552 Y46.425
X7.533 Y46.428
X6.716 Y46.538
X6.698 Y46.541
X5.891 Y46.658
X5.873 Y46.661
X5.076 Y46.785
X5.059 Y46.788
X4.271 Y46.918
X4.254 Y46.921
X3.476 Y47.058
X3.459 Y47.061
X2.69 Y47.204
G2 X1.831 Y47.62 I0.329 J1.77
G1 X1.635 Y47.792
X1.603 Y47.821
X1.418 Y47.992
X1.384 Y48.024
X1.208 Y48.194
X1.174 Y48.228
X1.008 Y48.398
X0.972 Y48.436
X0.816 Y48.605
X0.779 Y48.646
X0.634 Y48.814
X0.596 Y48.859
X0.46 Y49.027
X0.421 Y49.076
X0.296 Y49.243
X0.256 Y49.297
X0.141 Y49.463
X0.101 Y49.523
X-0.005 Y49.688
X-0.064 Y49.787
X-0.245 Y50.115
X-0.285 Y50.19
X-0.32 Y50.267
X-0.462 Y50.592
X-0.497 Y50.679
X-0.527 Y50.768
X-0.629 Y51.09
X-0.657 Y51.187
X-0.679 Y51.286
X-0.742 Y51.605
X-0.76 Y51.71
X-0.771 Y51.816
X-0.795 Y52.133
X-0.8 Y52.242
X-0.798 Y52.35
X-0.784 Y52.664
X-0.775 Y52.771
X-0.761 Y52.878
X-0.709 Y53.189
X-0.689 Y53.29
X-0.664 Y53.389
X-0.575 Y53.698
X-0.547 Y53.789
X-0.513 Y53.878
X-0.389 Y54.184
X-0.355 Y54.263
X-0.317 Y54.34
X-0.158 Y54.644
X-0.082 Y54.776
X0.11 Y55.078
X0.185 Y55.187
X0.408 Y55.487
X0.479 Y55.576
X0.731 Y55.874
X0.796 Y55.946
X1.076 Y56.242
X1.133 Y56.3
X1.438 Y56.595
X1.487 Y56.641
X1.815 Y56.935
X1.856 Y56.971
X2.204 Y57.265
X2.238 Y57.293
X2.603 Y57.586
X2.63 Y57.607
X3.01 Y57.9
X3.037 Y57.921
X3.827 Y58.507
X3.844 Y58.519
X4.653 Y59.105
X5.449 Y59.686
X6.208 Y60.26
X6.558 Y60.537
X6.894 Y60.813
X7.211 Y61.086
X7.507 Y61.354
X7.78 Y61.616
X8.031 Y61.873
X8.259 Y62.123
X8.465 Y62.366
X8.649 Y62.602
X8.813 Y62.831
X8.958 Y63.052
X9.087 Y63.267
X9.201 Y63.477
X9.303 Y63.682
X9.395 Y63.883
X9.48 Y64.084
X9.56 Y64.284
X9.638 Y64.489
X9.715 Y64.69
X9.724 Y64.712
X9.798 Y64.899
X9.819 Y64.949
X9.894 Y65.122
X9.932 Y65.205
X10.01 Y65.363
X10.072 Y65.478
X10.156 Y65.622
X10.202 Y65.695
X10.251 Y65.766
X10.345 Y65.895
X10.408 Y65.977
X10.475 Y66.055
X10.581 Y66.17
X10.66 Y66.251
X10.744 Y66.327
X10.864 Y66.429
X10.952 Y66.499
X11.045 Y66.563
X11.183 Y66.653
X11.269 Y66.706
X11.358 Y66.754
X11.515 Y66.833
X11.593 Y66.87
X11.673 Y66.903
X11.851 Y66.971
X11.983 Y67.017
X12.182 Y67.076
X12.29 Y67.105
X12.51 Y67.156
X12.595 Y67.174
X12.835 Y67.218
X12.904 Y67.229
X13.162 Y67.266
X13.217 Y67.273
X13.491 Y67.304
X13.559 Y67.31
X14.138 Y67.353
X14.212 Y67.357
X14.803 Y67.376
X14.853 Y67.377
X15.141 Y67.378
X15.175
X15.452 Y67.374
X15.485 Y67.373
X15.746 Y67.364
X15.78 Y67.363
X15.939 Y67.355
X15.941 Y67.45
X15.932 Y67.82
X15.917 Y68.246
X15.916 Y68.288
X15.91 Y68.729
X15.911 Y68.833
X15.931 Y69.267
X15.94 Y69.383
X15.963 Y69.593
X15.976 Y69.691
X16.01 Y69.894
X16.033 Y70.009
X16.078 Y70.203
X16.113 Y70.332
X16.171 Y70.516
X16.223 Y70.661
X16.293 Y70.833
X16.328 Y70.912
X16.366 Y70.989
X16.449 Y71.147
X16.495 Y71.23
X16.546 Y71.31
X16.642 Y71.454
X16.701 Y71.537
X16.765 Y71.617
X16.873 Y71.744
X16.944 Y71.823
X17.02 Y71.898
X17.138 Y72.009
X17.221 Y72.081
X17.307 Y72.147
X17.436 Y72.241
X17.523 Y72.301
X17.614 Y72.355
X17.75 Y72.432
X17.841 Y72.479
X17.935 Y72.521
X18.078 Y72.581
X18.168 Y72.616
X18.259 Y72.646
X18.406 Y72.69
X18.495 Y72.714
X18.584 Y72.734
X18.735 Y72.762
X18.82 Y72.776
X18.906 Y72.786
X19.057 Y72.8
X19.222 Y72.808
X19.372
X19.534 Y72.8
X19.681 Y72.787
X19.839 Y72.766
X19.982 Y72.74
X20.141 Y72.704
X20.28 Y72.665
X20.436 Y72.615
X20.569 Y72.564
X20.721 Y72.499
X20.849 Y72.437
X20.995 Y72.357
X21.117 Y72.283
X21.254 Y72.191
X21.37 Y72.106
X21.493 Y72.006
X21.602 Y71.909
X21.699 Y71.817
X22.343 Y71.155
X22.35 Y71.147
X22.981 Y70.491
X22.989 Y70.482
X23.607 Y69.831
X23.616 Y69.822
X24.22 Y69.176
X24.228 Y69.167
X24.819 Y68.526
X24.829 Y68.516
X25.406 Y67.881
X25.415 Y67.871
X25.978 Y67.241
X25.988 Y67.23
X26.537 Y66.606
X26.548 Y66.594
X27.081 Y65.976
X27.092 Y65.963
X27.61 Y65.351
X27.622 Y65.337
X28.124 Y64.732
X28.137 Y64.716
X28.622 Y64.118
X28.636 Y64.101
X29.104 Y63.509
X29.118 Y63.491
X29.569 Y62.906
X29.584 Y62.886
X30.017 Y62.308
X30.033 Y62.286
X30.446 Y61.716
X30.463 Y61.693
X30.858 Y61.13
X30.875 Y61.105
X31.25 Y60.55
X31.269 Y60.522
X31.624 Y59.975
X31.643 Y59.946
X31.978 Y59.407
X31.997 Y59.375
X32.313 Y58.844
X32.332 Y58.81
X32.628 Y58.287
X32.648 Y58.251
X32.924 Y57.736
X32.943 Y57.699
X33.201 Y57.191
X33.22 Y57.151
X33.458 Y56.651
X33.477 Y56.61
X33.697 Y56.116
X33.716 Y56.074
X33.918 Y55.588
X33.935 Y55.543
X34.119 Y55.064
X34.137 Y55.017
X34.303 Y54.545
X34.32 Y54.496
X34.469 Y54.031
X34.484 Y53.98
X34.503 Y53.917
X34.611 Y54.184
X34.645 Y54.263
X34.683 Y54.34
X34.842 Y54.644
X34.918 Y54.776
X35.11 Y55.078
X35.185 Y55.187
X35.408 Y55.487
X35.479 Y55.576
X35.731 Y55.874
X35.796 Y55.946
X36.076 Y56.242
X36.133 Y56.3
X36.438 Y56.595
X36.487 Y56.641
X36.815 Y56.935
X36.856 Y56.971
X37.204 Y57.265
X37.238 Y57.293
X37.603 Y57.586
X37.63 Y57.607
X38.009 Y57.9
X38.037 Y57.921
X38.827 Y58.507
X38.844 Y58.519
X39.653 Y59.105
X40.449 Y59.686
X41.208 Y60.26
X41.558 Y60.537
X41.894 Y60.813
X42.211 Y61.086
X42.507 Y61.354
X42.78 Y61.616
X43.031 Y61.873
X43.259 Y62.123
X43.465 Y62.366
X43.649 Y62.602
X43.813 Y62.831
X43.958 Y63.052
X44.087 Y63.267
X44.201 Y63.477
X44.303 Y63.682
X44.395 Y63.883
X44.48 Y64.084
X44.56 Y64.284
X44.638 Y64.489
X44.715 Y64.69
X44.724 Y64.712
X44.798 Y64.899
X44.819 Y64.949
X44.894 Y65.122
X44.932 Y65.205
X45.01 Y65.363
X45.072 Y65.478
X45.156 Y65.622
X45.202 Y65.695
X45.251 Y65.766
X45.345 Y65.895
X45.408 Y65.977
X45.475 Y66.055
X45.581 Y66.17
X45.66 Y66.251
X45.744 Y66.327
X45.864 Y66.429
X45.952 Y66.499
X46.045 Y66.563
X46.183 Y66.653
X46.269 Y66.706
X46.358 Y66.754
X46.515 Y66.833
X46.593 Y66.87
X46.673 Y66.903
X46.851 Y66.971
X46.983 Y67.017
X47.182 Y67.076
X47.29 Y67.105
X47.51 Y67.156
X47.595 Y67.174
X47.835 Y67.218
X47.904 Y67.229
X48.162 Y67.266
X48.217 Y67.273
X48.491 Y67.304
X48.559 Y67.31
X49.138 Y67.353
X49.212 Y67.357
X49.803 Y67.376
X49.853 Y67.377
X50.141 Y67.378
X50.175
X50.452 Y67.374
X50.485 Y67.373
X50.746 Y67.364
X50.78 Y67.363
X50.939 Y67.355
X50.941 Y67.45
X50.932 Y67.82
X50.917 Y68.246
X50.916 Y68.288
X50.91 Y68.729
X50.911 Y68.833
X50.931 Y69.267
X50.94 Y69.383
X50.963 Y69.593
X50.976 Y69.691
X51.01 Y69.894
X51.033 Y70.009
X51.078 Y70.203
X51.113 Y70.332
X51.171 Y70.516
X51.223 Y70.661
X51.293 Y70.833
X51.328 Y70.912
X51.366 Y70.989
X51.449 Y71.147
X51.495 Y71.23
X51.546 Y71.31
X51.642 Y71.454
X51.701 Y71.537
X51.765 Y71.617
X51.873 Y71.744
X51.944 Y71.823
X52.02 Y71.898
X52.138 Y72.009
X52.221 Y72.081
X52.307 Y72.147
X52.436 Y72.241
X52.523 Y72.301
X52.614 Y72.355
X52.75 Y72.432
X52.841 Y72.479
X52.935 Y72.521
X53.078 Y72.581
X53.168 Y72.616
X53.259 Y72.646
X53.406 Y72.69
X53.495 Y72.714
X53.584 Y72.734
X53.735 Y72.762
X53.82 Y72.776
X53.906 Y72.786
X54.057 Y72.8
X54.222 Y72.808
X54.372
X54.534 Y72.8
X54.681 Y72.787
X54.839 Y72.766
X54.982 Y72.74
X55.141 Y72.704
X55.28 Y72.665
X55.436 Y72.615
X55.569 Y72.564
X55.721 Y72.499
X55.849 Y72.437
X55.995 Y72.357
X56.117 Y72.283
X56.254 Y72.191
X56.37 Y72.106
X56.493 Y72.006
X56.602 Y71.909
X56.699 Y71.817
X57.343 Y71.155
X57.35 Y71.147
X57.981 Y70.491
X57.989 Y70.482
X58.607 Y69.831
X58.616 Y69.822
X59.22 Y69.176
X59.228 Y69.167
X59.819 Y68.526
X59.829 Y68.516
X60.406 Y67.881
X60.415 Y67.871
X60.978 Y67.241
X60.988 Y67.23
X61.537 Y66.606
X61.548 Y66.594
X62.081 Y65.976
X62.092 Y65.963
X62.61 Y65.351
X62.622 Y65.337
X63.124 Y64.732
X63.137 Y64.716
X63.622 Y64.118
X63.636 Y64.101
X64.104 Y63.509
X64.118 Y63.491
X64.569 Y62.906
X64.584 Y62.886
X65.017 Y62.308
X65.033 Y62.286
X65.446 Y61.716
X65.463 Y61.693
X65.858 Y61.13
X65.875 Y61.105
X66.25 Y60.55
X66.269 Y60.522
X66.624 Y59.975
X66.643 Y59.946
X66.978 Y59.407
X66.997 Y59.375
X67.313 Y58.844
X67.332 Y58.81
X67.628 Y58.287
X67.648 Y58.251
X67.924 Y57.736
X67.943 Y57.699
X68.201 Y57.191
X68.22 Y57.151
X68.458 Y56.651
X68.477 Y56.61
X68.697 Y56.116
X68.716 Y56.074
X68.918 Y55.588
X68.935 Y55.543
X69.119 Y55.064
X69.137 Y55.017
X69.303 Y54.545
X69.32 Y54.496
X69.469 Y54.031
X69.484 Y53.98
X69.503 Y53.917
X69.611 Y54.184
X69.645 Y54.263
X69.683 Y54.34
X69.842 Y54.644
X69.918 Y54.776
X70.11 Y55.078
X70.185 Y55.187
X70.408 Y55.487
X70.479 Y55.576
X70.731 Y55.874
X70.796 Y55.946
X71.076 Y56.242
X71.133 Y56.3
X71.438 Y56.595
X71.487 Y56.641
X71.815 Y56.935
X71.856 Y56.971
X72.204 Y57.265
X72.238 Y57.293
X72.603 Y57.586
X72.63 Y57.607
X73.009 Y57.9
X73.037 Y57.921
X73.827 Y58.507
X73.844 Y58.519
X74.653 Y59.105
X75.449 Y59.686
X76.208 Y60.26
X76.558 Y60.537
X76.894 Y60.813
X77.211 Y61.086
X77.507 Y61.354
X77.78 Y61.616
X78.031 Y61.873
X78.259 Y62.123
X78.465 Y62.366
X78.649 Y62.602
X78.813 Y62.831
X78.958 Y63.052
X79.087 Y63.267
X79.201 Y63.477
X79.303 Y63.682
X79.395 Y63.883
X79.48 Y64.084
X79.56 Y64.284
X79.638 Y64.489
X79.715 Y64.69
X79.724 Y64.712
X79.798 Y64.899
X79.819 Y64.949
X79.894 Y65.122
X79.932 Y65.205
X80.01 Y65.363
X80.072 Y65.478
X80.156 Y65.622
X80.202 Y65.695
X80.251 Y65.766
X80.345 Y65.895
X80.408 Y65.977
X80.475 Y66.055
X80.581 Y66.17
X80.66 Y66.251
X80.744 Y66.327
X80.864 Y66.429
X80.952 Y66.499
X81.045 Y66.563
X81.183 Y66.653
X81.269 Y66.706
X81.358 Y66.754
X81.515 Y66.833
X81.593 Y66.87
X81.673 Y66.903
X81.851 Y66.971
X81.983 Y67.017
X82.182 Y67.076
X82.29 Y67.105
X82.51 Y67.156
X82.595 Y67.174
X82.835 Y67.218
X82.904 Y67.229
X83.162 Y67.266
X83.217 Y67.273
X83.491 Y67.304
X83.559 Y67.31
X84.138 Y67.353
X84.212 Y67.357
X84.803 Y67.376
X84.853 Y67.377
X85.141 Y67.378
X85.175
X85.452 Y67.374
X85.485 Y67.373
X85.746 Y67.364
X85.78 Y67.363
X85.939 Y67.355
X85.941 Y67.45
X85.932 Y67.82
X85.917 Y68.246
X85.916 Y68.288
X85.91 Y68.729
X85.911 Y68.833
X85.931 Y69.267
X85.94 Y69.383
X85.963 Y69.593
X85.976 Y69.691
X86.01 Y69.894
X86.033 Y70.009
X86.078 Y70.203
X86.113 Y70.332
X86.171 Y70.516
X86.223 Y70.661
X86.293 Y70.833
X86.328 Y70.912
X86.366 Y70.989
X86.449 Y71.147
X86.495 Y71.23
X86.546 Y71.31
X86.642 Y71.454
X86.701 Y71.537
X86.765 Y71.617
X86.873 Y71.744
X86.944 Y71.823
X87.02 Y71.898
X87.138 Y72.009
X87.221 Y72.081
X87.307 Y72.147
X87.436 Y72.241
X87.523 Y72.301
X87.614 Y72.355
X87.75 Y72.432
X87.841 Y72.479
X87.935 Y72.521
X88.078 Y72.581
X88.168 Y72.616
X88.259 Y72.646
X88.406 Y72.69
X88.495 Y72.714
X88.584 Y72.734
X88.735 Y72.762
X88.82 Y72.776
X88.906 Y72.786
X89.057 Y72.8
X89.222 Y72.808
X89.372
X89.534 Y72.8
X89.681 Y72.787
X89.839 Y72.766
X89.982 Y72.74
X90.141 Y72.704
X90.28 Y72.665
X90.436 Y72.615
X90.569 Y72.564
X90.721 Y72.499
X90.849 Y72.437
X90.995 Y72.357
X91.117 Y72.283
X91.254 Y72.191
X91.37 Y72.106
X91.493 Y72.006
X91.602 Y71.909
X91.699 Y71.817
X92.343 Y71.155
X92.35 Y71.147
X92.981 Y70.491
X92.989 Y70.482
X93.607 Y69.831
X93.616 Y69.822
X94.22 Y69.176
X94.228 Y69.167
X94.819 Y68.526
X94.829 Y68.516
X95.406 Y67.881
X95.415 Y67.871
X95.978 Y67.241
X95.988 Y67.23
X96.537 Y66.606
X96.548 Y66.594
X97.081 Y65.976
X97.092 Y65.963
X97.61 Y65.351
X97.622 Y65.337
X98.124 Y64.732
X98.137 Y64.716
X98.622 Y64.118
X98.636 Y64.101
X99.104 Y63.509
X99.118 Y63.491
X99.569 Y62.906
X99.584 Y62.886
X100.017 Y62.308
X100.033 Y62.286
X100.446 Y61.716
X100.463 Y61.693
X100.858 Y61.13
X100.875 Y61.105
X101.25 Y60.55
X101.269 Y60.522
X101.624 Y59.975
X101.642 Y59.947
X101.978 Y59.408
X101.998 Y59.374
X102.313 Y58.842
X102.332 Y58.81
X102.628 Y58.287
X102.647 Y58.253
X102.924 Y57.737
X102.944 Y57.698
X103.201 Y57.19
X103.221 Y57.15
X103.459 Y56.649
X103.477 Y56.61
X103.697 Y56.117
X103.715 Y56.074
X103.917 Y55.588
X103.935 Y55.543
X104.119 Y55.064
X104.136 Y55.019
X104.303 Y54.547
X104.32 Y54.496
X104.469 Y54.031
X104.485 Y53.98
X104.503 Y53.917
X104.611 Y54.184
X104.645 Y54.262
X104.682 Y54.338
X104.84 Y54.642
X104.919 Y54.778
X105.111 Y55.08
X105.185 Y55.187
X105.408 Y55.487
X105.478 Y55.575
X105.73 Y55.873
X105.796 Y55.946
X106.076 Y56.243
X106.132 Y56.3
X106.437 Y56.595
X106.487 Y56.642
X106.815 Y56.936
X106.857 Y56.972
X107.205 Y57.265
X107.238 Y57.293
X107.603 Y57.586
X107.63 Y57.606
X108.009 Y57.899
X108.037 Y57.921
X108.828 Y58.507
X108.844 Y58.518
X109.653 Y59.105
X110.449 Y59.686
X111.208 Y60.26
X111.558 Y60.537
X111.894 Y60.813
X112.211 Y61.086
X112.507 Y61.354
X112.78 Y61.616
X113.031 Y61.873
X113.259 Y62.123
X113.465 Y62.366
X113.65 Y62.603
X113.813 Y62.831
X113.958 Y63.052
X114.086 Y63.267
X114.201 Y63.478
X114.304 Y63.684
X114.395 Y63.883
X114.48 Y64.083
X114.56 Y64.284
X114.638 Y64.487
X114.714 Y64.687
X114.724 Y64.714
X114.799 Y64.902
X114.819 Y64.95
X114.894 Y65.123
X114.932 Y65.204
X115.01 Y65.362
X115.071 Y65.476
X115.155 Y65.619
X115.202 Y65.696
X115.254 Y65.77
X115.348 Y65.899
X115.408 Y65.977
X115.472 Y66.051
X115.577 Y66.166
X115.659 Y66.251
X115.747 Y66.33
X115.868 Y66.432
X115.953 Y66.499
X116.041 Y66.561
X116.178 Y66.651
X116.267 Y66.705
X116.358 Y66.754
X116.515 Y66.833
X116.594 Y66.87
X116.675 Y66.903
X116.853 Y66.972
X116.984 Y67.017
X117.183 Y67.076
X117.288 Y67.104
X117.507 Y67.156
X117.595 Y67.174
X117.836 Y67.218
X117.903 Y67.229
X118.161 Y67.266
X118.217 Y67.273
X118.491 Y67.304
X118.558 Y67.31
X119.137 Y67.353
X119.212 Y67.357
X119.803 Y67.376
X119.854 Y67.377
X120.142 Y67.378
X120.175
X120.452 Y67.374
X120.485 Y67.373
X120.746 Y67.364
X120.779 Y67.363
X120.939 Y67.355
X120.941 Y67.449
X120.932 Y67.821
X120.917 Y68.25
X120.916 Y68.287
X120.91 Y68.728
X120.912 Y68.831
X120.931 Y69.265
X120.94 Y69.382
X120.963 Y69.592
X120.977 Y69.693
X121.011 Y69.897
X121.032 Y70.005
X121.077 Y70.2
X121.114 Y70.335
X121.172 Y70.52
X121.222 Y70.657
X121.292 Y70.83
X121.328 Y70.913
X121.369 Y70.995
X121.453 Y71.153
X121.496 Y71.23
X121.543 Y71.305
X121.638 Y71.448
X121.699 Y71.535
X121.766 Y71.618
X121.874 Y71.746
X121.945 Y71.825
X122.021 Y71.899
X122.14 Y72.01
X122.222 Y72.082
X122.309 Y72.149
X122.438 Y72.242
X122.523 Y72.3
X122.611 Y72.353
X122.747 Y72.43
X122.839 Y72.478
X122.934 Y72.521
X123.077 Y72.581
X123.167 Y72.616
X123.26 Y72.647
X123.408 Y72.691
X123.495 Y72.714
X123.584 Y72.733
X123.734 Y72.762
X123.82 Y72.776
X123.906 Y72.786
X124.057 Y72.8
X124.222 Y72.808
X124.372
X124.534 Y72.8
X124.681 Y72.787
X124.84 Y72.766
X124.983 Y72.74
X125.14 Y72.704
X125.279 Y72.666
X125.438 Y72.614
X125.571 Y72.564
X125.72 Y72.499
X125.848 Y72.437
X125.994 Y72.358
X126.116 Y72.284
X126.188 Y72.238
X126.258 Y72.189
X126.373 Y72.103
X126.49 Y72.009
X126.6 Y71.912
X126.699 Y71.817
X127.343 Y71.156
X127.352 Y71.146
X127.982 Y70.49
X127.989 Y70.483
X128.607 Y69.831
X128.615 Y69.823
X129.22 Y69.177
X129.23 Y69.166
X129.82 Y68.525
X129.827 Y68.517
X130.405 Y67.882
X130.416 Y67.87
X130.979 Y67.241
X130.989 Y67.229
X131.537 Y66.605
X131.547 Y66.594
X132.081 Y65.977
X132.093 Y65.963
X132.611 Y65.351
X132.623 Y65.337
X133.125 Y64.732
X133.138 Y64.716
X133.623 Y64.117
X133.636 Y64.1
X134.104 Y63.508
X134.117 Y63.491
X134.568 Y62.906
X134.583 Y62.887
X135.016 Y62.309
X135.034 Y62.285
X135.447 Y61.715
X135.462 Y61.694
X135.857 Y61.131
X135.875 Y61.104
X136.25 Y60.55
X136.269 Y60.522
X136.624 Y59.975
X136.642 Y59.947
X136.978 Y59.408
X136.998 Y59.374
X137.313 Y58.842
X137.332 Y58.81
X137.628 Y58.287
X137.647 Y58.253
X137.924 Y57.737
X137.944 Y57.698
X138.201 Y57.19
X138.221 Y57.15
X138.459 Y56.649
X138.477 Y56.61
X138.697 Y56.117
X138.715 Y56.074
X138.917 Y55.588
X138.935 Y55.543
X139.119 Y55.064
X139.136 Y55.019
X139.303 Y54.547
X139.32 Y54.496
X139.469 Y54.031
X139.485 Y53.98
X139.617 Y53.521
X139.631 Y53.467
X139.746 Y53.016
G2 X139.792 Y52.762 I-1.744 J-0.444
G1 X139.888 Y51.861
X139.889 Y51.845
X139.975 Y50.966
X139.977 Y50.947
X140.052 Y50.089
X140.054 Y50.068
X140.117 Y49.231
X140.118 Y49.213
X140.171 Y48.398
X140.172 Y48.377
X140.214 Y47.583
X140.216 Y47.56
X140.247 Y46.789
Y46.764
X140.267 Y46.014
X140.268 Y45.988
X140.277 Y45.258
Y45.236
Y44.527
Y44.498
X140.266 Y43.809
X140.265 Y43.781
X140.244 Y43.111
X140.243 Y43.082
X140.212 Y42.431
X140.211 Y42.406
X140.172 Y41.772
X140.17 Y41.743
X140.122 Y41.125
X140.12 Y41.101
X140.065 Y40.498
X140.062 Y40.473
X140. Y39.883
X139.998 Y39.861
X139.93 Y39.282
X139.927 Y39.257
X139.778 Y38.123
X139.775 Y38.102
X139.456 Y35.877
X139.306 Y34.759
X139.238 Y34.201
X139.175 Y33.635
X139.118 Y33.059
X139.067 Y32.471
X139.022 Y31.877
X138.985 Y31.272
X138.954 Y30.656
X138.931 Y30.036
X138.903 Y28.756
X138.899 Y27.46
X138.91 Y26.155
X138.926 Y24.867
Y24.859
X138.931 Y24.23
Y24.216
Y23.603
Y23.582
X138.924 Y22.988
X138.923 Y22.953
X138.905 Y22.382
X138.903 Y22.343
X138.874 Y21.797
X138.871 Y21.743
X138.828 Y21.225
X138.821 Y21.158
X138.762 Y20.669
X138.75 Y20.586
X138.673 Y20.129
X138.655 Y20.035
X138.56 Y19.61
X138.531 Y19.5
X138.417 Y19.108
X138.378 Y18.987
X138.245 Y18.627
X138.194 Y18.505
X138.044 Y18.175
X137.98 Y18.048
X137.813 Y17.747
X137.742 Y17.628
X137.56 Y17.352
X137.49 Y17.254
X137.297 Y17.
X137.227 Y16.913
X137.024 Y16.678
X136.963 Y16.611
X136.753 Y16.391
X136.698 Y16.336
X136.619 Y16.261
G2 X136.253 Y15.438 I-1.775 J0.297
G1 X136.267 Y15.403
X136.327 Y15.266
X136.404 Y15.109
X136.491 Y14.947
X136.722 Y14.561
X136.985 Y14.162
X137.273 Y13.746
X137.57 Y13.323
X137.584 Y13.304
X137.872 Y12.883
X137.905 Y12.832
X138.172 Y12.413
X138.219 Y12.335
X138.46 Y11.91
X138.512 Y11.811
X138.723 Y11.378
X138.775 Y11.26
X138.951 Y10.821
X138.989 Y10.72
X139.062 Y10.501
X139.08 Y10.441
X139.144 Y10.224
X139.163 Y10.157
X139.217 Y9.944
X139.235 Y9.867
X139.278 Y9.659
X139.292 Y9.578
X139.324 Y9.379
X139.335 Y9.3
X139.357 Y9.11
X139.366 Y9.013
X139.377 Y8.833
X139.38 Y8.734
X139.381 Y8.567
X139.378 Y8.451
X139.369 Y8.297
X139.357 Y8.173
X139.339 Y8.032
X139.318 Y7.9
X139.292 Y7.773
X139.253 Y7.62
X139.219 Y7.505
X139.171 Y7.364
X139.131 Y7.262
X139.073 Y7.129
X139.028 Y7.037
X138.953 Y6.899
X138.853 Y6.732
X138.824 Y6.685
X138.75 Y6.569
X138.748 Y6.564
X138.736 Y6.526
X138.718 Y6.452
X138.696 Y6.338
X138.674 Y6.185
X138.652 Y5.989
X138.633 Y5.753
X138.629 Y5.686
G2 X139.275 Y5.27 I-0.627 J-1.687
G1 X139.874 Y4.671
G2 X140.395 Y3.539 I-1.273 J-1.272
X140.918 Y4.672 I1.795 J-0.141
G1 X141.518 Y5.271
G2 X142.163 Y5.686 I1.272 J-1.273
G1 X142.159 Y5.753
X142.14 Y5.989
X142.119 Y6.181
X142.095 Y6.339
X142.074 Y6.452
X142.056 Y6.522
X142.043 Y6.564
X142.041 Y6.571
X141.964 Y6.692
X141.943 Y6.725
X141.842 Y6.892
X141.763 Y7.037
X141.718 Y7.129
X141.66 Y7.262
X141.62 Y7.364
X141.568 Y7.519
X141.535 Y7.634
X141.503 Y7.76
X141.476 Y7.887
X141.452 Y8.032
X141.434 Y8.173
X141.421 Y8.308
X141.413 Y8.463
X141.411 Y8.556
Y8.724
X141.415 Y8.843
X141.427 Y9.023
X141.434 Y9.1
X141.455 Y9.291
X141.468 Y9.387
X141.501 Y9.587
X141.514 Y9.659
X141.557 Y9.867
X141.573 Y9.936
X141.626 Y10.149
X141.647 Y10.224
X141.711 Y10.441
X141.732 Y10.508
X141.806 Y10.727
X141.841 Y10.821
X142.017 Y11.26
X142.069 Y11.378
X142.28 Y11.811
X142.332 Y11.91
X142.573 Y12.335
X142.62 Y12.413
X142.887 Y12.832
X142.92 Y12.883
X143.208 Y13.304
X143.222 Y13.323
X143.519 Y13.746
X143.807 Y14.161
X144.069 Y14.561
X144.301 Y14.948
X144.388 Y15.109
X144.465 Y15.266
X144.525 Y15.403
X144.538 Y15.437
G2 X144.172 Y16.261 I1.409 J1.121
G1 X144.091 Y16.339
X144.039 Y16.391
X143.829 Y16.611
X143.768 Y16.678
X143.565 Y16.913
X143.498 Y16.997
X143.304 Y17.251
X143.229 Y17.356
X143.048 Y17.632
X142.979 Y17.747
X142.812 Y18.048
X142.749 Y18.171
X142.598 Y18.501
X142.546 Y18.627
X142.413 Y18.987
X142.374 Y19.108
X142.26 Y19.5
X142.231 Y19.61
X142.136 Y20.035
X142.117 Y20.133
X142.041 Y20.59
X142.03 Y20.669
X141.971 Y21.158
X141.964 Y21.221
X141.92 Y21.74
X141.917 Y21.797
X141.888 Y22.343
X141.886 Y22.385
X141.869 Y22.956
X141.868 Y22.988
X141.861 Y23.582
Y23.603
Y24.216
Y24.227
X141.865 Y24.856
Y24.867
X141.881 Y26.156
X141.893 Y27.46
X141.888 Y28.756
X141.861 Y30.037
X141.838 Y30.656
X141.807 Y31.271
X141.769 Y31.877
X141.725 Y32.473
X141.674 Y33.059
X141.617 Y33.634
X141.553 Y34.201
X141.485 Y34.761
X141.336 Y35.877
X141.017 Y38.102
X141.014 Y38.123
X140.865 Y39.257
X140.862 Y39.282
X140.794 Y39.861
X140.792 Y39.883
X140.73 Y40.473
X140.728 Y40.495
X140.672 Y41.098
X140.669 Y41.128
X140.622 Y41.746
X140.621 Y41.769
X140.581 Y42.403
X140.579 Y42.433
X140.549 Y43.085
X140.548 Y43.111
X140.527 Y43.781
X140.526 Y43.809
X140.515 Y44.498
Y44.524
X140.514 Y45.233
Y45.261
X140.524 Y45.99
X140.525 Y46.014
X140.545 Y46.764
Y46.789
X140.576 Y47.56
X140.578 Y47.583
X140.62 Y48.377
X140.621 Y48.396
X140.673 Y49.211
X140.674 Y49.234
X140.738 Y50.07
X140.74 Y50.089
X140.815 Y50.947
X140.816 Y50.964
X140.901 Y51.843
X140.903 Y51.863
X141. Y52.764
G2 X141.046 Y53.016 I1.79 J-0.193
G1 X141.161 Y53.467
X141.175 Y53.521
X141.307 Y53.98
X141.323 Y54.031
X141.472 Y54.496
X141.488 Y54.544
X141.654 Y55.016
X141.672 Y55.064
X141.856 Y55.543
X141.874 Y55.588
X142.076 Y56.074
X142.094 Y56.117
X142.314 Y56.61
X142.334 Y56.652
X142.573 Y57.153
X142.591 Y57.19
X142.848 Y57.698
X142.867 Y57.735
X143.143 Y58.25
X143.163 Y58.287
X143.459 Y58.81
X143.479 Y58.844
X143.795 Y59.376
X143.813 Y59.406
X144.148 Y59.945
X144.168 Y59.977
X144.524 Y60.524
X144.542 Y60.55
X144.917 Y61.104
X144.934 Y61.129
X145.328 Y61.692
X145.345 Y61.717
X145.759 Y62.287
X145.776 Y62.309
X146.209 Y62.887
X146.222 Y62.905
X146.672 Y63.489
X146.688 Y63.51
X147.157 Y64.102
X147.169 Y64.117
X147.654 Y64.716
X147.667 Y64.732
X148.169 Y65.337
X148.181 Y65.351
X148.699 Y65.963
X148.711 Y65.977
X149.245 Y66.594
X149.255 Y66.605
X149.803 Y67.229
X149.813 Y67.241
X150.376 Y67.87
X150.386 Y67.881
X150.963 Y68.516
X150.972 Y68.526
X151.563 Y69.167
X151.572 Y69.177
X152.177 Y69.823
X152.184 Y69.83
X152.801 Y70.482
X152.81 Y70.491
X153.441 Y71.147
X153.449 Y71.156
X154.093 Y71.817
X154.186 Y71.906
X154.295 Y72.003
X154.424 Y72.108
X154.54 Y72.193
X154.676 Y72.284
X154.798 Y72.358
X154.939 Y72.435
X155.066 Y72.497
X155.145 Y72.533
X155.224 Y72.565
X155.358 Y72.615
X155.513 Y72.666
X155.652 Y72.704
X155.809 Y72.74
X155.952 Y72.766
X156.111 Y72.787
X156.258 Y72.8
X156.42 Y72.808
X156.57
X156.735 Y72.8
X156.886 Y72.786
X156.972 Y72.776
X157.058 Y72.762
X157.208 Y72.733
X157.298 Y72.714
X157.387 Y72.69
X157.534 Y72.646
X157.625 Y72.616
X157.714 Y72.581
X157.857 Y72.521
X157.95 Y72.479
X158.039 Y72.432
X158.176 Y72.356
X158.267 Y72.302
X158.354 Y72.242
X158.483 Y72.149
X158.57 Y72.082
X158.652 Y72.01
X158.771 Y71.899
X158.85 Y71.822
X158.923 Y71.739
X159.03 Y71.612
X159.092 Y71.535
X159.148 Y71.455
X159.244 Y71.312
X159.296 Y71.23
X159.343 Y71.146
X159.426 Y70.987
X159.496 Y70.838
X159.567 Y70.666
X159.623 Y70.511
X159.68 Y70.327
X159.712 Y70.209
X159.758 Y70.014
X159.781 Y69.897
X159.815 Y69.693
X159.829 Y69.592
X159.852 Y69.382
X159.861 Y69.265
X159.88 Y68.831
X159.882 Y68.728
X159.876 Y68.287
X159.875 Y68.246
X159.859 Y67.821
X159.851 Y67.451
X159.853 Y67.355
X160.013 Y67.363
X160.046 Y67.364
X160.307 Y67.373
X160.34 Y67.374
X160.617 Y67.378
X160.65
X160.939 Y67.377
X160.989 Y67.376
X161.579 Y67.357
X161.654 Y67.353
X162.233 Y67.31
X162.3 Y67.304
X162.574 Y67.273
X162.629 Y67.266
X162.888 Y67.229
X162.957 Y67.218
X163.197 Y67.174
X163.282 Y67.156
X163.502 Y67.105
X163.609 Y67.076
X163.808 Y67.017
X163.942 Y66.971
X164.119 Y66.902
X164.198 Y66.869
X164.276 Y66.833
X164.433 Y66.754
X164.522 Y66.706
X164.608 Y66.654
X164.746 Y66.564
X164.84 Y66.498
X164.93 Y66.427
X165.05 Y66.325
X165.131 Y66.251
X165.208 Y66.173
X165.314 Y66.058
X165.381 Y65.98
X165.444 Y65.899
X165.538 Y65.77
X165.59 Y65.696
X165.637 Y65.619
X165.721 Y65.476
X165.782 Y65.362
X165.86 Y65.204
X165.898 Y65.123
X165.973 Y64.95
X165.996 Y64.894
X166.07 Y64.706
X166.074 Y64.694
X166.152 Y64.492
X166.153 Y64.49
X166.232 Y64.284
X166.312 Y64.083
X166.397 Y63.883
X166.489 Y63.681
X166.59 Y63.478
X166.704 Y63.269
X166.834 Y63.052
X166.979 Y62.831
X167.144 Y62.601
X167.326 Y62.366
X167.532 Y62.124
X167.761 Y61.873
X168.012 Y61.616
X168.285 Y61.354
X168.581 Y61.086
X168.898 Y60.813
X169.234 Y60.537
X169.584 Y60.26
X170.343 Y59.686
X171.139 Y59.105
X171.948 Y58.518
X171.964 Y58.507
X172.754 Y57.92
X172.781 Y57.901
X173.161 Y57.608
X173.189 Y57.586
X173.554 Y57.293
X173.587 Y57.265
X173.935 Y56.972
X173.979 Y56.934
X174.306 Y56.64
X174.354 Y56.595
X174.659 Y56.3
X174.715 Y56.243
X174.995 Y55.946
X175.059 Y55.876
X175.312 Y55.578
X175.384 Y55.487
X175.607 Y55.187
X175.684 Y55.076
X175.875 Y54.774
X175.949 Y54.646
X176.108 Y54.342
X176.146 Y54.264
X176.181 Y54.184
X176.289 Y53.917
X176.307 Y53.98
X176.323 Y54.031
X176.472 Y54.496
X176.488 Y54.544
X176.654 Y55.016
X176.672 Y55.064
X176.856 Y55.543
X176.874 Y55.588
X177.076 Y56.074
X177.094 Y56.117
X177.314 Y56.61
X177.334 Y56.652
X177.573 Y57.153
X177.591 Y57.19
X177.848 Y57.698
X177.867 Y57.735
X178.143 Y58.25
X178.163 Y58.287
X178.459 Y58.81
X178.479 Y58.844
X178.795 Y59.376
X178.813 Y59.406
X179.148 Y59.945
X179.168 Y59.977
X179.524 Y60.524
X179.542 Y60.55
X179.917 Y61.104
X179.934 Y61.129
X180.328 Y61.692
X180.345 Y61.717
X180.759 Y62.287
X180.776 Y62.309
X181.209 Y62.887
X181.222 Y62.905
X181.672 Y63.489
X181.688 Y63.51
X182.157 Y64.102
X182.169 Y64.117
X182.654 Y64.716
X182.667 Y64.732
X183.169 Y65.337
X183.181 Y65.351
X183.699 Y65.963
X183.711 Y65.977
X184.245 Y66.594
X184.255 Y66.605
X184.803 Y67.229
X184.813 Y67.241
X185.376 Y67.87
X185.386 Y67.881
X185.963 Y68.516
X185.972 Y68.526
X186.563 Y69.167
X186.572 Y69.177
X187.177 Y69.823
X187.184 Y69.83
X187.801 Y70.482
X187.81 Y70.491
X188.441 Y71.147
X188.449 Y71.156
X189.093 Y71.817
X189.186 Y71.906
X189.295 Y72.003
X189.424 Y72.108
X189.54 Y72.193
X189.676 Y72.284
X189.798 Y72.358
X189.939 Y72.435
X190.066 Y72.497
X190.145 Y72.533
X190.224 Y72.565
X190.358 Y72.615
X190.513 Y72.666
X190.652 Y72.704
X190.809 Y72.74
X190.952 Y72.766
X191.111 Y72.787
X191.258 Y72.8
X191.42 Y72.808
X191.57
X191.735 Y72.8
X191.886 Y72.786
X191.972 Y72.776
X192.058 Y72.762
X192.208 Y72.733
X192.298 Y72.714
X192.387 Y72.69
X192.534 Y72.646
X192.625 Y72.616
X192.714 Y72.581
X192.857 Y72.521
X192.95 Y72.479
X193.039 Y72.432
X193.176 Y72.356
X193.267 Y72.302
X193.354 Y72.242
X193.483 Y72.149
X193.57 Y72.082
X193.652 Y72.01
X193.771 Y71.899
X193.85 Y71.822
X193.923 Y71.739
X194.03 Y71.612
X194.092 Y71.535
X194.148 Y71.455
X194.244 Y71.312
X194.296 Y71.23
X194.343 Y71.146
X194.426 Y70.987
X194.496 Y70.838
X194.567 Y70.666
X194.623 Y70.511
X194.68 Y70.327
X194.712 Y70.209
X194.758 Y70.014
X194.781 Y69.897
X194.815 Y69.693
X194.829 Y69.592
X194.852 Y69.382
X194.861 Y69.265
X194.88 Y68.831
X194.882 Y68.728
X194.876 Y68.287
X194.875 Y68.246
X194.859 Y67.821
X194.851 Y67.451
X194.853 Y67.355
X195.013 Y67.363
X195.046 Y67.364
X195.307 Y67.373
X195.34 Y67.374
X195.617 Y67.378
X195.65
X195.939 Y67.377
X195.989 Y67.376
X196.579 Y67.357
X196.654 Y67.353
X197.233 Y67.31
X197.3 Y67.304
X197.574 Y67.273
X197.629 Y67.266
X197.888 Y67.229
X197.957 Y67.218
X198.197 Y67.174
X198.282 Y67.156
X198.502 Y67.105
X198.609 Y67.076
X198.808 Y67.017
X198.942 Y66.971
X199.119 Y66.902
X199.198 Y66.869
X199.276 Y66.833
X199.433 Y66.754
X199.522 Y66.706
X199.608 Y66.654
X199.746 Y66.564
X199.84 Y66.498
X199.93 Y66.427
X200.05 Y66.325
X200.131 Y66.251
X200.208 Y66.173
X200.314 Y66.058
X200.381 Y65.98
X200.444 Y65.899
X200.538 Y65.77
X200.59 Y65.696
X200.637 Y65.619
X200.721 Y65.476
X200.782 Y65.362
X200.86 Y65.204
X200.898 Y65.123
X200.973 Y64.95
X200.996 Y64.894
X201.07 Y64.706
X201.074 Y64.694
X201.152 Y64.492
X201.153 Y64.49
X201.232 Y64.284
X201.312 Y64.083
X201.397 Y63.883
X201.489 Y63.681
X201.59 Y63.478
X201.704 Y63.269
X201.834 Y63.052
X201.979 Y62.831
X202.144 Y62.601
X202.326 Y62.366
X202.532 Y62.124
X202.761 Y61.873
X203.012 Y61.616
X203.285 Y61.354
X203.581 Y61.086
X203.898 Y60.813
X204.234 Y60.537
X204.584 Y60.26
X205.343 Y59.686
X206.139 Y59.105
X206.948 Y58.518
X206.964 Y58.507
X207.754 Y57.92
X207.781 Y57.901
X208.161 Y57.608
X208.189 Y57.586
X208.554 Y57.293
X208.587 Y57.265
X208.935 Y56.972
X208.979 Y56.934
X209.306 Y56.64
X209.354 Y56.595
X209.659 Y56.3
X209.715 Y56.243
X209.995 Y55.946
X210.059 Y55.876
X210.312 Y55.578
X210.384 Y55.487
X210.607 Y55.187
X210.684 Y55.076
X210.875 Y54.774
X210.949 Y54.646
X211.108 Y54.342
X211.146 Y54.264
X211.181 Y54.184
X211.289 Y53.917
X211.307 Y53.98
X211.323 Y54.031
X211.472 Y54.496
X211.488 Y54.544
X211.654 Y55.016
X211.672 Y55.064
X211.856 Y55.543
X211.874 Y55.588
X212.076 Y56.074
X212.094 Y56.117
X212.314 Y56.61
X212.334 Y56.652
X212.573 Y57.153
X212.591 Y57.19
X212.848 Y57.698
X212.867 Y57.735
X213.143 Y58.25
X213.163 Y58.287
X213.459 Y58.81
X213.479 Y58.844
X213.795 Y59.376
X213.813 Y59.406
X214.148 Y59.945
X214.168 Y59.977
X214.524 Y60.524
X214.542 Y60.55
X214.917 Y61.104
X214.934 Y61.129
X215.328 Y61.692
X215.345 Y61.717
X215.759 Y62.287
X215.776 Y62.309
X216.209 Y62.887
X216.222 Y62.905
X216.672 Y63.489
X216.688 Y63.51
X217.157 Y64.102
X217.169 Y64.117
X217.654 Y64.716
X217.667 Y64.732
X218.169 Y65.337
X218.181 Y65.351
X218.699 Y65.963
X218.711 Y65.977
X219.245 Y66.594
X219.255 Y66.605
X219.803 Y67.229
X219.813 Y67.241
X220.376 Y67.87
X220.386 Y67.881
X220.963 Y68.516
X220.972 Y68.526
X221.563 Y69.167
X221.572 Y69.177
X222.177 Y69.823
X222.184 Y69.83
X222.801 Y70.482
X222.81 Y70.491
X223.441 Y71.147
X223.449 Y71.156
X224.093 Y71.817
X224.186 Y71.906
X224.295 Y72.003
X224.424 Y72.108
X224.54 Y72.193
X224.676 Y72.284
X224.798 Y72.358
X224.939 Y72.435
X225.066 Y72.497
X225.145 Y72.533
X225.224 Y72.565
X225.358 Y72.615
X225.513 Y72.666
X225.652 Y72.704
X225.809 Y72.74
X225.952 Y72.766
X226.111 Y72.787
X226.258 Y72.8
X226.42 Y72.808
X226.57
X226.735 Y72.8
X226.886 Y72.786
X226.972 Y72.776
X227.058 Y72.762
X227.208 Y72.733
X227.298 Y72.714
X227.387 Y72.69
X227.534 Y72.646
X227.625 Y72.616
X227.714 Y72.581
X227.857 Y72.521
X227.95 Y72.479
X228.039 Y72.432
X228.176 Y72.356
X228.267 Y72.302
X228.354 Y72.242
X228.483 Y72.149
X228.57 Y72.082
X228.652 Y72.01
X228.771 Y71.899
X228.85 Y71.822
X228.923 Y71.739
X229.03 Y71.612
X229.092 Y71.535
X229.148 Y71.455
X229.244 Y71.312
X229.296 Y71.23
X229.343 Y71.146
X229.426 Y70.987
X229.496 Y70.838
X229.567 Y70.666
X229.623 Y70.511
X229.68 Y70.327
X229.712 Y70.209
X229.758 Y70.014
X229.781 Y69.897
X229.815 Y69.693
X229.829 Y69.592
X229.852 Y69.382
X229.861 Y69.265
X229.88 Y68.831
X229.882 Y68.728
X229.876 Y68.287
X229.875 Y68.246
X229.859 Y67.821
X229.851 Y67.451
X229.853 Y67.355
X230.013 Y67.363
X230.046 Y67.364
X230.307 Y67.373
X230.34 Y67.374
X230.617 Y67.378
X230.65
X230.939 Y67.377
X230.989 Y67.376
X231.579 Y67.357
X231.654 Y67.353
X232.233 Y67.31
X232.3 Y67.304
X232.574 Y67.273
X232.629 Y67.266
X232.888 Y67.229
X232.957 Y67.218
X233.197 Y67.174
X233.282 Y67.156
X233.502 Y67.105
X233.609 Y67.076
X233.808 Y67.017
X233.942 Y66.971
X234.119 Y66.902
X234.198 Y66.869
X234.276 Y66.833
X234.433 Y66.754
X234.522 Y66.706
X234.608 Y66.654
X234.746 Y66.564
X234.84 Y66.498
X234.93 Y66.427
X235.05 Y66.325
X235.131 Y66.251
X235.208 Y66.173
X235.314 Y66.058
X235.381 Y65.98
X235.444 Y65.899
X235.538 Y65.77
X235.59 Y65.696
X235.637 Y65.619
X235.721 Y65.476
X235.782 Y65.362
X235.86 Y65.204
X235.898 Y65.123
X235.973 Y64.95
X235.996 Y64.894
X236.07 Y64.706
X236.074 Y64.694
X236.152 Y64.492
X236.153 Y64.49
X236.232 Y64.284
X236.312 Y64.083
X236.397 Y63.883
X236.489 Y63.681
X236.59 Y63.478
X236.704 Y63.269
X236.834 Y63.052
X236.979 Y62.831
X237.144 Y62.601
X237.326 Y62.366
X237.532 Y62.124
X237.761 Y61.873
X238.012 Y61.616
X238.285 Y61.354
X238.581 Y61.086
X238.898 Y60.813
X239.234 Y60.537
X239.584 Y60.26
X240.343 Y59.686
X241.139 Y59.105
X241.948 Y58.518
X241.964 Y58.507
X242.754 Y57.92
X242.781 Y57.901
X243.161 Y57.608
X243.189 Y57.586
X243.554 Y57.293
X243.587 Y57.265
X243.935 Y56.972
X243.979 Y56.934
X244.306 Y56.64
X244.354 Y56.595
X244.659 Y56.3
X244.715 Y56.243
X244.995 Y55.946
X245.059 Y55.876
X245.312 Y55.578
X245.384 Y55.487
X245.607 Y55.187
X245.684 Y55.076
X245.875 Y54.774
X245.949 Y54.646
X246.108 Y54.342
X246.146 Y54.264
X246.181 Y54.184
X246.305 Y53.878
X246.339 Y53.787
X246.368 Y53.695
X246.456 Y53.387
X246.481 Y53.289
X246.5 Y53.19
X246.552 Y52.879
X246.567 Y52.771
X246.575 Y52.662
X246.589 Y52.349
X246.591 Y52.24
X246.586 Y52.132
X246.562 Y51.816
X246.551 Y51.712
X246.534 Y51.609
X246.472 Y51.29
X246.449 Y51.189
X246.421 Y51.089
X246.319 Y50.767
X246.288 Y50.678
X246.252 Y50.59
X246.11 Y50.265
X246.037 Y50.116
X245.856 Y49.788
X245.799 Y49.692
X245.694 Y49.527
X245.65 Y49.461
X245.534 Y49.295
X245.494 Y49.241
X245.368 Y49.074
X245.334 Y49.03
X245.199 Y48.863
X245.157 Y48.813
X245.011 Y48.645
X244.974 Y48.603
X244.818 Y48.434
X244.786 Y48.401
X244.621 Y48.231
X244.583 Y48.193
X244.407 Y48.023
X244.373 Y47.991
X244.187 Y47.82
X244.155 Y47.792
X243.959 Y47.62
G2 X243.102 Y47.204 I-1.186 J1.354
G1 X242.333 Y47.061
X242.316 Y47.058
X241.538 Y46.921
X241.52 Y46.918
X240.733 Y46.788
X240.716 Y46.785
X239.919 Y46.661
X239.901 Y46.658
X239.094 Y46.541
X239.076 Y46.538
X238.259 Y46.428
X238.24 Y46.425
X237.412 Y46.323
X237.393 Y46.32
X236.554 Y46.225
X236.535 Y46.223
X235.684 Y46.136
X235.667 Y46.134
X234.806 Y46.054
X234.789 Y46.052
X233.917 Y45.979
X233.902 Y45.978
X233.02 Y45.912
X233.005 Y45.911
X232.114 Y45.851
X232.101 Y45.85
X231.201 Y45.797
X231.188 Y45.796
X230.819 Y45.777
X230.842 Y45.584
X230.881 Y45.324
X230.93 Y45.044
X230.983 Y44.766
X231.121 Y44.166
X231.284 Y43.567
X231.47 Y42.974
X231.679 Y42.392
X231.908 Y41.821
X232.16 Y41.251
X232.433 Y40.675
X232.729 Y40.085
X233.051 Y39.47
X233.397 Y38.825
X233.58 Y38.491
X233.772 Y38.144
X233.969 Y37.788
X234.174 Y37.425
X234.388 Y37.047
X234.61 Y36.66
X234.84 Y36.263
X235.08 Y35.853
X235.328 Y35.433
X235.585 Y35.002
X235.849 Y34.563
X236.122 Y34.116
X236.691 Y33.193
X237.284 Y32.253
X237.889 Y31.306
X238.495 Y30.37
X238.79 Y29.915
X239.08 Y29.471
X239.081 Y29.469
X239.361 Y29.038
X239.631 Y28.624
X239.636 Y28.617
X239.892 Y28.221
Y28.22
X240.134 Y27.845
X240.137 Y27.841
X240.363 Y27.489
X240.37 Y27.477
X240.577 Y27.149
X240.582 Y27.141
X240.771 Y26.838
X240.781 Y26.822
X240.95 Y26.545
X240.957 Y26.533
X241.108 Y26.281
X241.124 Y26.255
X241.255 Y26.028
X241.266 Y26.007
X241.38 Y25.804
X241.399 Y25.77
X241.496 Y25.587
X241.508 Y25.563
X241.592 Y25.399
X241.61 Y25.363
X241.682 Y25.214
X241.701 Y25.175
X241.822 Y24.909
X241.837 Y24.874
X241.943 Y24.628
X242.051 Y24.378
X242.175 Y24.097
X242.177 Y24.093
X242.318 Y23.772
X242.326 Y23.752
X242.477 Y23.397
X242.487 Y23.373
X242.641 Y22.996
X242.654 Y22.962
X242.801 Y22.579
X242.822 Y22.521
X242.951 Y22.147
X242.973 Y22.081
X243.082 Y21.72
X243.103 Y21.645
X243.194 Y21.289
X243.213 Y21.208
X243.289 Y20.84
X243.303 Y20.765
X243.367 Y20.372
X243.378 Y20.287
X243.426 Y19.866
X243.436 Y19.748
X243.457 Y19.311
X243.459 Y19.2
X243.456 Y18.981
X243.451 Y18.872
X243.435 Y18.656
X243.424 Y18.552
X243.396 Y18.342
X243.376 Y18.221
X243.335 Y18.019
X243.304 Y17.891
X243.25 Y17.699
X243.209 Y17.572
X243.143 Y17.39
X243.093 Y17.266
X243.016 Y17.094
X242.972 Y17.002
X242.888 Y16.84
X242.817 Y16.717
X242.631 Y16.419
X242.555 Y16.306
X242.354 Y16.032
X242.285 Y15.945
X242.067 Y15.683
X241.999 Y15.606
X241.878 Y15.477
X241.825 Y15.422
X241.693 Y15.293
X241.63 Y15.234
X241.484 Y15.104
X241.416 Y15.046
X241.254 Y14.916
X241.181 Y14.86
X241.001 Y14.729
X240.931 Y14.681
X240.734 Y14.552
X240.666 Y14.51
X240.454 Y14.384
X240.422 Y14.365
X240.604 Y14.093
X241.125 Y13.349
X241.134 Y13.336
X241.388 Y12.966
X241.412 Y12.93
X241.652 Y12.561
X241.69 Y12.5
X241.911 Y12.13
X241.956 Y12.049
X242.155 Y11.673
X242.204 Y11.574
X242.377 Y11.191
X242.42 Y11.087
X242.566 Y10.701
X242.605 Y10.587
X242.721 Y10.205
X242.753 Y10.086
X242.838 Y9.717
X242.859 Y9.614
X242.889 Y9.438
X242.9 Y9.357
X242.921 Y9.187
X242.928 Y9.122
X242.942 Y8.96
X242.948 Y8.863
X242.953 Y8.711
X242.954 Y8.627
X242.952 Y8.483
X242.947 Y8.373
X242.937 Y8.241
X242.925 Y8.128
X242.908 Y8.006
X242.888 Y7.891
X242.865 Y7.779
X242.837 Y7.664
X242.809 Y7.562
X242.763 Y7.418
X242.729 Y7.326
X242.694 Y7.237
X242.654 Y7.15
X242.574 Y6.988
X242.531 Y6.907
X242.484 Y6.827
X242.323 Y6.571
X242.317 Y6.556
X242.303 Y6.506
X242.286 Y6.429
X242.266 Y6.323
X242.246 Y6.188
X242.227 Y6.021
X242.21 Y5.822
X242.201 Y5.685
G2 X242.846 Y5.271 I-0.627 J-1.687
G1 X243.446 Y4.672
G2 X243.974 Y3.399 I-1.272 J-1.273
G1 Y1.6
G2 X243.446 Y0.327 I-1.8 J0.
G1 X242.846 Y-0.273
G2 X241.574 Y-0.8 I-1.272 J1.273
G1 X212.79
G2 X211.518 Y-0.273 I0. J1.8
G1 X210.918 Y0.327
G2 X210.39 Y1.6 I1.272 J1.273
G1 Y3.399
G2 X210.918 Y4.672 I1.8 J0.
G1 X211.518 Y5.271
G2 X212.163 Y5.686 I1.272 J-1.273
G1 X212.159 Y5.753
X212.14 Y5.989
X212.119 Y6.181
X212.095 Y6.339
X212.074 Y6.452
X212.056 Y6.522
X212.043 Y6.564
X212.041 Y6.571
X211.964 Y6.692
X211.943 Y6.725
X211.842 Y6.892
X211.763 Y7.037
X211.718 Y7.129
X211.66 Y7.262
X211.62 Y7.364
X211.568 Y7.519
X211.535 Y7.634
X211.503 Y7.76
X211.476 Y7.887
X211.452 Y8.032
X211.434 Y8.173
X211.421 Y8.308
X211.413 Y8.463
X211.411 Y8.556
Y8.724
X211.415 Y8.843
X211.427 Y9.023
X211.434 Y9.1
X211.455 Y9.291
X211.468 Y9.387
X211.501 Y9.587
X211.514 Y9.659
X211.557 Y9.867
X211.573 Y9.936
X211.626 Y10.149
X211.647 Y10.224
X211.711 Y10.441
X211.732 Y10.508
X211.806 Y10.727
X211.841 Y10.821
X212.017 Y11.26
X212.069 Y11.378
X212.28 Y11.811
X212.332 Y11.91
X212.573 Y12.335
X212.62 Y12.413
X212.887 Y12.832
X212.92 Y12.883
X213.208 Y13.304
X213.222 Y13.323
X213.519 Y13.746
X213.807 Y14.161
X214.069 Y14.561
X214.301 Y14.948
X214.388 Y15.109
X214.465 Y15.266
X214.525 Y15.403
X214.538 Y15.437
G2 X214.172 Y16.261 I1.409 J1.121
G1 X214.091 Y16.339
X214.039 Y16.391
X213.829 Y16.611
X213.768 Y16.678
X213.565 Y16.913
X213.498 Y16.997
X213.304 Y17.251
X213.229 Y17.356
X213.048 Y17.632
X212.979 Y17.747
X212.812 Y18.048
X212.749 Y18.171
X212.598 Y18.501
X212.546 Y18.627
X212.413 Y18.987
X212.374 Y19.108
X212.26 Y19.5
X212.231 Y19.61
X212.136 Y20.035
X212.117 Y20.133
X212.041 Y20.59
X212.03 Y20.669
X211.971 Y21.158
X211.964 Y21.221
X211.92 Y21.74
X211.917 Y21.797
X211.888 Y22.343
X211.886 Y22.385
X211.869 Y22.956
X211.868 Y22.988
X211.861 Y23.582
Y23.603
Y24.216
Y24.227
X211.865 Y24.856
Y24.867
X211.881 Y26.156
X211.893 Y27.46
X211.888 Y28.756
X211.861 Y30.037
X211.838 Y30.656
X211.807 Y31.271
X211.769 Y31.877
X211.725 Y32.473
X211.674 Y33.059
X211.617 Y33.634
X211.553 Y34.201
X211.485 Y34.761
X211.336 Y35.877
X211.017 Y38.102
X211.014 Y38.123
X210.865 Y39.257
X210.862 Y39.282
X210.794 Y39.861
X210.792 Y39.883
X210.73 Y40.473
X210.728 Y40.495
X210.672 Y41.098
X210.669 Y41.128
X210.622 Y41.746
X210.621 Y41.769
X210.581 Y42.403
X210.579 Y42.433
X210.549 Y43.085
X210.548 Y43.111
X210.527 Y43.781
X210.526 Y43.809
X210.515 Y44.498
Y44.524
X210.514 Y45.233
Y45.261
X210.524 Y45.99
X210.525 Y46.014
X210.545 Y46.764
Y46.789
X210.576 Y47.56
X210.578 Y47.583
X210.62 Y48.377
X210.621 Y48.396
X210.673 Y49.211
X210.674 Y49.234
X210.697 Y49.532
X210.694 Y49.527
X210.65 Y49.461
X210.534 Y49.295
X210.494 Y49.241
X210.368 Y49.074
X210.334 Y49.03
X210.199 Y48.863
X210.157 Y48.813
X210.011 Y48.645
X209.974 Y48.603
X209.818 Y48.434
X209.786 Y48.401
X209.621 Y48.231
X209.583 Y48.193
X209.407 Y48.023
X209.373 Y47.991
X209.187 Y47.82
X209.155 Y47.792
X208.959 Y47.62
G2 X208.102 Y47.204 I-1.186 J1.354
G1 X207.333 Y47.061
X207.316 Y47.058
X206.538 Y46.921
X206.52 Y46.918
X205.733 Y46.788
X205.716 Y46.785
X204.919 Y46.661
X204.901 Y46.658
X204.094 Y46.541
X204.076 Y46.538
X203.259 Y46.428
X203.24 Y46.425
X202.412 Y46.323
X202.393 Y46.32
X201.554 Y46.225
X201.535 Y46.223
X200.684 Y46.136
X200.667 Y46.134
X199.806 Y46.054
X199.789 Y46.052
X198.917 Y45.979
X198.902 Y45.978
X198.02 Y45.912
X198.005 Y45.911
X197.114 Y45.851
X197.101 Y45.85
X196.201 Y45.797
X196.188 Y45.796
X195.819 Y45.777
X195.842 Y45.584
X195.881 Y45.324
X195.93 Y45.044
X195.983 Y44.766
X196.121 Y44.166
X196.284 Y43.567
X196.47 Y42.974
X196.679 Y42.392
X196.908 Y41.821
X197.16 Y41.251
X197.433 Y40.675
X197.729 Y40.085
X198.051 Y39.47
X198.397 Y38.825
X198.58 Y38.491
X198.772 Y38.144
X198.969 Y37.788
X199.174 Y37.425
X199.388 Y37.047
X199.61 Y36.66
X199.84 Y36.263
X200.08 Y35.853
X200.328 Y35.433
X200.585 Y35.002
X200.849 Y34.563
X201.122 Y34.116
X201.691 Y33.193
X202.284 Y32.253
X202.889 Y31.306
X203.495 Y30.37
X203.79 Y29.915
X204.08 Y29.471
X204.081 Y29.469
X204.361 Y29.038
X204.631 Y28.624
X204.636 Y28.617
X204.892 Y28.221
Y28.22
X205.134 Y27.845
X205.137 Y27.841
X205.363 Y27.489
X205.37 Y27.477
X205.577 Y27.149
X205.582 Y27.141
X205.771 Y26.838
X205.781 Y26.822
X205.95 Y26.545
X205.957 Y26.533
X206.108 Y26.281
X206.124 Y26.255
X206.255 Y26.028
X206.266 Y26.007
X206.38 Y25.804
X206.399 Y25.77
X206.496 Y25.587
X206.508 Y25.563
X206.592 Y25.399
X206.61 Y25.363
X206.682 Y25.214
X206.701 Y25.175
X206.822 Y24.909
X206.837 Y24.874
X206.943 Y24.628
X207.051 Y24.378
X207.175 Y24.097
X207.177 Y24.093
X207.318 Y23.772
X207.326 Y23.752
X207.477 Y23.397
X207.487 Y23.373
X207.641 Y22.996
X207.654 Y22.962
X207.801 Y22.579
X207.822 Y22.521
X207.951 Y22.147
X207.973 Y22.081
X208.082 Y21.72
X208.103 Y21.645
X208.194 Y21.289
X208.213 Y21.208
X208.289 Y20.84
X208.303 Y20.765
X208.367 Y20.372
X208.378 Y20.287
X208.426 Y19.866
X208.436 Y19.748
X208.457 Y19.311
X208.459 Y19.2
X208.456 Y18.981
X208.451 Y18.872
X208.435 Y18.656
X208.424 Y18.552
X208.396 Y18.342
X208.376 Y18.221
X208.335 Y18.019
X208.304 Y17.891
X208.25 Y17.699
X208.209 Y17.572
X208.143 Y17.39
X208.093 Y17.266
X208.016 Y17.094
X207.972 Y17.002
X207.888 Y16.84
X207.817 Y16.717
X207.631 Y16.419
X207.555 Y16.306
X207.354 Y16.032
X207.285 Y15.945
X207.067 Y15.683
X206.999 Y15.606
X206.878 Y15.477
X206.825 Y15.422
X206.693 Y15.293
X206.63 Y15.234
X206.484 Y15.104
X206.416 Y15.046
X206.254 Y14.916
X206.181 Y14.86
X206.001 Y14.729
X205.931 Y14.681
X205.734 Y14.552
X205.666 Y14.51
X205.454 Y14.384
X205.422 Y14.365
X205.604 Y14.093
X206.125 Y13.349
X206.134 Y13.336
X206.388 Y12.966
X206.412 Y12.93
X206.652 Y12.561
X206.69 Y12.5
X206.911 Y12.13
X206.956 Y12.049
X207.155 Y11.673
X207.204 Y11.574
X207.377 Y11.191
X207.42 Y11.087
X207.566 Y10.701
X207.605 Y10.587
X207.721 Y10.205
X207.753 Y10.086
X207.838 Y9.717
X207.859 Y9.614
X207.889 Y9.438
X207.9 Y9.357
X207.921 Y9.187
X207.928 Y9.122
X207.942 Y8.96
X207.948 Y8.863
X207.953 Y8.711
X207.954 Y8.627
X207.952 Y8.483
X207.947 Y8.373
X207.937 Y8.241
X207.925 Y8.128
X207.908 Y8.006
X207.888 Y7.891
X207.865 Y7.779
X207.837 Y7.664
X207.809 Y7.562
X207.763 Y7.418
X207.729 Y7.326
X207.694 Y7.237
X207.654 Y7.15
X207.574 Y6.988
X207.531 Y6.907
X207.484 Y6.827
X207.323 Y6.571
X207.317 Y6.556
X207.303 Y6.506
X207.286 Y6.429
X207.266 Y6.323
X207.246 Y6.188
X207.227 Y6.021
X207.21 Y5.822
X207.201 Y5.685
G2 X207.846 Y5.271 I-0.627 J-1.687
G1 X208.446 Y4.672
G2 X208.974 Y3.399 I-1.272 J-1.273
G1 Y1.6
G2 X208.446 Y0.327 I-1.8 J0.
G1 X207.846 Y-0.273
G2 X206.574 Y-0.8 I-1.272 J1.273
G1 X177.79
G2 X176.518 Y-0.273 I0. J1.8
G1 X175.918 Y0.327
G2 X175.39 Y1.6 I1.272 J1.273
G1 Y3.399
G2 X175.918 Y4.672 I1.8 J0.
G1 X176.518 Y5.271
G2 X177.163 Y5.686 I1.272 J-1.273
G1 X177.159 Y5.753
X177.14 Y5.989
X177.119 Y6.181
X177.095 Y6.339
X177.074 Y6.452
X177.056 Y6.522
X177.043 Y6.564
X177.041 Y6.571
X176.964 Y6.692
X176.943 Y6.725
X176.842 Y6.892
X176.763 Y7.037
X176.718 Y7.129
X176.66 Y7.262
X176.62 Y7.364
X176.568 Y7.519
X176.535 Y7.634
X176.503 Y7.76
X176.476 Y7.887
X176.452 Y8.032
X176.434 Y8.173
X176.421 Y8.308
X176.413 Y8.463
X176.411 Y8.556
Y8.724
X176.415 Y8.843
X176.427 Y9.023
X176.434 Y9.1
X176.455 Y9.291
X176.468 Y9.387
X176.501 Y9.587
X176.514 Y9.659
X176.557 Y9.867
X176.573 Y9.936
X176.626 Y10.149
X176.647 Y10.224
X176.711 Y10.441
X176.732 Y10.508
X176.806 Y10.727
X176.841 Y10.821
X177.017 Y11.26
X177.069 Y11.378
X177.28 Y11.811
X177.332 Y11.91
X177.573 Y12.335
X177.62 Y12.413
X177.887 Y12.832
X177.92 Y12.883
X178.208 Y13.304
X178.222 Y13.323
X178.519 Y13.746
X178.807 Y14.161
X179.069 Y14.561
X179.301 Y14.948
X179.388 Y15.109
X179.465 Y15.266
X179.525 Y15.403
X179.538 Y15.437
G2 X179.172 Y16.261 I1.409 J1.121
G1 X179.091 Y16.339
X179.039 Y16.391
X178.829 Y16.611
X178.768 Y16.678
X178.565 Y16.913
X178.498 Y16.997
X178.304 Y17.251
X178.229 Y17.356
X178.048 Y17.632
X177.979 Y17.747
X177.812 Y18.048
X177.749 Y18.171
X177.598 Y18.501
X177.546 Y18.627
X177.413 Y18.987
X177.374 Y19.108
X177.26 Y19.5
X177.231 Y19.61
X177.136 Y20.035
X177.117 Y20.133
X177.041 Y20.59
X177.03 Y20.669
X176.971 Y21.158
X176.964 Y21.221
X176.92 Y21.74
X176.917 Y21.797
X176.888 Y22.343
X176.886 Y22.385
X176.869 Y22.956
X176.868 Y22.988
X176.861 Y23.582
Y23.603
Y24.216
Y24.227
X176.865 Y24.856
Y24.867
X176.881 Y26.156
X176.893 Y27.46
X176.888 Y28.756
X176.861 Y30.037
X176.838 Y30.656
X176.807 Y31.271
X176.769 Y31.877
X176.725 Y32.473
X176.674 Y33.059
X176.617 Y33.634
X176.553 Y34.201
X176.485 Y34.761
X176.336 Y35.877
X176.017 Y38.102
X176.014 Y38.123
X175.865 Y39.257
X175.862 Y39.282
X175.794 Y39.861
X175.792 Y39.883
X175.73 Y40.473
X175.728 Y40.495
X175.672 Y41.098
X175.669 Y41.128
X175.622 Y41.746
X175.621 Y41.769
X175.581 Y42.403
X175.579 Y42.433
X175.549 Y43.085
X175.548 Y43.111
X175.527 Y43.781
X175.526 Y43.809
X175.515 Y44.498
Y44.524
X175.514 Y45.233
Y45.261
X175.524 Y45.99
X175.525 Y46.014
X175.545 Y46.764
Y46.789
X175.576 Y47.56
X175.578 Y47.583
X175.62 Y48.377
X175.621 Y48.396
X175.673 Y49.211
X175.674 Y49.234
X175.697 Y49.532
X175.694 Y49.527
X175.65 Y49.461
X175.534 Y49.295
X175.494 Y49.241
X175.368 Y49.074
X175.334 Y49.03
X175.199 Y48.863
X175.157 Y48.813
X175.011 Y48.645
X174.974 Y48.603
X174.818 Y48.434
X174.786 Y48.401
X174.621 Y48.231
X174.583 Y48.193
X174.407 Y48.023
X174.373 Y47.991
X174.187 Y47.82
X174.155 Y47.792
X173.959 Y47.62
G2 X173.102 Y47.204 I-1.186 J1.354
G1 X172.333 Y47.061
X172.316 Y47.058
X171.538 Y46.921
X171.52 Y46.918
X170.733 Y46.788
X170.716 Y46.785
X169.919 Y46.661
X169.901 Y46.658
X169.094 Y46.541
X169.076 Y46.538
X168.259 Y46.428
X168.24 Y46.425
X167.412 Y46.323
X167.393 Y46.32
X166.554 Y46.225
X166.535 Y46.223
X165.684 Y46.136
X165.667 Y46.134
X164.806 Y46.054
X164.789 Y46.052
X163.917 Y45.979
X163.902 Y45.978
X163.02 Y45.912
X163.005 Y45.911
X162.114 Y45.851
X162.101 Y45.85
X161.201 Y45.797
X161.188 Y45.796
X160.819 Y45.777
X160.842 Y45.584
X160.881 Y45.324
X160.93 Y45.044
X160.983 Y44.766
X161.121 Y44.166
X161.284 Y43.567
X161.47 Y42.974
X161.679 Y42.392
X161.908 Y41.821
X162.16 Y41.251
X162.433 Y40.675
X162.729 Y40.085
X163.051 Y39.47
X163.397 Y38.825
X163.58 Y38.491
X163.772 Y38.144
X163.969 Y37.788
X164.174 Y37.425
X164.388 Y37.047
X164.61 Y36.66
X164.84 Y36.263
X165.08 Y35.853
X165.328 Y35.433
X165.585 Y35.002
X165.849 Y34.563
X166.122 Y34.116
X166.691 Y33.193
X167.284 Y32.253
X167.889 Y31.306
X168.495 Y30.37
X168.79 Y29.915
X169.08 Y29.471
X169.081 Y29.469
X169.361 Y29.038
X169.631 Y28.624
X169.636 Y28.617
X169.892 Y28.221
Y28.22
X170.134 Y27.845
X170.137 Y27.841
X170.363 Y27.489
X170.37 Y27.477
X170.577 Y27.149
X170.582 Y27.141
X170.771 Y26.838
X170.781 Y26.822
X170.95 Y26.545
X170.957 Y26.533
X171.108 Y26.281
X171.124 Y26.255
X171.255 Y26.028
X171.266 Y26.007
X171.38 Y25.804
X171.399 Y25.77
X171.496 Y25.587
X171.508 Y25.563
X171.592 Y25.399
X171.61 Y25.363
X171.682 Y25.214
X171.701 Y25.175
X171.822 Y24.909
X171.837 Y24.874
X171.943 Y24.628
X172.051 Y24.378
X172.175 Y24.097
X172.177 Y24.093
X172.318 Y23.772
X172.326 Y23.752
X172.477 Y23.397
X172.487 Y23.373
X172.641 Y22.996
X172.654 Y22.962
X172.801 Y22.579
X172.822 Y22.521
X172.951 Y22.147
X172.973 Y22.081
X173.082 Y21.72
X173.103 Y21.645
X173.194 Y21.289
X173.213 Y21.208
X173.289 Y20.84
X173.303 Y20.765
X173.367 Y20.372
X173.378 Y20.287
X173.426 Y19.866
X173.436 Y19.748
X173.457 Y19.311
X173.459 Y19.2
X173.456 Y18.981
X173.451 Y18.872
X173.435 Y18.656
X173.424 Y18.552
X173.396 Y18.342
X173.376 Y18.221
X173.335 Y18.019
X173.304 Y17.891
X173.25 Y17.699
X173.209 Y17.572
X173.143 Y17.39
X173.093 Y17.266
X173.016 Y17.094
X172.972 Y17.002
X172.888 Y16.84
X172.817 Y16.717
X172.631 Y16.419
X172.555 Y16.306
X172.354 Y16.032
X172.285 Y15.945
X172.067 Y15.683
X171.999 Y15.606
X171.878 Y15.477
X171.825 Y15.422
X171.693 Y15.293
X171.63 Y15.234
X171.484 Y15.104
X171.416 Y15.046
X171.254 Y14.916
X171.181 Y14.86
X171.001 Y14.729
X170.931 Y14.681
X170.734 Y14.552
X170.666 Y14.51
X170.454 Y14.384
X170.422 Y14.365
X170.604 Y14.093
X171.125 Y13.349
X171.134 Y13.336
X171.388 Y12.966
X171.412 Y12.93
X171.652 Y12.561
X171.69 Y12.5
X171.911 Y12.13
X171.956 Y12.049
X172.155 Y11.673
X172.204 Y11.574
X172.377 Y11.191
X172.42 Y11.087
X172.566 Y10.701
X172.605 Y10.587
X172.721 Y10.205
X172.753 Y10.086
X172.838 Y9.717
X172.859 Y9.614
X172.889 Y9.438
X172.9 Y9.357
X172.921 Y9.187
X172.928 Y9.122
X172.942 Y8.96
X172.948 Y8.863
X172.953 Y8.711
X172.954 Y8.627
X172.952 Y8.483
X172.947 Y8.373
X172.937 Y8.241
X172.925 Y8.128
X172.908 Y8.006
X172.888 Y7.891
X172.865 Y7.779
X172.837 Y7.664
X172.809 Y7.562
X172.763 Y7.418
X172.729 Y7.326
X172.694 Y7.237
X172.654 Y7.15
X172.574 Y6.988
X172.531 Y6.907
X172.484 Y6.827
X172.323 Y6.571
X172.317 Y6.556
X172.303 Y6.506
X172.286 Y6.429
X172.266 Y6.323
X172.246 Y6.188
X172.227 Y6.021
X172.21 Y5.822
X172.201 Y5.685
G2 X172.846 Y5.271 I-0.627 J-1.687
G1 X173.446 Y4.672
G2 X173.974 Y3.399 I-1.272 J-1.273
G1 Y1.6
G2 X173.446 Y0.327 I-1.8 J0.
G1 X172.846 Y-0.273
G2 X171.574 Y-0.8 I-1.272 J1.273
G1 X142.79
G2 X141.518 Y-0.273 I0. J1.8
G1 X140.918 Y0.327
G2 X140.395 Y1.459 I1.272 J1.273
X139.874 Y0.328 I-1.794 J0.141
G1 X139.275 Y-0.272
G2 X138.002 Y-0.8 I-1.273 J1.272
G1 X109.218
G2 X107.946 Y-0.273 I0. J1.8
G1 X107.346 Y0.327
G2 X106.818 Y1.6 I1.272 J1.273
G1 Y3.399
G2 X107.346 Y4.672 I1.8 J0.
G1 X107.946 Y5.271
G2 X108.591 Y5.685 I1.272 J-1.273
G1 X108.582 Y5.822
X108.565 Y6.021
X108.546 Y6.188
X108.526 Y6.323
X108.506 Y6.429
X108.489 Y6.506
X108.476 Y6.549
X108.47 Y6.569
X108.469 Y6.571
X108.467 Y6.574
Y6.575
X108.309 Y6.824
X108.259 Y6.909
X108.213 Y6.996
X108.134 Y7.158
X108.096 Y7.241
X108.063 Y7.326
X108.029 Y7.418
X107.987 Y7.546
X107.958 Y7.648
X107.926 Y7.779
X107.903 Y7.891
X107.881 Y8.02
X107.865 Y8.142
X107.855 Y8.241
X107.845 Y8.373
X107.84 Y8.483
X107.838 Y8.627
X107.839 Y8.711
X107.844 Y8.863
X107.849 Y8.949
X107.862 Y9.111
X107.871 Y9.198
X107.893 Y9.367
X107.903 Y9.438
X107.933 Y9.614
X107.953 Y9.712
X108.037 Y10.081
X108.07 Y10.205
X108.186 Y10.587
X108.225 Y10.701
X108.371 Y11.087
X108.416 Y11.195
X108.59 Y11.577
X108.637 Y11.673
X108.836 Y12.049
X108.881 Y12.13
X109.102 Y12.5
X109.138 Y12.558
X109.377 Y12.927
X109.405 Y12.968
X109.66 Y13.338
X109.667 Y13.349
X110.188 Y14.093
X110.37 Y14.365
X110.334 Y14.386
X110.123 Y14.511
X110.058 Y14.552
X109.861 Y14.681
X109.791 Y14.729
X109.611 Y14.86
X109.538 Y14.916
X109.376 Y15.046
X109.313 Y15.1
X109.166 Y15.23
X109.098 Y15.293
X108.966 Y15.422
X108.908 Y15.482
X108.788 Y15.611
X108.725 Y15.683
X108.507 Y15.945
X108.438 Y16.032
X108.237 Y16.306
X108.161 Y16.419
X107.975 Y16.717
X107.904 Y16.84
X107.82 Y17.002
X107.776 Y17.094
X107.699 Y17.266
X107.649 Y17.39
X107.583 Y17.572
X107.542 Y17.699
X107.488 Y17.891
X107.459 Y18.011
X107.417 Y18.213
X107.395 Y18.342
X107.367 Y18.552
X107.355 Y18.665
X107.34 Y18.881
X107.336 Y18.973
X107.332 Y19.192
X107.334 Y19.315
X107.356 Y19.753
X107.366 Y19.866
X107.414 Y20.287
X107.425 Y20.372
X107.489 Y20.765
X107.503 Y20.84
X107.579 Y21.208
X107.597 Y21.284
X107.687 Y21.64
X107.709 Y21.72
X107.818 Y22.081
X107.841 Y22.151
X107.971 Y22.525
X107.989 Y22.575
X108.135 Y22.958
X108.15 Y22.996
X108.304 Y23.373
X108.316 Y23.401
X108.468 Y23.756
X108.474 Y23.772
X108.615 Y24.093
X108.739 Y24.375
X108.85 Y24.631
X108.957 Y24.879
X108.97 Y24.909
X109.091 Y25.175
X109.11 Y25.214
X109.182 Y25.363
X109.196 Y25.391
X109.279 Y25.555
X109.299 Y25.594
X109.397 Y25.776
X109.409 Y25.798
X109.522 Y26.002
X109.539 Y26.033
X109.671 Y26.26
X109.681 Y26.277
X109.831 Y26.529
X109.843 Y26.549
X110.013 Y26.826
X110.021 Y26.838
X110.21 Y27.141
X110.215 Y27.149
X110.422 Y27.477
X110.427 Y27.486
X110.652 Y27.838
X110.657 Y27.845
X110.899 Y28.22
X110.901 Y28.224
X111.158 Y28.62
X111.159 Y28.622
X111.429 Y29.037
X111.431 Y29.04
X111.712 Y29.47
X112.001 Y29.915
X112.298 Y30.371
X112.902 Y31.306
X113.508 Y32.253
X114.1 Y33.193
X114.67 Y34.116
X114.943 Y34.563
X115.207 Y35.002
X115.464 Y35.433
X115.712 Y35.853
X115.951 Y36.261
X116.181 Y36.66
X116.404 Y37.047
X116.582 Y37.363
G2 X116.823 Y37.485 I0.212 J-0.12
G3 X117.064 Y37.607 I0.029 J0.241
G1 X117.084 Y37.643
X117.284 Y38.
X117.474 Y38.345
X117.657 Y38.681
X118.007 Y39.331
X118.33 Y39.949
X118.629 Y40.544
X118.905 Y41.125
X119.159 Y41.704
X119.394 Y42.287
X119.606 Y42.878
X119.796 Y43.482
X119.961 Y44.093
X120.102 Y44.706
X120.158 Y44.992
X120.207 Y45.274
X120.246 Y45.544
X120.277 Y45.8
X120.299 Y46.032
X120.301 Y46.06
X119.619 Y46.096
X119.609
X118.708 Y46.15
X118.697 Y46.151
X117.806 Y46.21
X117.794 Y46.211
X116.912 Y46.277
X116.899 Y46.278
X116.028 Y46.351
X116.014 Y46.352
X115.152 Y46.433
X115.137 Y46.434
X114.287 Y46.521
X114.272 Y46.523
X113.433 Y46.618
X113.417 Y46.62
X112.589 Y46.723
X112.573 Y46.725
X111.756 Y46.835
X111.741 Y46.837
X110.934 Y46.955
X110.919 Y46.957
X110.122 Y47.081
X110.108 Y47.084
X109.321 Y47.214
X109.306 Y47.216
X108.528 Y47.353
X108.514 Y47.356
X107.744 Y47.499
G2 X107.029 Y47.845 I0.274 J1.475
G1 X106.833 Y48.017
X106.804 Y48.044
X106.619 Y48.215
X106.594 Y48.238
X106.418 Y48.409
X106.389 Y48.437
X106.223 Y48.607
X106.19 Y48.642
X106.035 Y48.81
X106.008 Y48.841
X105.862 Y49.009
X105.83 Y49.047
X105.694 Y49.214
X105.658 Y49.26
X105.533 Y49.426
X105.504 Y49.467
X105.388 Y49.633
X105.355 Y49.682
X105.249 Y49.847
X105.198 Y49.933
X105.017 Y50.261
X104.954 Y50.389
X104.813 Y50.714
X104.759 Y50.858
X104.657 Y51.18
X104.651 Y51.198
X104.677 Y50.937
X104.678 Y50.921
X104.753 Y50.063
X104.755 Y50.045
X104.818 Y49.209
X104.819 Y49.194
X104.872 Y48.379
X104.873 Y48.361
X104.915 Y47.567
X104.916 Y47.548
X104.947 Y46.777
Y46.756
X104.967 Y46.006
X104.968 Y45.984
X104.977 Y45.255
Y45.236
Y44.527
Y44.503
X104.966 Y43.814
X104.965 Y43.791
X104.944 Y43.121
X104.943 Y43.096
X104.912 Y42.445
X104.911 Y42.424
X104.872 Y41.79
X104.87 Y41.766
X104.822 Y41.148
X104.821 Y41.128
X104.766 Y40.525
X104.764 Y40.504
X104.702 Y39.914
X104.7 Y39.896
X104.632 Y39.317
X104.629 Y39.296
X104.48 Y38.162
X104.478 Y38.145
X104.159 Y35.918
X104.009 Y34.798
X103.94 Y34.236
X103.877 Y33.666
X103.82 Y33.087
X103.768 Y32.496
X103.723 Y31.898
X103.686 Y31.289
X103.655 Y30.669
X103.631 Y30.045
X103.603 Y28.76
X103.599 Y27.459
X103.61 Y26.152
X103.626 Y24.863
Y24.856
X103.631 Y24.228
Y24.216
Y23.603
Y23.585
X103.624 Y22.992
X103.623 Y22.962
X103.605 Y22.391
X103.604 Y22.359
X103.575 Y21.813
X103.572 Y21.768
X103.529 Y21.25
X103.523 Y21.194
X103.464 Y20.705
X103.454 Y20.636
X103.377 Y20.179
X103.362 Y20.1
X103.267 Y19.676
X103.243 Y19.584
X103.129 Y19.192
X103.096 Y19.091
X102.963 Y18.731
X102.921 Y18.629
X102.771 Y18.3
X102.718 Y18.194
X102.551 Y17.892
X102.491 Y17.794
X102.309 Y17.518
X102.251 Y17.436
X102.058 Y17.182
X102. Y17.109
X101.797 Y16.874
X101.746 Y16.818
X101.536 Y16.598
X101.49 Y16.553
X101.337 Y16.405
G2 X100.914 Y15.506 I-1.492 J0.153
G1 X100.939 Y15.421
X100.988 Y15.29
X101.055 Y15.139
X101.137 Y14.971
X101.23 Y14.799
X101.468 Y14.402
X101.736 Y13.994
X102.027 Y13.574
X102.325 Y13.15
X102.336 Y13.135
X102.624 Y12.714
X102.652 Y12.671
X102.919 Y12.252
X102.958 Y12.187
X103.199 Y11.762
X103.242 Y11.679
X103.453 Y11.247
X103.497 Y11.148
X103.673 Y10.71
X103.704 Y10.625
X103.777 Y10.406
X103.793 Y10.356
X103.857 Y10.139
X103.872 Y10.083
X103.926 Y9.87
X103.941 Y9.806
X103.984 Y9.598
X103.996 Y9.531
X104.028 Y9.331
X104.037 Y9.266
X104.059 Y9.075
X104.066 Y8.995
X104.077 Y8.815
X104.08 Y8.732
X104.081 Y8.565
X104.078 Y8.469
X104.069 Y8.314
X104.06 Y8.211
X104.042 Y8.07
X104.024 Y7.96
X103.998 Y7.833
X103.966 Y7.705
X103.932 Y7.591
X103.891 Y7.473
X103.851 Y7.371
X103.803 Y7.26
X103.758 Y7.168
X103.696 Y7.053
X103.596 Y6.886
X103.572 Y6.847
X103.49 Y6.72
X103.483 Y6.707
X103.475 Y6.691
X103.464 Y6.663
X103.447 Y6.607
X103.425 Y6.516
X103.4 Y6.389
X103.376 Y6.223
X103.353 Y6.018
X103.334 Y5.774
X103.318 Y5.495
X103.316 Y5.465
G2 X104.063 Y5.058 I-0.314 J-1.467
G1 X104.662 Y4.459
G2 X105.101 Y3.399 I-1.061 J-1.06
G1 Y1.6
G2 X104.662 Y0.54 I-1.5 J0.
G1 X104.063 Y-0.06
G2 X103.002 Y-0.5 I-1.061 J1.06
G1 X74.218
G2 X73.157 Y-0.061 I0. J1.5
G1 X72.557 Y0.539
G2 X72.118 Y1.6 I1.061 J1.061
G1 Y3.399
G2 X72.557 Y4.459 I1.5 J0.
G1 X73.157 Y5.059
G2 X73.903 Y5.465 I1.061 J-1.061
G1 X73.896 Y5.608
X73.881 Y5.843
X73.863 Y6.049
X73.843 Y6.226
X73.821 Y6.374
X73.8 Y6.491
X73.779 Y6.58
X73.762 Y6.64
X73.75 Y6.677
X73.741 Y6.697
X73.735 Y6.71
X73.727 Y6.724
X73.562 Y6.986
X73.521 Y7.054
X73.484 Y7.125
X73.405 Y7.287
X73.372 Y7.359
X73.343 Y7.433
X73.309 Y7.526
X73.275 Y7.631
X73.246 Y7.733
X73.22 Y7.839
X73.197 Y7.951
X73.18 Y8.05
X73.163 Y8.173
X73.154 Y8.266
X73.144 Y8.399
X73.14 Y8.483
X73.138 Y8.627
Y8.706
X73.144 Y8.858
X73.148 Y8.928
X73.162 Y9.09
X73.168 Y9.157
X73.19 Y9.326
X73.199 Y9.386
X73.229 Y9.562
X73.246 Y9.647
X73.33 Y10.016
X73.357 Y10.118
X73.473 Y10.5
X73.506 Y10.595
X73.652 Y10.981
X73.689 Y11.07
X73.862 Y11.452
X73.902 Y11.532
X74.1 Y11.908
X74.138 Y11.976
X74.359 Y12.346
X74.391 Y12.397
X74.63 Y12.765
X74.652 Y12.797
X74.906 Y13.167
X74.913 Y13.177
X75.435 Y13.924
X75.675 Y14.282
X75.796 Y14.476
X75.772 Y14.489
X75.548 Y14.609
X75.491 Y14.642
X75.279 Y14.767
X75.221 Y14.803
X75.024 Y14.933
X74.966 Y14.973
X74.786 Y15.103
X74.728 Y15.148
X74.566 Y15.279
X74.508 Y15.327
X74.362 Y15.457
X74.31 Y15.506
X74.178 Y15.636
X74.131 Y15.684
X74.01 Y15.813
X73.955 Y15.875
X73.737 Y16.137
X73.679 Y16.211
X73.478 Y16.485
X73.415 Y16.578
X73.229 Y16.876
X73.173 Y16.975
X73.088 Y17.136
X73.047 Y17.221
X72.971 Y17.393
X72.931 Y17.491
X72.865 Y17.673
X72.831 Y17.778
X72.777 Y17.97
X72.751 Y18.078
X72.71 Y18.28
X72.693 Y18.381
X72.665 Y18.591
X72.655 Y18.683
X72.64 Y18.899
X72.636 Y18.981
X72.633 Y19.2
X72.634 Y19.298
X72.656 Y19.735
X72.664 Y19.833
X72.712 Y20.254
X72.722 Y20.324
X72.786 Y20.717
X72.797 Y20.779
X72.873 Y21.146
X72.888 Y21.212
X72.978 Y21.568
X72.997 Y21.634
X73.106 Y21.995
X73.124 Y22.052
X73.254 Y22.425
X73.27 Y22.469
X73.416 Y22.852
X73.428 Y22.883
X73.582 Y23.26
X73.592 Y23.282
X73.743 Y23.638
X73.749 Y23.65
X73.889 Y23.972
X73.89 Y23.974
X74.015 Y24.257
X74.125 Y24.511
X74.232 Y24.759
X74.243 Y24.783
X74.364 Y25.049
X74.379 Y25.082
X74.451 Y25.231
X74.465 Y25.259
X74.548 Y25.423
X74.562 Y25.449
X74.66 Y25.632
X74.673 Y25.656
X74.787 Y25.86
X74.798 Y25.88
X74.93 Y26.107
X74.94 Y26.125
X75.09 Y26.377
X75.098 Y26.391
X75.268 Y26.668
X75.275 Y26.679
X75.464 Y26.982
X75.469 Y26.991
X75.676 Y27.319
X75.68 Y27.325
X75.906 Y27.677
X75.909 Y27.682
X76.151 Y28.057
X76.153 Y28.06
X76.41 Y28.457
X76.411 Y28.458
X76.681 Y28.873
X76.682 Y28.875
X76.963 Y29.306
X77.253 Y29.752
X77.55 Y30.208
X78.155 Y31.143
X78.761 Y32.092
X79.354 Y33.035
X79.925 Y33.959
X80.199 Y34.407
X80.464 Y34.848
X80.722 Y35.28
X80.97 Y35.701
X81.21 Y36.111
X81.441 Y36.51
X81.664 Y36.899
X81.878 Y37.276
X82.085 Y37.643
X82.283 Y37.999
X82.474 Y38.345
X82.658 Y38.681
X83.007 Y39.33
X83.33 Y39.948
X83.629 Y40.544
X83.905 Y41.126
X84.16 Y41.704
X84.393 Y42.286
X84.606 Y42.878
X84.796 Y43.482
X84.962 Y44.093
X85.102 Y44.705
X85.158 Y44.991
X85.207 Y45.274
X85.246 Y45.545
X85.277 Y45.799
X85.298 Y46.031
X85.3 Y46.06
X84.619 Y46.096
X84.608
X83.708 Y46.15
X83.697 Y46.151
X82.806 Y46.21
X82.794 Y46.211
X81.912 Y46.277
X81.899 Y46.278
X81.027 Y46.351
X81.014 Y46.352
X80.152 Y46.433
X80.138 Y46.434
X79.287 Y46.521
X79.272 Y46.523
X78.433 Y46.618
X78.417 Y46.62
X77.589 Y46.723
X77.573 Y46.725
X76.756 Y46.835
X76.741 Y46.838
X75.934 Y46.955
X75.919 Y46.957
X75.122 Y47.081
X75.108 Y47.083
X74.321 Y47.214
X74.306 Y47.216
X73.528 Y47.353
X73.514 Y47.356
X72.745 Y47.499
G2 X72.029 Y47.846 I0.274 J1.475
G1 X71.833 Y48.018
X71.807 Y48.042
X71.621 Y48.213
X71.593 Y48.239
X71.417 Y48.41
X71.388 Y48.438
X71.223 Y48.608
X71.193 Y48.639
X71.037 Y48.808
X71.006 Y48.842
X70.86 Y49.011
X70.829 Y49.049
X70.693 Y49.216
X70.661 Y49.257
X70.535 Y49.423
X70.502 Y49.469
X70.387 Y49.635
X70.353 Y49.684
X70.248 Y49.849
X70.199 Y49.932
X70.017 Y50.26
X69.955 Y50.387
X69.813 Y50.712
X69.784 Y50.784
X69.759 Y50.858
X69.657 Y51.18
X69.651 Y51.198
X69.677 Y50.936
X69.678 Y50.921
X69.753 Y50.063
X69.754 Y50.046
X69.818 Y49.21
X69.819 Y49.193
X69.872 Y48.378
X69.873 Y48.36
X69.915 Y47.567
X69.916 Y47.548
X69.947 Y46.777
Y46.756
X69.967 Y46.006
X69.968 Y45.985
X69.977 Y45.256
X69.978 Y45.234
X69.977 Y44.525
X69.976 Y44.503
X69.965 Y43.813
Y43.791
X69.944 Y43.121
X69.943 Y43.098
X69.913 Y42.446
X69.911 Y42.423
X69.872 Y41.789
X69.87 Y41.767
X69.823 Y41.149
X69.821 Y41.127
X69.766 Y40.524
X69.764 Y40.504
X69.702 Y39.914
X69.7 Y39.896
X69.632 Y39.317
X69.629 Y39.296
X69.48 Y38.162
X69.477 Y38.145
X69.158 Y35.918
X69.009 Y34.799
X68.94 Y34.237
X68.877 Y33.666
X68.819 Y33.086
X68.768 Y32.497
X68.723 Y31.898
X68.685 Y31.288
X68.654 Y30.669
X68.631 Y30.045
X68.603 Y28.76
X68.599 Y27.459
X68.61 Y26.152
X68.626 Y24.863
Y24.856
X68.631 Y24.227
Y24.216
Y23.603
Y23.584
X68.623 Y22.991
Y22.964
X68.606 Y22.393
X68.604 Y22.358
X68.575 Y21.812
X68.572 Y21.767
X68.529 Y21.249
X68.523 Y21.194
X68.464 Y20.705
X68.454 Y20.637
X68.378 Y20.18
X68.362 Y20.1
X68.267 Y19.675
X68.244 Y19.584
X68.13 Y19.192
X68.097 Y19.092
X67.964 Y18.732
X67.921 Y18.627
X67.77 Y18.297
X67.718 Y18.194
X67.551 Y17.892
X67.492 Y17.796
X67.311 Y17.52
X67.25 Y17.434
X67.057 Y17.18
X66.999 Y17.109
X66.796 Y16.874
X66.745 Y16.818
X66.535 Y16.598
X66.491 Y16.554
X66.337 Y16.405
G2 X65.914 Y15.506 I-1.492 J0.153
G1 X65.939 Y15.421
X65.988 Y15.29
X66.055 Y15.139
X66.137 Y14.971
X66.23 Y14.799
X66.468 Y14.401
X66.736 Y13.994
X67.027 Y13.574
X67.325 Y13.15
X67.336 Y13.134
X67.624 Y12.713
X67.651 Y12.672
X67.918 Y12.252
X67.957 Y12.187
X68.198 Y11.763
X68.243 Y11.678
X68.453 Y11.245
X68.497 Y11.148
X68.673 Y10.709
X68.702 Y10.63
X68.776 Y10.411
X68.793 Y10.355
X68.857 Y10.138
X68.873 Y10.081
X68.927 Y9.867
X68.941 Y9.806
X68.984 Y9.598
X68.996 Y9.534
X69.028 Y9.334
X69.038 Y9.264
X69.059 Y9.074
X69.066 Y8.996
X69.077 Y8.816
X69.08 Y8.732
X69.081 Y8.564
X69.079 Y8.471
X69.07 Y8.316
X69.06 Y8.211
X69.042 Y8.07
X69.023 Y7.957
X68.997 Y7.83
X68.967 Y7.71
X68.933 Y7.596
X68.892 Y7.473
X68.852 Y7.371
X68.803 Y7.26
X68.758 Y7.168
X68.693 Y7.048
X68.593 Y6.881
X68.574 Y6.851
X68.491 Y6.72
X68.483 Y6.708
X68.476 Y6.692
X68.465 Y6.662
X68.447 Y6.606
X68.425 Y6.516
X68.4 Y6.388
X68.376 Y6.222
X68.353 Y6.017
X68.333 Y5.774
X68.317 Y5.494
X68.316 Y5.465
G2 X69.062 Y5.059 I-0.315 J-1.467
G1 X69.662 Y4.459
G2 X70.101 Y3.399 I-1.061 J-1.061
G1 Y1.6
G2 X69.662 Y0.539 I-1.5 J0.
G1 X69.062 Y-0.061
G2 X68.002 Y-0.5 I-1.061 J1.061
G1 X39.218
G2 X38.157 Y-0.061 I0. J1.5
G1 X37.557 Y0.539
G2 X37.118 Y1.6 I1.061 J1.061
G1 Y3.399
G2 X37.557 Y4.459 I1.5 J0.
G1 X38.157 Y5.059
G2 X38.903 Y5.465 I1.061 J-1.061
G1 X38.896 Y5.608
X38.881 Y5.843
X38.863 Y6.049
X38.843 Y6.226
X38.821 Y6.374
X38.8 Y6.491
X38.779 Y6.58
X38.762 Y6.64
X38.75 Y6.677
X38.741 Y6.697
X38.735 Y6.71
X38.727 Y6.724
X38.562 Y6.986
X38.521 Y7.054
X38.484 Y7.125
X38.405 Y7.287
X38.372 Y7.359
X38.343 Y7.433
X38.309 Y7.526
X38.275 Y7.631
X38.246 Y7.733
X38.22 Y7.839
X38.197 Y7.951
X38.18 Y8.05
X38.163 Y8.173
X38.154 Y8.266
X38.144 Y8.399
X38.14 Y8.483
X38.138 Y8.627
Y8.706
X38.144 Y8.858
X38.148 Y8.928
X38.162 Y9.09
X38.168 Y9.157
X38.19 Y9.326
X38.199 Y9.386
X38.229 Y9.562
X38.246 Y9.647
X38.33 Y10.016
X38.357 Y10.118
X38.473 Y10.5
X38.506 Y10.595
X38.652 Y10.981
X38.689 Y11.07
X38.862 Y11.452
X38.902 Y11.532
X39.1 Y11.908
X39.138 Y11.976
X39.359 Y12.346
X39.391 Y12.397
X39.63 Y12.765
X39.652 Y12.797
X39.906 Y13.167
X39.913 Y13.177
X40.435 Y13.924
X40.675 Y14.282
X40.796 Y14.476
X40.772 Y14.489
X40.547 Y14.609
X40.491 Y14.642
X40.279 Y14.767
X40.221 Y14.803
X40.024 Y14.933
X39.966 Y14.973
X39.786 Y15.103
X39.728 Y15.148
X39.566 Y15.279
X39.508 Y15.327
X39.362 Y15.457
X39.31 Y15.506
X39.178 Y15.636
X39.131 Y15.684
X39.01 Y15.813
X38.955 Y15.875
X38.737 Y16.137
X38.679 Y16.211
X38.478 Y16.485
X38.415 Y16.578
X38.229 Y16.876
X38.173 Y16.975
X38.088 Y17.136
X38.047 Y17.221
X37.971 Y17.393
X37.931 Y17.491
X37.865 Y17.673
X37.831 Y17.778
X37.777 Y17.97
X37.751 Y18.078
X37.71 Y18.28
X37.693 Y18.381
X37.665 Y18.591
X37.655 Y18.683
X37.64 Y18.899
X37.636 Y18.981
X37.633 Y19.2
X37.634 Y19.298
X37.656 Y19.735
X37.664 Y19.833
X37.712 Y20.254
X37.722 Y20.324
X37.786 Y20.717
X37.797 Y20.779
X37.873 Y21.146
X37.888 Y21.212
X37.978 Y21.568
X37.997 Y21.634
X38.106 Y21.995
X38.124 Y22.052
X38.254 Y22.425
X38.27 Y22.469
X38.416 Y22.852
X38.428 Y22.883
X38.582 Y23.26
X38.592 Y23.282
X38.743 Y23.638
X38.749 Y23.65
X38.889 Y23.972
X38.89 Y23.974
X39.015 Y24.257
X39.125 Y24.511
X39.232 Y24.759
X39.243 Y24.783
X39.364 Y25.049
X39.379 Y25.082
X39.451 Y25.231
X39.465 Y25.259
X39.548 Y25.423
X39.562 Y25.449
X39.66 Y25.632
X39.673 Y25.656
X39.787 Y25.86
X39.798 Y25.88
X39.93 Y26.107
X39.94 Y26.125
X40.09 Y26.377
X40.098 Y26.391
X40.268 Y26.668
X40.275 Y26.679
X40.464 Y26.982
X40.469 Y26.991
X40.676 Y27.319
X40.68 Y27.325
X40.906 Y27.677
X40.909 Y27.682
X41.151 Y28.057
X41.153 Y28.06
X41.41 Y28.457
X41.411 Y28.458
X41.681 Y28.873
X41.682 Y28.875
X41.963 Y29.306
X42.253 Y29.752
X42.55 Y30.208
X43.155 Y31.143
X43.761 Y32.092
X44.354 Y33.035
X44.925 Y33.959
X45.199 Y34.407
X45.464 Y34.848
X45.722 Y35.28
X45.97 Y35.701
X46.21 Y36.111
X46.441 Y36.51
X46.664 Y36.899
X46.878 Y37.276
X47.085 Y37.643
X47.283 Y37.999
X47.474 Y38.345
X47.658 Y38.681
X48.007 Y39.33
X48.33 Y39.948
X48.629 Y40.544
X48.905 Y41.126
X49.16 Y41.704
X49.393 Y42.286
X49.606 Y42.878
X49.796 Y43.482
X49.962 Y44.093
X50.102 Y44.705
X50.158 Y44.991
X50.207 Y45.274
X50.246 Y45.545
X50.277 Y45.799
X50.298 Y46.031
X50.3 Y46.06
X49.619 Y46.096
X49.608
X48.708 Y46.15
X48.697 Y46.151
X47.806 Y46.21
X47.794 Y46.211
X46.912 Y46.277
X46.899 Y46.278
X46.027 Y46.351
X46.014 Y46.352
X45.152 Y46.433
X45.138 Y46.434
X44.287 Y46.521
X44.272 Y46.523
X43.433 Y46.618
X43.417 Y46.62
X42.589 Y46.723
X42.573 Y46.725
X41.756 Y46.835
X41.741 Y46.838
X40.934 Y46.955
X40.919 Y46.957
X40.122 Y47.081
X40.108 Y47.083
X39.321 Y47.214
X39.306 Y47.216
X38.528 Y47.353
X38.514 Y47.356
X37.745 Y47.499
G2 X37.029 Y47.846 I0.274 J1.475
G1 X36.833 Y48.018
X36.807 Y48.042
X36.621 Y48.213
X36.593 Y48.239
X36.417 Y48.41
X36.388 Y48.438
X36.223 Y48.608
X36.193 Y48.639
X36.037 Y48.808
X36.006 Y48.842
X35.86 Y49.011
X35.829 Y49.049
X35.693 Y49.216
X35.661 Y49.257
X35.535 Y49.423
X35.502 Y49.469
X35.387 Y49.635
X35.353 Y49.684
X35.248 Y49.849
X35.199 Y49.932
X35.017 Y50.26
X34.955 Y50.387
X34.813 Y50.712
X34.784 Y50.784
X34.759 Y50.858
X34.657 Y51.18
X34.651 Y51.198
X34.677 Y50.936
X34.678 Y50.921
X34.753 Y50.063
X34.754 Y50.046
X34.818 Y49.21
X34.819 Y49.193
X34.872 Y48.378
X34.873 Y48.36
X34.915 Y47.567
X34.916 Y47.548
X34.947 Y46.777
Y46.756
X34.967 Y46.006
X34.968 Y45.985
X34.977 Y45.256
Y45.234
Y44.525
X34.976 Y44.503
X34.965 Y43.813
Y43.791
X34.944 Y43.121
X34.943 Y43.098
X34.913 Y42.446
X34.911 Y42.423
X34.872 Y41.789
X34.87 Y41.767
X34.823 Y41.149
X34.821 Y41.127
X34.766 Y40.524
X34.764 Y40.504
X34.702 Y39.914
X34.7 Y39.896
X34.632 Y39.317
X34.629 Y39.296
X34.48 Y38.162
X34.477 Y38.145
X34.158 Y35.918
X34.009 Y34.799
X33.94 Y34.237
X33.877 Y33.666
X33.819 Y33.086
X33.768 Y32.497
X33.723 Y31.898
X33.685 Y31.288
X33.654 Y30.669
X33.631 Y30.045
X33.603 Y28.76
X33.599 Y27.459
X33.61 Y26.152
X33.626 Y24.863
Y24.856
X33.631 Y24.227
Y24.216
Y23.603
Y23.584
X33.623 Y22.991
Y22.964
X33.606 Y22.393
X33.604 Y22.358
X33.575 Y21.812
X33.572 Y21.767
X33.529 Y21.249
X33.523 Y21.194
X33.464 Y20.705
X33.454 Y20.637
X33.378 Y20.18
X33.362 Y20.1
X33.267 Y19.675
X33.244 Y19.584
X33.13 Y19.192
X33.097 Y19.092
X32.964 Y18.732
X32.921 Y18.627
X32.77 Y18.297
X32.718 Y18.194
X32.551 Y17.892
X32.492 Y17.796
X32.311 Y17.52
X32.25 Y17.434
X32.057 Y17.18
X31.999 Y17.109
X31.796 Y16.874
X31.745 Y16.818
X31.535 Y16.598
X31.491 Y16.554
X31.337 Y16.405
G2 X30.914 Y15.506 I-1.492 J0.153
G1 X30.939 Y15.421
X30.988 Y15.29
X31.055 Y15.139
X31.137 Y14.971
X31.23 Y14.799
X31.468 Y14.401
X31.736 Y13.994
X32.027 Y13.574
X32.325 Y13.15
X32.336 Y13.134
X32.624 Y12.713
X32.651 Y12.672
X32.918 Y12.252
X32.957 Y12.187
X33.198 Y11.763
X33.243 Y11.678
X33.453 Y11.245
X33.497 Y11.148
X33.673 Y10.709
X33.702 Y10.63
X33.776 Y10.411
X33.793 Y10.355
X33.857 Y10.138
X33.873 Y10.081
X33.927 Y9.867
X33.941 Y9.806
X33.984 Y9.598
X33.996 Y9.534
X34.028 Y9.334
X34.038 Y9.264
X34.059 Y9.074
X34.066 Y8.996
X34.077 Y8.816
X34.08 Y8.732
X34.081 Y8.564
X34.079 Y8.471
X34.07 Y8.316
X34.06 Y8.211
X34.042 Y8.07
X34.023 Y7.957
X33.997 Y7.83
X33.967 Y7.71
X33.933 Y7.596
X33.892 Y7.473
X33.852 Y7.371
X33.803 Y7.26
X33.758 Y7.168
X33.693 Y7.048
X33.593 Y6.881
X33.574 Y6.851
X33.491 Y6.72
X33.483 Y6.708
X33.476 Y6.692
X33.465 Y6.662
X33.447 Y6.606
X33.425 Y6.516
X33.4 Y6.388
X33.376 Y6.222
X33.353 Y6.017
X33.333 Y5.774
X33.317 Y5.494
X33.316 Y5.465
G2 X34.062 Y5.059 I-0.315 J-1.467
G1 X34.662 Y4.459
G2 X35.101 Y3.399 I-1.061 J-1.061
G1 Y1.6
G2 X34.662 Y0.539 I-1.5 J0.
G1 X34.062 Y-0.061
G2 X33.002 Y-0.5 I-1.061 J1.061
G1 X4.218
G2 X3.157 Y-0.061 I0. J1.5
G1 X2.557 Y0.539
G2 X2.118 Y1.6 I1.061 J1.061
G1 Y3.399
G2 X2.557 Y4.459 I1.5 J0.
G1 X3.157 Y5.059
G2 X3.903 Y5.465 I1.061 J-1.061
G1 X3.896 Y5.608
X3.881 Y5.843
X3.863 Y6.049
X3.843 Y6.226
X3.821 Y6.374
X3.8 Y6.491
X3.78 Y6.58
X3.762 Y6.64
X3.75 Y6.677
X3.741 Y6.697
X3.735 Y6.71
X3.727 Y6.724
X3.562 Y6.986
X3.521 Y7.054
X3.485 Y7.125
X3.405 Y7.287
X3.372 Y7.359
X3.343 Y7.433
X3.309 Y7.525
X3.275 Y7.632
X3.246 Y7.734
X3.22 Y7.839
X3.197 Y7.951
X3.18 Y8.051
X3.163 Y8.173
X3.154 Y8.266
X3.144 Y8.399
X3.14 Y8.484
X3.138 Y8.627
Y8.705
X3.144 Y8.858
X3.148 Y8.929
X3.162 Y9.091
X3.168 Y9.156
X3.19 Y9.326
X3.199 Y9.386
X3.229 Y9.563
X3.246 Y9.647
X3.33 Y10.016
X3.357 Y10.118
X3.473 Y10.5
X3.506 Y10.595
X3.652 Y10.981
X3.689 Y11.07
X3.862 Y11.452
X3.902 Y11.532
X4.1 Y11.908
X4.138 Y11.976
X4.359 Y12.346
X4.391 Y12.397
X4.63 Y12.765
X4.652 Y12.797
X4.906 Y13.167
X4.913 Y13.177
X5.435 Y13.924
X5.675 Y14.283
X5.796 Y14.476
X5.772 Y14.489
X5.547 Y14.609
X5.491 Y14.642
X5.279 Y14.768
X5.221 Y14.803
X5.024 Y14.933
X4.966 Y14.973
X4.786 Y15.104
X4.728 Y15.148
X4.566 Y15.279
X4.509 Y15.327
X4.362 Y15.457
X4.309 Y15.506
X4.177 Y15.636
X4.131 Y15.683
X4.01 Y15.813
X3.955 Y15.876
X3.737 Y16.137
X3.678 Y16.211
X3.478 Y16.485
X3.416 Y16.577
X3.229 Y16.876
X3.173 Y16.975
X3.088 Y17.136
X3.047 Y17.221
X2.971 Y17.393
X2.931 Y17.491
X2.865 Y17.673
X2.831 Y17.778
X2.777 Y17.97
X2.751 Y18.077
X2.71 Y18.279
X2.693 Y18.381
X2.665 Y18.591
X2.655 Y18.684
X2.64 Y18.899
X2.636 Y18.98
X2.633 Y19.199
X2.634 Y19.298
X2.656 Y19.735
X2.664 Y19.833
X2.712 Y20.253
X2.721 Y20.324
X2.785 Y20.717
X2.797 Y20.779
X2.873 Y21.147
X2.888 Y21.212
X2.978 Y21.568
X2.997 Y21.634
X3.106 Y21.995
X3.124 Y22.052
X3.254 Y22.425
X3.27 Y22.469
X3.416 Y22.851
X3.428 Y22.883
X3.582 Y23.26
X3.592 Y23.282
X3.743 Y23.638
X3.749 Y23.65
X3.89 Y23.972
Y23.974
X4.015 Y24.257
X4.125 Y24.511
X4.232 Y24.759
X4.243 Y24.783
X4.364 Y25.049
X4.379 Y25.083
X4.451 Y25.232
X4.465 Y25.259
X4.548 Y25.423
X4.562 Y25.449
X4.66 Y25.632
X4.673 Y25.656
X4.786 Y25.86
X4.798 Y25.88
X4.93 Y26.108
X4.94 Y26.125
X5.09 Y26.377
X5.098 Y26.39
X5.268 Y26.668
X5.275 Y26.679
X5.464 Y26.982
X5.469 Y26.99
X5.676 Y27.319
X5.68 Y27.325
X5.906 Y27.677
X5.909 Y27.682
X6.151 Y28.057
X6.153 Y28.06
X6.41 Y28.456
X6.411 Y28.458
X6.681 Y28.873
Y28.874
X6.963 Y29.306
X7.253 Y29.752
X7.55 Y30.208
X8.155 Y31.143
X8.761 Y32.092
X9.354 Y33.035
X9.925 Y33.959
X10.199 Y34.407
X10.464 Y34.848
X10.722 Y35.28
X10.97 Y35.701
X11.21 Y36.111
X11.441 Y36.51
X11.664 Y36.899
X11.878 Y37.276
X12.085 Y37.643
X12.283 Y37.999
X12.474 Y38.345
X12.658 Y38.681
X13.007 Y39.33
X13.33 Y39.948
X13.629 Y40.544
X13.905 Y41.126
X14.16 Y41.704
X14.393 Y42.286
X14.606 Y42.878
X14.796 Y43.482
X14.962 Y44.093
X15.102 Y44.705
X15.158 Y44.991
X15.207 Y45.274
X15.246 Y45.545
X15.277 Y45.799
X15.298 Y46.031
X15.3 Y46.06
X14.619 Y46.096
X14.608
X13.708 Y46.15
X13.697 Y46.151
X12.806 Y46.21
X12.794 Y46.211
X11.912 Y46.277
X11.899 Y46.278
X11.027 Y46.351
X11.014 Y46.352
X10.152 Y46.433
X10.138 Y46.434
X9.287 Y46.521
X9.272 Y46.523
X8.433 Y46.618
X8.417 Y46.62
X7.589 Y46.723
X7.573 Y46.725
X6.756 Y46.835
X6.741 Y46.838
X5.934 Y46.955
X5.919 Y46.957
X5.122 Y47.081
X5.108 Y47.083
X4.32 Y47.214
X4.306 Y47.216
X3.528 Y47.353
X3.514 Y47.356
X2.745 Y47.499
G2 X2.029 Y47.846 I0.274 J1.475
G1 X1.833 Y48.018
X1.807 Y48.042
X1.621 Y48.213
X1.593 Y48.239
X1.417 Y48.409
X1.388 Y48.438
X1.223 Y48.607
X1.193 Y48.639
X1.037 Y48.808
X1.006 Y48.843
X0.86 Y49.011
X0.829 Y49.048
X0.693 Y49.216
X0.661 Y49.257
X0.535 Y49.423
X0.502 Y49.469
X0.387 Y49.635
X0.353 Y49.684
X0.248 Y49.849
X0.199 Y49.932
X0.017 Y50.26
X-0.045 Y50.387
X-0.187 Y50.712
X-0.216 Y50.784
X-0.241 Y50.858
X-0.343 Y51.18
X-0.366 Y51.261
X-0.385 Y51.344
X-0.448 Y51.663
X-0.462 Y51.751
X-0.472 Y51.839
X-0.495 Y52.155
X-0.5 Y52.246
X-0.498 Y52.337
X-0.484 Y52.65
X-0.477 Y52.74
X-0.465 Y52.829
X-0.413 Y53.14
X-0.397 Y53.224
X-0.375 Y53.307
X-0.287 Y53.615
X-0.263 Y53.691
X-0.235 Y53.765
X-0.111 Y54.071
X-0.051 Y54.202
X0.108 Y54.505
X0.171 Y54.616
X0.363 Y54.917
X0.426 Y55.008
X0.648 Y55.308
X0.708 Y55.382
X0.96 Y55.68
X1.014 Y55.74
X1.294 Y56.036
X1.341 Y56.084
X1.646 Y56.38
X1.687 Y56.418
X2.015 Y56.712
X2.05 Y56.742
X2.398 Y57.035
X2.426 Y57.059
X2.791 Y57.352
X2.813 Y57.37
X3.193 Y57.662
X3.216 Y57.68
X4.006 Y58.266
X4.02 Y58.276
X4.83 Y58.863
X5.628 Y59.445
X6.392 Y60.023
X6.746 Y60.303
X7.087 Y60.584
X7.409 Y60.861
X7.711 Y61.134
X7.991 Y61.403
X8.249 Y61.667
X8.485 Y61.925
X8.698 Y62.177
X8.889 Y62.422
X9.06 Y62.661
X9.212 Y62.893
X9.347 Y63.119
X9.467 Y63.339
X9.574 Y63.553
X9.669 Y63.763
X9.757 Y63.969
X9.839 Y64.175
X9.918 Y64.381
X9.995 Y64.583
X10.002 Y64.601
X10.077 Y64.789
X10.094 Y64.83
X10.169 Y65.003
X10.201 Y65.072
X10.279 Y65.23
X10.331 Y65.326
X10.415 Y65.469
X10.494 Y65.59
X10.587 Y65.719
X10.64 Y65.787
X10.696 Y65.852
X10.802 Y65.967
X10.868 Y66.035
X10.938 Y66.098
X11.058 Y66.2
X11.132 Y66.258
X11.209 Y66.312
X11.347 Y66.402
X11.418 Y66.446
X11.493 Y66.486
X11.649 Y66.564
X11.782 Y66.623
X11.959 Y66.692
X12.07 Y66.729
X12.268 Y66.789
X12.358 Y66.813
X12.578 Y66.864
X12.649 Y66.879
X12.889 Y66.923
X12.946 Y66.932
X13.205 Y66.969
X13.251 Y66.975
X13.525 Y67.005
X13.581 Y67.011
X14.16 Y67.053
X14.222 Y67.057
X14.812 Y67.076
X14.855 Y67.077
X15.143 Y67.078
X15.17
X15.447 Y67.074
X15.475 Y67.073
X15.736 Y67.064
X15.764 Y67.063
X16.007 Y67.051
X16.033 Y67.049
X16.226 Y67.036
X16.233 Y67.124
X16.241 Y67.45
X16.232 Y67.829
X16.217 Y68.257
X16.216 Y68.292
X16.21 Y68.732
X16.211 Y68.819
X16.231 Y69.253
X16.238 Y69.35
X16.261 Y69.56
X16.272 Y69.642
X16.306 Y69.845
X16.325 Y69.94
X16.37 Y70.135
X16.4 Y70.242
X16.457 Y70.427
X16.5 Y70.547
X16.571 Y70.719
X16.631 Y70.849
X16.715 Y71.008
X16.753 Y71.077
X16.795 Y71.144
X16.891 Y71.287
X16.941 Y71.357
X16.994 Y71.423
X17.102 Y71.55
X17.161 Y71.616
X17.224 Y71.678
X17.343 Y71.789
X17.411 Y71.849
X17.483 Y71.905
X17.612 Y71.998
X17.685 Y72.048
X17.76 Y72.093
X17.897 Y72.17
X17.973 Y72.21
X18.051 Y72.245
X18.194 Y72.305
X18.269 Y72.334
X18.345 Y72.359
X18.492 Y72.403
X18.64 Y72.439
X18.791 Y72.467
X18.933 Y72.488
X19.084 Y72.501
X19.222 Y72.508
X19.372
X19.507 Y72.502
X19.654 Y72.488
X19.785 Y72.471
X19.929 Y72.445
X20.061 Y72.414
X20.2 Y72.376
X20.33 Y72.334
X20.463 Y72.284
X20.59 Y72.229
X20.718 Y72.167
X20.84 Y72.101
X20.961 Y72.027
X21.076 Y71.95
X21.191 Y71.865
X21.294 Y71.781
X21.403 Y71.684
X21.484 Y71.608
X22.128 Y70.946
X22.134 Y70.939
X22.765 Y70.283
X22.772 Y70.276
X23.389 Y69.625
X23.396 Y69.617
X24.001 Y68.971
X24.008 Y68.963
X24.599 Y68.323
X24.607 Y68.314
X25.184 Y67.679
X25.192 Y67.671
X25.755 Y67.041
X25.763 Y67.032
X26.312 Y66.408
X26.32 Y66.398
X26.854 Y65.78
X26.863 Y65.769
