(Konge V2 Alle brikker)
(Hvis test-konge var lakker sa laver den her resten af brikkerne)
(Machine)
(  vendor: Autodesk)
(  model: Generic 3-axis)
(  description: This machine has XYZ axis on the Head)
(T2  D=3. CR=0. - ZMIN=-15.986 - flat end mill)
G90

(2D Contour7)
T2 M6 (flat end mill D=3.)
S15000 M3
G64
G54
G43 H2
G0 Z30.
G0 X9.244 Y-1.64
Z15.
Z5.
G1 Z1. F133.3
Z-15.437
X9.236 Y-1.642 Z-15.503 F400
X9.215 Y-1.646 Z-15.567
X9.179 Y-1.654 Z-15.624
X9.133 Y-1.663 Z-15.671
X9.077 Y-1.675 Z-15.707
X9.015 Y-1.687 Z-15.729
X8.95 Y-1.701 Z-15.736
X8.656 Y-1.761
G3 X8.422 Y-2.115 I0.06 J-0.294
G1 X8.569 Y-2.834
X8.735 Y-3.606
X8.906 Y-4.366
X9.082 Y-5.113
X9.263 Y-5.847
X9.45 Y-6.568
X9.642 Y-7.276
X9.84 Y-7.97
X10.043 Y-8.651
X10.252 Y-9.319
X10.467 Y-9.975
X10.687 Y-10.617
X10.912 Y-11.248
X11.143 Y-11.867
X11.379 Y-12.474
X11.62 Y-13.07
X11.866 Y-13.654
X12.116 Y-14.228
X12.372 Y-14.791
X12.631 Y-15.344
X12.896 Y-15.885
X13.171 Y-16.428
G2 X13.274 Y-17.806 I-1.606 J-0.813
X12.37 Y-18.851 I-1.709 J0.565
G1 X11.855 Y-19.109
X11.999 Y-19.34
X12.029 Y-19.39
X12.409 Y-20.047
X12.437 Y-20.098
X12.793 Y-20.761
X12.82 Y-20.814
X13.15 Y-21.482
X13.176 Y-21.538
X13.48 Y-22.211
X13.505 Y-22.268
X13.783 Y-22.945
X13.806 Y-23.005
X14.057 Y-23.685
X14.078 Y-23.745
X14.303 Y-24.426
X14.322 Y-24.489
X14.518 Y-25.169
X14.536 Y-25.233
X14.704 Y-25.908
X14.719 Y-25.974
X14.86 Y-26.641
X14.872 Y-26.708
X14.984 Y-27.362
X14.995 Y-27.432
X15.078 Y-28.067
X15.086 Y-28.141
X15.14 Y-28.751
X15.144 Y-28.809
X15.161 Y-29.103
X15.163 Y-29.144
X15.173 Y-29.43
X15.174 Y-29.473
X15.176 Y-29.75
Y-29.795
X15.172 Y-30.063
X15.171 Y-30.109
X15.161 Y-30.367
X15.158 Y-30.417
X15.141 Y-30.664
X15.136 Y-30.716
X15.113 Y-30.953
X15.107 Y-31.009
X15.078 Y-31.235
X15.069 Y-31.292
X15.035 Y-31.507
X15.024 Y-31.567
X14.983 Y-31.773
X14.971 Y-31.833
X14.925 Y-32.029
X14.91 Y-32.088
X14.86 Y-32.275
X14.835 Y-32.36
X14.723 Y-32.711
X14.689 Y-32.806
X14.563 Y-33.133
X14.53 Y-33.213
X14.254 Y-33.84
X14.251 Y-33.846
X14.117 Y-34.149
X13.994 Y-34.442
X13.878 Y-34.747
X13.765 Y-35.077
X13.656 Y-35.441
X13.55 Y-35.843
X13.448 Y-36.286
X13.382 Y-36.613
Y-37.498
X13.591 Y-37.632
X14.264
G2 X15.537 Y-38.159 I0. J-1.8
G1 X16.129 Y-38.751
G2 X16.656 Y-40.023 I-1.273 J-1.273
G1 Y-41.801
G2 X16.129 Y-43.074 I-1.8 J0.
G1 X15.512 Y-43.691
G2 X14.239 Y-44.218 I-1.273 J1.273
G1 X-14.5
G2 X-15.772 Y-43.691 I0. J1.8
G1 X-16.389 Y-43.074
G2 X-16.917 Y-41.801 I1.273 J1.273
G1 Y-40.023
G2 X-16.39 Y-38.751 I1.8 J0.
G1 X-15.798 Y-38.159
G2 X-14.525 Y-37.632 I1.273 J-1.273
G1 X-13.851
X-13.643 Y-37.498
Y-36.613
X-13.709 Y-36.286
X-13.811 Y-35.843
X-13.917 Y-35.441
X-14.026 Y-35.077
X-14.138 Y-34.747
X-14.255 Y-34.442
X-14.377 Y-34.149
X-14.512 Y-33.846
X-14.515 Y-33.84
X-14.791 Y-33.213
X-14.824 Y-33.133
X-14.95 Y-32.806
X-14.983 Y-32.711
X-15.096 Y-32.36
X-15.121 Y-32.275
X-15.171 Y-32.088
X-15.186 Y-32.029
X-15.231 Y-31.833
X-15.244 Y-31.773
X-15.285 Y-31.567
X-15.295 Y-31.507
X-15.33 Y-31.292
X-15.338 Y-31.235
X-15.368 Y-31.009
X-15.374 Y-30.953
X-15.397 Y-30.716
X-15.401 Y-30.664
X-15.418 Y-30.417
X-15.421 Y-30.367
X-15.432 Y-30.109
X-15.433 Y-30.063
X-15.437 Y-29.795
Y-29.75
X-15.434 Y-29.473
X-15.433 Y-29.43
X-15.424 Y-29.144
X-15.422 Y-29.104
X-15.405 Y-28.81
X-15.401 Y-28.751
X-15.346 Y-28.141
X-15.338 Y-28.067
X-15.255 Y-27.432
X-15.245 Y-27.362
X-15.133 Y-26.708
X-15.12 Y-26.641
X-14.98 Y-25.974
X-14.965 Y-25.908
X-14.796 Y-25.233
X-14.779 Y-25.169
X-14.583 Y-24.489
X-14.563 Y-24.426
X-14.339 Y-23.745
X-14.318 Y-23.685
X-14.067 Y-23.005
X-14.043 Y-22.945
X-13.766 Y-22.268
X-13.741 Y-22.211
X-13.437 Y-21.538
X-13.411 Y-21.482
X-13.081 Y-20.814
X-13.053 Y-20.761
X-12.698 Y-20.098
X-12.669 Y-20.047
X-12.289 Y-19.39
X-12.26 Y-19.341
X-12.115 Y-19.109
X-12.63 Y-18.851
G2 X-13.534 Y-17.806 I0.805 J1.61
X-13.431 Y-16.428 I1.709 J0.565
G1 X-13.157 Y-15.885
X-12.892 Y-15.344
X-12.632 Y-14.791
X-12.377 Y-14.228
X-12.126 Y-13.654
X-11.88 Y-13.07
X-11.639 Y-12.474
X-11.404 Y-11.867
X-11.173 Y-11.248
X-10.948 Y-10.617
X-10.728 Y-9.975
X-10.513 Y-9.319
X-10.304 Y-8.651
X-10.101 Y-7.97
X-9.903 Y-7.276
X-9.711 Y-6.568
X-9.524 Y-5.847
X-9.343 Y-5.113
X-9.167 Y-4.366
X-8.996 Y-3.606
X-8.83 Y-2.834
X-8.67 Y-2.05
X-8.514 Y-1.254
X-8.363 Y-0.447
X-8.216 Y0.371
X-8.074 Y1.2
X-7.937 Y2.038
X-7.804 Y2.887
X-7.675 Y3.746
X-7.551 Y4.611
X-7.46 Y5.289
X-9.495 Y6.68
X-11.526
G2 X-12.945 Y7.374 I0. J1.8
G1 X-12.993 Y7.435
X-13.033 Y7.483
X-13.092 Y7.549
X-13.172 Y7.635
X-13.386 Y7.861
X-13.422 Y7.9
X-13.659 Y8.164
X-13.737 Y8.258
X-13.85 Y8.403
X-13.932 Y8.517
X-14.035 Y8.671
X-14.084 Y8.751
X-14.13 Y8.834
X-14.216 Y8.998
X-14.267 Y9.106
X-14.311 Y9.217
X-14.375 Y9.392
G2 X-14.448 Y9.658 I1.693 J0.612
G1 X-14.484 Y9.843
G2 X-14.517 Y10.136 I1.767 J0.345
G1 X-14.523 Y10.332
G2 X-14.509 Y10.616 I1.799 J0.052
G1 X-14.482 Y10.821
G2 X-14.432 Y11.068 I1.785 J-0.232
G1 X-14.373 Y11.282
X-14.342 Y11.382
X-14.305 Y11.481
X-14.216 Y11.701
X-14.145 Y11.854
X-14.028 Y12.079
X-13.963 Y12.194
X-13.822 Y12.422
X-13.766 Y12.507
X-13.606 Y12.735
X-13.543 Y12.82
X-13.188 Y13.269
X-13.134 Y13.334
X-12.763 Y13.76
X-12.742 Y13.784
X-12.562 Y13.984
X-12.555 Y13.992
X-12.381 Y14.182
X-12.378 Y14.185
X-12.214 Y14.364
X-12.062 Y14.53
X-11.924 Y14.682
X-11.799 Y14.82
X-11.689 Y14.944
X-11.586 Y15.062
G2 X-10.232 Y15.675 I1.354 J-1.186
G1 X-9.025
X-8.433 Y16.137
X-9.905 Y18.345
G2 X-10.09 Y18.706 I1.498 J0.998
G1 X-10.482 Y19.741
X-10.899 Y20.767
X-11.338 Y21.818
X-11.347 Y21.841
X-11.563 Y22.379
X-11.58 Y22.423
X-11.783 Y22.97
X-11.807 Y23.04
X-11.989 Y23.601
X-12.017 Y23.696
X-12.17 Y24.272
X-12.19 Y24.356
X-12.253 Y24.65
X-12.265 Y24.711
X-12.319 Y25.009
X-12.329 Y25.075
X-12.371 Y25.375
X-12.379 Y25.443
X-12.41 Y25.746
X-12.416 Y25.814
X-12.436 Y26.119
X-12.439 Y26.189
X-12.446 Y26.493
X-12.447 Y26.563
X-12.443 Y26.866
X-12.44 Y26.938
X-12.424 Y27.237
X-12.419 Y27.31
X-12.391 Y27.605
X-12.382 Y27.681
X-12.342 Y27.969
X-12.33 Y28.048
X-12.278 Y28.329
X-12.261 Y28.413
X-12.198 Y28.683
X-12.175 Y28.773
X-12.1 Y29.033
X-12.069 Y29.129
X-11.983 Y29.377
X-11.943 Y29.481
X-11.844 Y29.717
X-11.792 Y29.828
X-11.68 Y30.051
X-11.617 Y30.166
X-11.491 Y30.376
X-11.415 Y30.493
X-11.275 Y30.691
X-11.187 Y30.805
X-11.032 Y30.991
X-10.936 Y31.096
X-10.764 Y31.272
X-10.665 Y31.366
X-10.475 Y31.532
X-10.377 Y31.612
X-10.169 Y31.77
X-10.077 Y31.835
X-9.851 Y31.986
X-9.766 Y32.039
X-9.521 Y32.183
X-9.447 Y32.224
X-9.183 Y32.363
X-9.118 Y32.395
X-8.836 Y32.529
X-8.78 Y32.554
X-8.48 Y32.684
X-8.432 Y32.705
X-8.116 Y32.831
X-8.075 Y32.847
X-7.744 Y32.97
X-7.707 Y32.983
X-7.363 Y33.103
X-7.318 Y33.118
X-6.598 Y33.346
X-6.546 Y33.362
X-5.801 Y33.575
X-5.755 Y33.587
X-5.002 Y33.78
X-4.957 Y33.791
X-4.215 Y33.961
X-4.179 Y33.969
X-3.817 Y34.044
X-3.792 Y34.049
X-3.597 Y34.086
Y34.115
X-5.13
G2 X-6.93 Y35.915 I0. J1.8
G1 Y39.248
G2 X-5.13 Y41.048 I1.8 J0.
G1 X-3.597
Y42.582
G2 X-1.797 Y44.382 I1.8 J0.
G1 X1.536
G2 X3.336 Y42.582 I0. J-1.8
G1 Y41.048
X4.87
G2 X6.67 Y39.248 I0. J-1.8
G1 Y35.915
G2 X4.87 Y34.115 I-1.8 J0.
G1 X3.336
Y34.086
X3.531 Y34.049
X3.557 Y34.044
X3.918 Y33.969
X3.954 Y33.961
X4.696 Y33.791
X4.741 Y33.78
X5.494 Y33.587
X5.54 Y33.574
X6.286 Y33.362
X6.338 Y33.346
X7.057 Y33.118
X7.102 Y33.103
X7.447 Y32.983
X7.483 Y32.97
X7.814 Y32.847
X7.855 Y32.831
X8.172 Y32.704
X8.219 Y32.685
X8.519 Y32.555
X8.575 Y32.529
X8.858 Y32.395
X8.922 Y32.363
X9.186 Y32.224
X9.261 Y32.182
X9.506 Y32.038
X9.59 Y31.986
X9.816 Y31.836
X9.909 Y31.77
X10.116 Y31.612
X10.215 Y31.532
X10.404 Y31.366
X10.503 Y31.272
X10.675 Y31.097
X10.771 Y30.991
X10.927 Y30.805
X11.014 Y30.691
X11.154 Y30.493
X11.231 Y30.376
X11.357 Y30.166
X11.42 Y30.051
X11.532 Y29.828
X11.583 Y29.717
X11.682 Y29.481
X11.722 Y29.377
X11.809 Y29.129
X11.839 Y29.033
X11.914 Y28.773
X11.937 Y28.683
X12. Y28.412
X12.018 Y28.329
X12.069 Y28.048
X12.082 Y27.969
X12.121 Y27.681
X12.13 Y27.605
X12.158 Y27.31
X12.163 Y27.237
X12.179 Y26.938
X12.182 Y26.866
X12.186 Y26.563
Y26.493
X12.178 Y26.189
X12.175 Y26.119
X12.155 Y25.814
X12.15 Y25.746
X12.119 Y25.443
X12.111 Y25.375
X12.068 Y25.075
X12.058 Y25.009
X12.005 Y24.711
X11.993 Y24.65
X11.93 Y24.356
X11.909 Y24.271
X11.756 Y23.695
X11.729 Y23.601
X11.546 Y23.04
X11.522 Y22.97
X11.319 Y22.423
X11.302 Y22.379
X11.086 Y21.841
X11.077 Y21.818
X10.638 Y20.767
X10.222 Y19.741
X9.83 Y18.706
G2 X9.644 Y18.345 I-1.683 J0.637
G1 X8.172 Y16.137
X8.765 Y15.675
X9.971
G2 X11.325 Y15.062 I0. J-1.8
G1 X11.428 Y14.945
X11.539 Y14.82
X11.663 Y14.682
X11.802 Y14.53
X11.954 Y14.364
X12.117 Y14.185
X12.12 Y14.182
X12.294 Y13.992
X12.301 Y13.984
X12.481 Y13.784
X12.503 Y13.76
X12.873 Y13.334
X12.927 Y13.269
X13.282 Y12.82
X13.346 Y12.735
X13.505 Y12.507
X13.561 Y12.422
X13.702 Y12.194
X13.768 Y12.079
X13.885 Y11.853
X13.955 Y11.701
X14.045 Y11.481
X14.081 Y11.382
X14.113 Y11.282
X14.171 Y11.068
G2 X14.221 Y10.822 I-1.735 J-0.479
G1 X14.248 Y10.616
G2 X14.262 Y10.331 I-1.785 J-0.232
G1 X14.256 Y10.135
G2 X14.224 Y9.843 I-1.799 J0.053
G1 X14.188 Y9.658
G2 X14.114 Y9.392 I-1.767 J0.345
G1 X14.051 Y9.217
X14.007 Y9.106
X13.955 Y8.999
X13.87 Y8.834
X13.824 Y8.751
X13.773 Y8.671
X13.671 Y8.516
X13.59 Y8.403
X13.477 Y8.258
X13.398 Y8.164
X13.161 Y7.899
X13.126 Y7.861
X12.911 Y7.635
X12.832 Y7.549
X12.772 Y7.483
X12.732 Y7.435
X12.684 Y7.373
G2 X11.265 Y6.68 I-1.419 J1.108
G1 X9.235
X7.199 Y5.289
X7.29 Y4.611
X7.414 Y3.746
X7.543 Y2.887
X7.676 Y2.038
X7.814 Y1.2
X7.956 Y0.371
X8.102 Y-0.447
X8.253 Y-1.254
X8.409 Y-2.05
X8.422 Y-2.115
G2 X8.32 Y-2.366 I-0.239 J-0.049
G3 X8.219 Y-2.616 I0.137 J-0.202
G1 X8.276 Y-2.896
X8.442 Y-3.671
X8.614 Y-4.434
X8.79 Y-5.184
X8.972 Y-5.921
X9.16 Y-6.645
X9.353 Y-7.356
X9.552 Y-8.054
X9.756 Y-8.739
X9.967 Y-9.411
X10.182 Y-10.07
X10.404 Y-10.716
X10.63 Y-11.351
X10.863 Y-11.974
X11.1 Y-12.584
X11.342 Y-13.184
X11.59 Y-13.773
X11.842 Y-14.35
X12.099 Y-14.917
X12.361 Y-15.473
X12.627 Y-16.019
X12.903 Y-16.564
G2 X12.989 Y-17.712 I-1.338 J-0.677
X12.236 Y-18.583 I-1.424 J0.471
G1 X11.461 Y-18.97
X11.483 Y-19.079
X11.744 Y-19.499
X11.769 Y-19.54
X12.149 Y-20.197
X12.173 Y-20.24
X12.528 Y-20.903
X12.551 Y-20.947
X12.881 Y-21.615
X12.903 Y-21.662
X13.207 Y-22.334
X13.227 Y-22.382
X13.505 Y-23.059
X13.525 Y-23.109
X13.776 Y-23.788
X13.793 Y-23.839
X14.018 Y-24.52
X14.034 Y-24.572
X14.23 Y-25.252
X14.245 Y-25.306
X14.413 Y-25.981
X14.426 Y-26.035
X14.566 Y-26.702
X14.577 Y-26.759
X14.688 Y-27.413
X14.697 Y-27.471
X14.78 Y-28.106
X14.787 Y-28.167
X14.841 Y-28.778
X14.845 Y-28.826
X14.862 Y-29.12
X14.863 Y-29.155
X14.873 Y-29.441
X14.874 Y-29.476
X14.876 Y-29.753
Y-29.791
X14.872 Y-30.058
X14.871 Y-30.097
X14.861 Y-30.355
X14.858 Y-30.396
X14.841 Y-30.644
X14.838 Y-30.687
X14.815 Y-30.924
X14.809 Y-30.97
X14.78 Y-31.197
X14.773 Y-31.244
X14.738 Y-31.46
X14.73 Y-31.509
X14.689 Y-31.715
X14.678 Y-31.765
X14.633 Y-31.961
X14.621 Y-32.01
X14.571 Y-32.197
X14.55 Y-32.268
X14.437 Y-32.619
X14.409 Y-32.698
X14.283 Y-33.026
X14.256 Y-33.092
X13.979 Y-33.719
X13.977 Y-33.724
X13.841 Y-34.03
X13.715 Y-34.331
X13.595 Y-34.645
X13.48 Y-34.986
X13.367 Y-35.36
X13.259 Y-35.771
X13.155 Y-36.222
X13.082 Y-36.583
Y-37.662
X13.503 Y-37.932
X14.264
G2 X15.325 Y-38.371 I0. J-1.5
G1 X15.917 Y-38.963
G2 X16.356 Y-40.023 I-1.061 J-1.061
G1 Y-41.801
G2 X15.917 Y-42.862 I-1.5 J0.
G1 X15.299 Y-43.479
G2 X14.239 Y-43.918 I-1.061 J1.061
G1 X-14.5
G2 X-15.56 Y-43.479 I0. J1.5
G1 X-16.177 Y-42.862
G2 X-16.617 Y-41.801 I1.061 J1.061
G1 Y-40.023
G2 X-16.178 Y-38.963 I1.5 J0.
G1 X-15.586 Y-38.371
G2 X-14.525 Y-37.932 I1.061 J-1.061
G1 X-13.764
X-13.343 Y-37.662
Y-36.583
X-13.416 Y-36.222
X-13.52 Y-35.771
X-13.628 Y-35.36
X-13.74 Y-34.986
X-13.856 Y-34.645
X-13.976 Y-34.331
X-14.102 Y-34.03
X-14.238 Y-33.724
X-14.24 Y-33.719
X-14.516 Y-33.092
X-14.544 Y-33.026
X-14.67 Y-32.698
X-14.698 Y-32.619
X-14.81 Y-32.268
X-14.831 Y-32.197
X-14.881 Y-32.01
X-14.894 Y-31.961
X-14.939 Y-31.765
X-14.95 Y-31.715
X-14.99 Y-31.509
X-14.999 Y-31.46
X-15.034 Y-31.244
X-15.041 Y-31.197
X-15.07 Y-30.97
X-15.075 Y-30.924
X-15.099 Y-30.687
X-15.102 Y-30.644
X-15.119 Y-30.396
X-15.121 Y-30.355
X-15.132 Y-30.097
X-15.133 Y-30.058
X-15.137 Y-29.791
Y-29.753
X-15.134 Y-29.476
X-15.133 Y-29.441
X-15.124 Y-29.155
X-15.122 Y-29.121
X-15.106 Y-28.827
X-15.102 Y-28.778
X-15.048 Y-28.167
X-15.041 Y-28.106
X-14.958 Y-27.471
X-14.949 Y-27.413
X-14.837 Y-26.759
X-14.827 Y-26.702
X-14.686 Y-26.035
X-14.674 Y-25.981
X-14.505 Y-25.306
X-14.491 Y-25.252
X-14.294 Y-24.572
X-14.278 Y-24.52
X-14.054 Y-23.839
X-14.036 Y-23.788
X-13.785 Y-23.109
X-13.766 Y-23.059
X-13.488 Y-22.382
X-13.467 Y-22.334
X-13.164 Y-21.662
X-13.142 Y-21.615
X-12.812 Y-20.947
X-12.789 Y-20.903
X-12.434 Y-20.24
X-12.41 Y-20.197
X-12.029 Y-19.54
X-12.005 Y-19.499
X-11.743 Y-19.079
X-11.722 Y-18.97
X-12.496 Y-18.583
G2 X-13.25 Y-17.712 I0.671 J1.342
X-13.164 Y-16.564 I1.424 J0.471
G1 X-12.888 Y-16.019
X-12.622 Y-15.473
X-12.36 Y-14.917
X-12.103 Y-14.35
X-11.85 Y-13.773
X-11.603 Y-13.184
X-11.361 Y-12.584
X-11.123 Y-11.973
X-10.891 Y-11.351
X-10.664 Y-10.716
X-10.443 Y-10.07
X-10.227 Y-9.411
X-10.017 Y-8.739
X-9.813 Y-8.054
X-9.614 Y-7.356
X-9.421 Y-6.645
X-9.233 Y-5.921
X-9.051 Y-5.184
X-8.874 Y-4.434
X-8.703 Y-3.671
X-8.537 Y-2.896
X-8.375 Y-2.109
X-8.219 Y-1.311
X-8.068 Y-0.501
X-7.921 Y0.319
X-7.779 Y1.15
X-7.641 Y1.991
X-7.507 Y2.842
X-7.378 Y3.702
X-7.253 Y4.57
X-7.138 Y5.432
X-9.403 Y6.98
X-11.526
G2 X-12.709 Y7.558 I0. J1.5
G1 X-12.759 Y7.623
X-12.806 Y7.679
X-12.87 Y7.751
X-12.953 Y7.84
X-13.169 Y8.067
X-13.199 Y8.1
X-13.435 Y8.364
X-13.501 Y8.442
X-13.614 Y8.587
X-13.682 Y8.682
X-13.784 Y8.837
X-13.826 Y8.903
X-13.864 Y8.972
X-13.949 Y9.137
X-13.992 Y9.226
X-14.029 Y9.319
X-14.092 Y9.494
X-14.127 Y9.603
X-14.154 Y9.716
X-14.19 Y9.901
X-14.209 Y10.022
X-14.217 Y10.145
X-14.223 Y10.34
X-14.222 Y10.459
X-14.211 Y10.577
X-14.185 Y10.782
X-14.167 Y10.886
X-14.143 Y10.988
X-14.084 Y11.202
X-14.058 Y11.286
X-14.027 Y11.368
X-13.938 Y11.588
X-13.879 Y11.715
X-13.762 Y11.941
X-13.707 Y12.036
X-13.567 Y12.264
X-13.52 Y12.335
X-13.361 Y12.563
X-13.308 Y12.634
X-12.952 Y13.083
X-12.908 Y13.138
X-12.537 Y13.563
X-12.519 Y13.583
X-12.339 Y13.783
X-12.333 Y13.79
X-12.159 Y13.98
X-12.157 Y13.983
X-11.993 Y14.161
X-11.841 Y14.328
X-11.701 Y14.481
X-11.576 Y14.62
X-11.464 Y14.746
X-11.361 Y14.864
G2 X-10.232 Y15.375 I1.128 J-0.988
G1 X-8.922
X-8.029 Y16.072
X-9.655 Y18.511
G2 X-9.81 Y18.812 I1.248 J0.832
G1 X-10.203 Y19.851
X-10.621 Y20.881
X-11.061 Y21.934
X-11.069 Y21.953
X-11.284 Y22.49
X-11.298 Y22.527
X-11.502 Y23.075
X-11.522 Y23.133
X-11.704 Y23.694
X-11.727 Y23.772
X-11.88 Y24.349
X-11.897 Y24.419
X-11.96 Y24.713
X-11.97 Y24.764
X-12.023 Y25.062
X-12.032 Y25.116
X-12.074 Y25.417
X-12.081 Y25.473
X-12.112 Y25.777
X-12.117 Y25.833
X-12.136 Y26.138
X-12.139 Y26.196
X-12.146 Y26.501
X-12.147 Y26.559
X-12.143 Y26.862
X-12.141 Y26.922
X-12.124 Y27.221
X-12.12 Y27.282
X-12.092 Y27.577
X-12.085 Y27.64
X-12.045 Y27.928
X-12.035 Y27.994
X-11.983 Y28.275
X-11.969 Y28.345
X-11.906 Y28.615
X-11.886 Y28.69
X-11.812 Y28.95
X-11.786 Y29.03
X-11.699 Y29.278
X-11.666 Y29.365
X-11.567 Y29.601
X-11.524 Y29.693
X-11.412 Y29.916
X-11.36 Y30.012
X-11.234 Y30.222
X-11.17 Y30.32
X-11.03 Y30.518
X-10.957 Y30.612
X-10.801 Y30.799
X-10.722 Y30.886
X-10.55 Y31.062
X-10.467 Y31.141
X-10.277 Y31.307
X-10.196 Y31.373
X-9.988 Y31.531
X-9.911 Y31.585
X-9.685 Y31.736
X-9.614 Y31.78
X-9.369 Y31.924
X-9.307 Y31.958
X-9.043 Y32.097
X-8.99 Y32.124
X-8.707 Y32.258
X-8.661 Y32.279
X-8.361 Y32.409
X-8.32 Y32.426
X-8.004 Y32.552
X-7.97 Y32.566
X-7.639 Y32.689
X-7.609 Y32.7
X-7.265 Y32.819
X-7.227 Y32.832
X-6.507 Y33.06
X-6.464 Y33.074
X-5.719 Y33.286
X-5.68 Y33.296
X-4.927 Y33.489
X-4.89 Y33.499
X-4.148 Y33.668
X-4.118 Y33.675
X-3.756 Y33.75
X-3.735 Y33.754
X-3.382 Y33.822
X-3.359 Y33.826
X-3.297 Y33.837
Y34.415
X-5.13
G2 X-6.63 Y35.915 I0. J1.5
G1 Y39.248
G2 X-5.13 Y40.748 I1.5 J0.
G1 X-3.297
Y42.582
G2 X-1.797 Y44.082 I1.5 J0.
G1 X1.536
G2 X3.036 Y42.582 I0. J-1.5
G1 Y40.748
X4.87
G2 X6.37 Y39.248 I0. J-1.5
G1 Y35.915
G2 X4.87 Y34.415 I-1.5 J0.
G1 X3.036
Y33.837
X3.098 Y33.826
X3.121 Y33.822
X3.474 Y33.754
X3.496 Y33.75
X3.857 Y33.675
X3.887 Y33.668
X4.629 Y33.499
X4.667 Y33.489
X5.42 Y33.296
X5.458 Y33.286
X6.203 Y33.074
X6.247 Y33.06
X6.966 Y32.832
X7.004 Y32.819
X7.348 Y32.7
X7.378 Y32.689
X7.71 Y32.566
X7.744 Y32.552
X8.06 Y32.426
X8.1 Y32.409
X8.4 Y32.279
X8.447 Y32.258
X8.729 Y32.124
X8.783 Y32.097
X9.047 Y31.958
X9.109 Y31.924
X9.354 Y31.78
X9.424 Y31.736
X9.65 Y31.586
X9.727 Y31.531
X9.935 Y31.373
X10.017 Y31.306
X10.206 Y31.14
X10.289 Y31.062
X10.461 Y30.887
X10.541 Y30.799
X10.697 Y30.612
X10.769 Y30.518
X10.91 Y30.32
X10.973 Y30.222
X11.099 Y30.012
X11.152 Y29.916
X11.264 Y29.693
X11.306 Y29.601
X11.405 Y29.365
X11.439 Y29.278
X11.525 Y29.03
X11.551 Y28.95
X11.626 Y28.69
X11.645 Y28.615
X11.708 Y28.344
X11.723 Y28.275
X11.774 Y27.994
X11.784 Y27.928
X11.824 Y27.64
X11.831 Y27.577
X11.859 Y27.282
X11.864 Y27.221
X11.88 Y26.922
X11.882 Y26.862
X11.886 Y26.559
Y26.501
X11.878 Y26.196
X11.876 Y26.138
X11.856 Y25.833
X11.851 Y25.777
X11.82 Y25.473
X11.813 Y25.417
X11.771 Y25.116
X11.762 Y25.062
X11.709 Y24.764
X11.699 Y24.713
X11.636 Y24.419
X11.619 Y24.348
X11.466 Y23.772
X11.443 Y23.694
X11.261 Y23.133
X11.241 Y23.075
X11.038 Y22.527
X11.024 Y22.49
X10.808 Y21.953
X10.8 Y21.934
X10.361 Y20.881
X9.942 Y19.851
X9.549 Y18.812
G2 X9.394 Y18.511 I-1.403 J0.531
G1 X7.768 Y16.072
X8.662 Y15.375
X9.971
G2 X11.1 Y14.864 I0. J-1.5
G1 X11.203 Y14.746
X11.315 Y14.62
X11.441 Y14.481
X11.58 Y14.328
X11.732 Y14.161
X11.896 Y13.983
X11.899 Y13.98
X12.072 Y13.79
X12.078 Y13.783
X12.259 Y13.583
X12.276 Y13.563
X12.647 Y13.138
X12.692 Y13.083
X13.047 Y12.634
X13.1 Y12.563
X13.259 Y12.335
X13.306 Y12.264
X13.446 Y12.037
X13.501 Y11.94
X13.619 Y11.715
X13.677 Y11.588
X13.767 Y11.368
X13.797 Y11.286
X13.823 Y11.202
X13.882 Y10.988
X13.907 Y10.886
X13.924 Y10.783
X13.95 Y10.578
X13.961 Y10.459
X13.962 Y10.34
X13.957 Y10.144
X13.948 Y10.022
X13.929 Y9.901
X13.893 Y9.716
X13.867 Y9.603
X13.832 Y9.494
X13.768 Y9.319
X13.732 Y9.227
X13.689 Y9.137
X13.604 Y8.973
X13.565 Y8.903
X13.523 Y8.836
X13.421 Y8.682
X13.353 Y8.588
X13.24 Y8.443
X13.174 Y8.364
X12.938 Y8.1
X12.908 Y8.067
X12.692 Y7.84
X12.61 Y7.751
X12.546 Y7.679
X12.499 Y7.623
X12.447 Y7.557
G2 X11.265 Y6.98 I-1.182 J0.923
G1 X9.142
X6.877 Y5.432
X6.993 Y4.57
X7.117 Y3.702
X7.247 Y2.842
X7.38 Y1.991
X7.518 Y1.15
X7.66 Y0.319
X7.807 Y-0.501
X7.958 Y-1.311
X8.115 Y-2.109
X8.219 Y-2.616
G3 X8.573 Y-2.85 I0.294 J0.06
G1 X8.867 Y-2.79
X8.932 Y-2.776 Z-15.729
X8.994 Y-2.763 Z-15.707
X9.05 Y-2.752 Z-15.671
X9.096 Y-2.742 Z-15.624
X9.131 Y-2.735 Z-15.567
X9.153 Y-2.731 Z-15.503
X9.16 Y-2.729 Z-15.437
G0 Z5.
X24.335 Y-2.163
G1 Z1. F133.3
Z-15.437
X24.342 Y-2.165 Z-15.503 F400
X24.364 Y-2.169 Z-15.567
X24.399 Y-2.176 Z-15.624
X24.446 Y-2.185 Z-15.671
X24.502 Y-2.196 Z-15.707
X24.564 Y-2.208 Z-15.729
X24.629 Y-2.221 Z-15.736
X24.924 Y-2.279
G3 X25.276 Y-2.042 I0.058 J0.294
G1 X25.413 Y-1.342
X25.564 Y-0.535
X25.71 Y0.283
X25.852 Y1.112
X25.99 Y1.951
X26.123 Y2.799
X26.252 Y3.658
X26.376 Y4.523
X26.467 Y5.201
X24.431 Y6.593
X22.401
G2 X20.981 Y7.286 I0. J1.8
G1 X20.934 Y7.347
X20.894 Y7.395
X20.834 Y7.462
X20.755 Y7.547
X20.54 Y7.773
X20.504 Y7.812
X20.268 Y8.076
X20.189 Y8.17
X20.076 Y8.315
X19.995 Y8.428
X19.892 Y8.583
X19.842 Y8.663
X19.796 Y8.747
X19.711 Y8.911
X19.659 Y9.018
X19.615 Y9.129
X19.552 Y9.303
G2 X19.478 Y9.57 I1.693 J0.612
G1 X19.442 Y9.756
G2 X19.409 Y10.048 I1.767 J0.345
G1 X19.404 Y10.244
G2 X19.418 Y10.528 I1.799 J0.052
G1 X19.445 Y10.733
G2 X19.494 Y10.98 I1.785 J-0.232
G1 X19.553 Y11.194
X19.584 Y11.294
X19.621 Y11.393
X19.711 Y11.613
X19.781 Y11.766
X19.899 Y11.991
X19.964 Y12.106
X20.105 Y12.334
X20.161 Y12.419
X20.32 Y12.647
X20.384 Y12.732
X20.739 Y13.182
X20.793 Y13.246
X21.163 Y13.672
X21.185 Y13.696
X21.365 Y13.896
X21.372 Y13.904
X21.546 Y14.094
X21.548 Y14.097
X21.712 Y14.276
X21.864 Y14.442
X22.003 Y14.594
X22.127 Y14.732
X22.238 Y14.857
X22.34 Y14.974
G2 X23.694 Y15.588 I1.354 J-1.186
G1 X24.901
X25.494 Y16.049
X24.022 Y18.257
G2 X23.836 Y18.618 I1.498 J0.998
G1 X23.444 Y19.653
X23.028 Y20.679
X22.589 Y21.731
X22.58 Y21.753
X22.364 Y22.291
X22.347 Y22.335
X22.144 Y22.883
X22.12 Y22.952
X21.937 Y23.513
X21.909 Y23.607
X21.756 Y24.183
X21.736 Y24.268
X21.673 Y24.562
X21.661 Y24.623
X21.608 Y24.921
X21.598 Y24.987
X21.555 Y25.288
X21.547 Y25.355
X21.516 Y25.658
X21.51 Y25.726
X21.491 Y26.031
X21.488 Y26.101
X21.48 Y26.405
Y26.475
X21.484 Y26.778
X21.486 Y26.85
X21.503 Y27.15
X21.508 Y27.222
X21.536 Y27.517
X21.545 Y27.593
X21.584 Y27.881
X21.597 Y27.96
X21.648 Y28.241
X21.666 Y28.325
X21.729 Y28.595
X21.752 Y28.685
X21.827 Y28.945
X21.857 Y29.041
X21.944 Y29.289
X21.984 Y29.393
X22.083 Y29.629
X22.134 Y29.74
X22.246 Y29.962
X22.31 Y30.079
X22.436 Y30.289
X22.511 Y30.405
X22.652 Y30.603
X22.739 Y30.717
X22.895 Y30.903
X22.991 Y31.009
X23.163 Y31.185
X23.262 Y31.278
X23.451 Y31.444
X23.55 Y31.524
X23.757 Y31.682
X23.85 Y31.748
X24.076 Y31.898
X24.16 Y31.95
X24.405 Y32.094
X24.48 Y32.136
X24.744 Y32.275
X24.808 Y32.307
X25.091 Y32.441
X25.147 Y32.467
X25.447 Y32.597
X25.494 Y32.616
X25.811 Y32.743
X25.852 Y32.759
X26.183 Y32.882
X26.219 Y32.895
X26.564 Y33.015
X26.609 Y33.03
X27.328 Y33.258
X27.38 Y33.274
X28.126 Y33.487
X28.172 Y33.499
X28.925 Y33.692
X28.97 Y33.703
X29.712 Y33.873
X29.748 Y33.881
X30.109 Y33.956
X30.135 Y33.961
X30.33 Y33.998
Y34.027
X28.796
G2 X26.996 Y35.827 I0. J1.8
G1 Y39.16
G2 X28.796 Y40.96 I1.8 J0.
G1 X30.33
Y42.494
G2 X32.13 Y44.294 I1.8 J0.
G1 X35.463
G2 X37.263 Y42.494 I0. J-1.8
G1 Y40.96
X38.796
G2 X40.596 Y39.16 I0. J-1.8
G1 Y35.827
G2 X38.796 Y34.027 I-1.8 J0.
G1 X37.263
Y33.998
X37.457 Y33.961
X37.484 Y33.956
X37.845 Y33.881
X37.881 Y33.873
X38.622 Y33.703
X38.668 Y33.692
X39.421 Y33.499
X39.467 Y33.487
X40.212 Y33.274
X40.264 Y33.258
X40.983 Y33.03
X41.029 Y33.015
X41.374 Y32.895
X41.409 Y32.882
X41.74 Y32.759
X41.782 Y32.743
X42.098 Y32.616
X42.146 Y32.597
X42.446 Y32.466
X42.501 Y32.441
X42.784 Y32.307
X42.849 Y32.275
X43.113 Y32.136
X43.188 Y32.094
X43.433 Y31.95
X43.517 Y31.898
X43.743 Y31.748
X43.836 Y31.682
X44.043 Y31.524
X44.141 Y31.444
X44.331 Y31.278
X44.429 Y31.185
X44.602 Y31.009
X44.697 Y30.903
X44.853 Y30.717
X44.941 Y30.603
X45.081 Y30.405
X45.157 Y30.288
X45.283 Y30.078
X45.347 Y29.962
X45.459 Y29.739
X45.509 Y29.629
X45.608 Y29.394
X45.649 Y29.289
X45.735 Y29.041
X45.766 Y28.945
X45.841 Y28.685
X45.864 Y28.595
X45.927 Y28.325
X45.944 Y28.241
X45.996 Y27.96
X46.008 Y27.881
X46.048 Y27.593
X46.057 Y27.517
X46.084 Y27.223
X46.09 Y27.15
X46.106 Y26.85
X46.108 Y26.778
X46.113 Y26.475
X46.112 Y26.405
X46.105 Y26.101
X46.102 Y26.031
X46.082 Y25.726
X46.076 Y25.658
X46.045 Y25.355
X46.037 Y25.288
X45.995 Y24.987
X45.984 Y24.921
X45.931 Y24.623
X45.919 Y24.562
X45.856 Y24.268
X45.836 Y24.183
X45.683 Y23.607
X45.655 Y23.513
X45.473 Y22.952
X45.449 Y22.882
X45.246 Y22.335
X45.229 Y22.291
X45.013 Y21.753
X45.003 Y21.73
X44.565 Y20.679
X44.148 Y19.653
X43.756 Y18.618
G2 X43.57 Y18.257 I-1.683 J0.637
G1 X42.099 Y16.049
X42.691 Y15.588
X43.898
G2 X45.252 Y14.974 I0. J-1.8
G1 X45.355 Y14.857
X45.465 Y14.732
X45.59 Y14.594
X45.728 Y14.442
X45.88 Y14.276
X46.044 Y14.097
X46.047 Y14.094
X46.22 Y13.904
X46.227 Y13.896
X46.408 Y13.696
X46.429 Y13.672
X46.8 Y13.246
X46.854 Y13.182
X47.209 Y12.732
X47.272 Y12.647
X47.432 Y12.419
X47.488 Y12.334
X47.628 Y12.106
X47.694 Y11.991
X47.811 Y11.766
X47.882 Y11.613
X47.971 Y11.393
X48.008 Y11.294
X48.039 Y11.194
X48.098 Y10.98
G2 X48.148 Y10.733 I-1.735 J-0.479
G1 X48.175 Y10.528
G2 X48.189 Y10.244 I-1.785 J-0.232
G1 X48.183 Y10.048
G2 X48.15 Y9.756 I-1.799 J0.052
G1 X48.114 Y9.57
G2 X48.04 Y9.303 I-1.767 J0.345
G1 X47.977 Y9.129
X47.933 Y9.018
X47.882 Y8.911
X47.796 Y8.747
X47.75 Y8.663
X47.7 Y8.583
X47.598 Y8.428
X47.516 Y8.315
X47.403 Y8.17
X47.325 Y8.076
X47.088 Y7.812
X47.052 Y7.773
X46.838 Y7.547
X46.758 Y7.462
X46.699 Y7.395
X46.658 Y7.347
X46.611 Y7.286
G2 X45.191 Y6.593 I-1.42 J1.107
G1 X43.161
X41.126 Y5.201
X41.216 Y4.523
X41.341 Y3.658
X41.47 Y2.799
X41.603 Y1.951
X41.74 Y1.112
X41.882 Y0.283
X42.029 Y-0.535
X42.18 Y-1.342
X42.335 Y-2.138
X42.496 Y-2.922
X42.662 Y-3.694
X42.832 Y-4.454
X43.008 Y-5.201
X43.19 Y-5.935
X43.377 Y-6.656
X43.569 Y-7.364
X43.767 Y-8.058
X43.97 Y-8.739
X44.179 Y-9.407
X44.394 Y-10.063
X44.613 Y-10.705
X44.839 Y-11.336
X45.07 Y-11.955
X45.305 Y-12.562
X45.546 Y-13.158
X45.792 Y-13.742
X46.043 Y-14.316
X46.298 Y-14.879
X46.558 Y-15.432
X46.822 Y-15.973
X47.097 Y-16.516
G2 X47.2 Y-17.894 I-1.606 J-0.813
X46.296 Y-18.939 I-1.709 J0.565
G1 X45.781 Y-19.197
X45.926 Y-19.429
X45.955 Y-19.478
X46.335 Y-20.135
X46.364 Y-20.186
X46.719 Y-20.849
X46.747 Y-20.902
X47.076 Y-21.57
X47.103 Y-21.626
X47.407 Y-22.299
X47.432 Y-22.356
X47.709 Y-23.033
X47.733 Y-23.093
X47.984 Y-23.773
X48.005 Y-23.833
X48.229 Y-24.514
X48.249 Y-24.577
X48.445 Y-25.257
X48.462 Y-25.321
X48.631 Y-25.996
X48.646 Y-26.061
X48.786 Y-26.729
X48.799 Y-26.796
X48.911 Y-27.45
X48.921 Y-27.52
X49.004 Y-28.155
X49.012 Y-28.228
X49.067 Y-28.839
X49.071 Y-28.897
X49.088 Y-29.191
X49.09 Y-29.233
X49.099 Y-29.519
X49.1 Y-29.56
X49.103 Y-29.837
Y-29.883
X49.099 Y-30.151
X49.098 Y-30.197
X49.087 Y-30.455
X49.084 Y-30.505
X49.067 Y-30.752
X49.063 Y-30.804
X49.04 Y-31.041
X49.034 Y-31.097
X49.004 Y-31.323
X48.996 Y-31.379
X48.961 Y-31.595
X48.95 Y-31.655
X48.91 Y-31.861
X48.897 Y-31.921
X48.852 Y-32.117
X48.837 Y-32.176
X48.787 Y-32.363
X48.762 Y-32.448
X48.649 Y-32.798
X48.616 Y-32.894
X48.49 Y-33.221
X48.457 Y-33.301
X48.181 Y-33.928
X48.178 Y-33.934
X48.043 Y-34.237
X47.92 Y-34.53
X47.804 Y-34.835
X47.692 Y-35.165
X47.583 Y-35.529
X47.477 Y-35.931
X47.375 Y-36.374
X47.308 Y-36.701
Y-37.586
X47.517 Y-37.72
X48.191
G2 X49.464 Y-38.247 I0. J-1.8
G1 X50.056 Y-38.839
G2 X50.583 Y-40.111 I-1.273 J-1.273
G1 Y-41.889
G2 X50.055 Y-43.162 I-1.8 J0.
G1 X49.438 Y-43.779
G2 X48.166 Y-44.306 I-1.273 J1.273
G1 X19.427
G2 X18.154 Y-43.779 I0. J1.8
G1 X17.537 Y-43.162
G2 X17.01 Y-41.889 I1.273 J1.273
G1 Y-40.111
G2 X17.537 Y-38.839 I1.8 J0.
G1 X18.129 Y-38.247
G2 X19.402 Y-37.72 I1.273 J-1.273
G1 X20.075
X20.284 Y-37.586
Y-36.701
X20.218 Y-36.374
X20.116 Y-35.931
X20.01 Y-35.529
X19.901 Y-35.165
X19.788 Y-34.835
X19.672 Y-34.53
X19.549 Y-34.237
X19.415 Y-33.934
X19.412 Y-33.928
X19.136 Y-33.301
X19.103 Y-33.221
X18.977 Y-32.894
X18.943 Y-32.798
X18.831 Y-32.448
X18.806 Y-32.363
X18.755 Y-32.176
X18.741 Y-32.117
X18.695 Y-31.921
X18.682 Y-31.861
X18.642 Y-31.655
X18.631 Y-31.595
X18.596 Y-31.379
X18.588 Y-31.323
X18.559 Y-31.097
X18.553 Y-31.041
X18.529 Y-30.804
X18.525 Y-30.752
X18.508 Y-30.505
X18.505 Y-30.455
X18.495 Y-30.197
X18.494 Y-30.151
X18.49 Y-29.883
X18.489 Y-29.838
X18.492 Y-29.561
X18.493 Y-29.518
X18.503 Y-29.232
X18.505 Y-29.191
X18.521 Y-28.897
X18.526 Y-28.839
X18.58 Y-28.228
X18.588 Y-28.155
X18.671 Y-27.52
X18.682 Y-27.45
X18.793 Y-26.796
X18.806 Y-26.729
X18.947 Y-26.061
X18.962 Y-25.996
X19.13 Y-25.321
X19.147 Y-25.257
X19.344 Y-24.577
X19.363 Y-24.514
X19.587 Y-23.833
X19.609 Y-23.773
X19.86 Y-23.093
X19.883 Y-23.033
X20.161 Y-22.356
X20.186 Y-22.299
X20.49 Y-21.626
X20.516 Y-21.57
X20.846 Y-20.902
X20.873 Y-20.849
X21.228 Y-20.186
X21.257 Y-20.135
X21.637 Y-19.478
X21.667 Y-19.429
X21.811 Y-19.197
X21.296 Y-18.939
G2 X20.392 Y-17.894 I0.805 J1.61
X20.495 Y-16.516 I1.709 J0.565
G1 X20.77 Y-15.973
X21.034 Y-15.432
X21.294 Y-14.879
X21.55 Y-14.316
X21.8 Y-13.742
X22.046 Y-13.158
X22.287 Y-12.562
X22.523 Y-11.955
X22.754 Y-11.336
X22.979 Y-10.705
X23.199 Y-10.063
X23.414 Y-9.407
X23.623 Y-8.739
X23.826 Y-8.058
X24.024 Y-7.364
X24.216 Y-6.656
X24.403 Y-5.935
X24.584 Y-5.201
X24.76 Y-4.454
X24.931 Y-3.694
X25.096 Y-2.922
X25.257 Y-2.138
X25.276 Y-2.042
G2 X25.466 Y-1.85 I0.239 J-0.047
G3 X25.657 Y-1.658 I-0.049 J0.239
G1 X25.708 Y-1.399
X25.859 Y-0.589
X26.006 Y0.231
X26.148 Y1.062
X26.286 Y1.903
X26.419 Y2.754
X26.549 Y3.614
X26.673 Y4.482
X26.789 Y5.344
X24.524 Y6.893
X22.401
G2 X21.218 Y7.47 I0. J1.5
G1 X21.167 Y7.535
X21.121 Y7.591
X21.056 Y7.663
X20.974 Y7.752
X20.758 Y7.979
X20.728 Y8.012
X20.491 Y8.276
X20.426 Y8.354
X20.313 Y8.499
X20.245 Y8.594
X20.143 Y8.748
X20.101 Y8.816
X20.062 Y8.885
X19.977 Y9.049
X19.934 Y9.139
X19.897 Y9.231
X19.834 Y9.405
X19.799 Y9.515
X19.773 Y9.628
X19.737 Y9.813
X19.718 Y9.934
X19.709 Y10.057
X19.704 Y10.252
X19.705 Y10.371
X19.715 Y10.489
X19.742 Y10.694
X19.759 Y10.798
X19.784 Y10.9
X19.843 Y11.114
X19.868 Y11.198
X19.899 Y11.28
X19.989 Y11.5
X20.048 Y11.627
X20.165 Y11.852
X20.219 Y11.948
X20.36 Y12.176
X20.407 Y12.247
X20.566 Y12.475
X20.619 Y12.546
X20.974 Y12.995
X21.019 Y13.049
X21.389 Y13.475
X21.407 Y13.495
X21.588 Y13.696
X21.594 Y13.702
X21.767 Y13.892
X21.77 Y13.895
X21.934 Y14.074
X22.086 Y14.24
X22.225 Y14.393
X22.351 Y14.532
X22.463 Y14.658
X22.566 Y14.776
G2 X23.694 Y15.288 I1.128 J-0.988
G1 X25.004
X25.898 Y15.984
X24.272 Y18.423
G2 X24.117 Y18.724 I1.248 J0.832
G1 X23.724 Y19.763
X23.305 Y20.793
X22.866 Y21.846
X22.858 Y21.865
X22.642 Y22.402
X22.628 Y22.44
X22.425 Y22.987
X22.405 Y23.045
X22.223 Y23.606
X22.199 Y23.684
X22.046 Y24.26
X22.029 Y24.331
X21.966 Y24.625
X21.957 Y24.676
X21.903 Y24.974
X21.895 Y25.028
X21.852 Y25.329
X21.846 Y25.386
X21.815 Y25.689
X21.81 Y25.745
X21.79 Y26.05
X21.788 Y26.108
X21.78 Y26.413
Y26.471
X21.784 Y26.774
X21.786 Y26.834
X21.802 Y27.133
X21.807 Y27.194
X21.835 Y27.489
X21.842 Y27.552
X21.881 Y27.84
X21.892 Y27.906
X21.943 Y28.187
X21.958 Y28.257
X22.021 Y28.527
X22.04 Y28.602
X22.115 Y28.862
X22.14 Y28.942
X22.227 Y29.19
X22.26 Y29.277
X22.36 Y29.513
X22.402 Y29.605
X22.514 Y29.828
X22.567 Y29.925
X22.693 Y30.135
X22.756 Y30.232
X22.896 Y30.43
X22.969 Y30.524
X23.125 Y30.711
X23.205 Y30.799
X23.377 Y30.975
X23.459 Y31.052
X23.649 Y31.218
X23.731 Y31.285
X23.939 Y31.443
X24.016 Y31.498
X24.242 Y31.648
X24.312 Y31.692
X24.557 Y31.836
X24.619 Y31.87
X24.883 Y32.009
X24.937 Y32.036
X25.219 Y32.17
X25.266 Y32.191
X25.566 Y32.321
X25.606 Y32.338
X25.922 Y32.464
X25.956 Y32.478
X26.287 Y32.601
X26.318 Y32.612
X26.662 Y32.731
X26.7 Y32.744
X27.419 Y32.973
X27.463 Y32.986
X28.208 Y33.198
X28.246 Y33.208
X28.999 Y33.402
X29.037 Y33.411
X29.779 Y33.581
X29.809 Y33.587
X30.17 Y33.662
X30.192 Y33.666
X30.545 Y33.734
X30.568 Y33.739
X30.63 Y33.749
Y34.327
X28.796
G2 X27.296 Y35.827 I0. J1.5
G1 Y39.16
G2 X28.796 Y40.66 I1.5 J0.
G1 X30.63
Y42.494
G2 X32.13 Y43.994 I1.5 J0.
G1 X35.463
G2 X36.963 Y42.494 I0. J-1.5
G1 Y40.66
X38.796
G2 X40.296 Y39.16 I0. J-1.5
G1 Y35.827
G2 X38.796 Y34.327 I-1.5 J0.
G1 X36.963
Y33.749
X37.025 Y33.738
X37.048 Y33.734
X37.401 Y33.666
X37.423 Y33.662
X37.784 Y33.587
X37.814 Y33.581
X38.555 Y33.411
X38.594 Y33.402
X39.346 Y33.208
X39.385 Y33.198
X40.13 Y32.986
X40.173 Y32.973
X40.893 Y32.744
X40.931 Y32.731
X41.275 Y32.611
X41.305 Y32.601
X41.636 Y32.478
X41.671 Y32.464
X41.987 Y32.338
X42.027 Y32.321
X42.327 Y32.191
X42.373 Y32.17
X42.655 Y32.036
X42.709 Y32.009
X42.973 Y31.87
X43.036 Y31.836
X43.281 Y31.692
X43.351 Y31.648
X43.577 Y31.498
X43.654 Y31.443
X43.862 Y31.285
X43.943 Y31.219
X44.133 Y31.053
X44.215 Y30.975
X44.387 Y30.799
X44.467 Y30.711
X44.623 Y30.524
X44.696 Y30.43
X44.836 Y30.232
X44.9 Y30.134
X45.026 Y29.924
X45.079 Y29.828
X45.191 Y29.605
X45.233 Y29.513
X45.332 Y29.277
X45.365 Y29.19
X45.452 Y28.942
X45.478 Y28.862
X45.552 Y28.602
X45.572 Y28.527
X45.635 Y28.257
X45.649 Y28.187
X45.7 Y27.906
X45.711 Y27.84
X45.751 Y27.552
X45.758 Y27.489
X45.786 Y27.194
X45.79 Y27.133
X45.806 Y26.834
X45.808 Y26.774
X45.813 Y26.471
X45.812 Y26.413
X45.805 Y26.108
X45.802 Y26.05
X45.783 Y25.745
X45.778 Y25.689
X45.747 Y25.386
X45.74 Y25.329
X45.698 Y25.028
X45.689 Y24.974
X45.636 Y24.676
X45.626 Y24.625
X45.563 Y24.331
X45.546 Y24.26
X45.393 Y23.684
X45.37 Y23.606
X45.188 Y23.045
X45.167 Y22.987
X44.964 Y22.439
X44.95 Y22.402
X44.734 Y21.865
X44.727 Y21.846
X44.287 Y20.793
X43.869 Y19.763
X43.475 Y18.724
G2 X43.321 Y18.423 I-1.403 J0.531
G1 X41.695 Y15.984
X42.588 Y15.288
X43.898
G2 X45.026 Y14.776 I0. J-1.5
G1 X45.13 Y14.658
X45.242 Y14.532
X45.368 Y14.393
X45.507 Y14.24
X45.659 Y14.074
X45.823 Y13.895
X45.825 Y13.892
X45.999 Y13.702
X46.005 Y13.696
X46.185 Y13.495
X46.203 Y13.475
X46.574 Y13.049
X46.618 Y12.995
X46.973 Y12.546
X47.026 Y12.475
X47.186 Y12.247
X47.232 Y12.176
X47.373 Y11.948
X47.428 Y11.852
X47.545 Y11.627
X47.604 Y11.5
X47.693 Y11.28
X47.724 Y11.198
X47.75 Y11.114
X47.809 Y10.9
X47.833 Y10.798
X47.85 Y10.694
X47.877 Y10.489
X47.888 Y10.371
X47.889 Y10.252
X47.883 Y10.057
X47.875 Y9.934
X47.856 Y9.813
X47.82 Y9.628
X47.793 Y9.515
X47.758 Y9.405
X47.695 Y9.231
X47.658 Y9.139
X47.616 Y9.049
X47.53 Y8.885
X47.492 Y8.816
X47.45 Y8.748
X47.348 Y8.594
X47.28 Y8.499
X47.166 Y8.354
X47.101 Y8.276
X46.865 Y8.012
X46.835 Y7.979
X46.619 Y7.752
X46.536 Y7.663
X46.472 Y7.591
X46.425 Y7.535
X46.374 Y7.47
G2 X45.191 Y6.893 I-1.183 J0.922
G1 X43.068
X40.804 Y5.344
X40.919 Y4.482
X41.044 Y3.614
X41.173 Y2.754
X41.307 Y1.903
X41.444 Y1.062
X41.587 Y0.231
X41.734 Y-0.589
X41.885 Y-1.399
X42.041 Y-2.197
X42.202 Y-2.984
X42.369 Y-3.759
X42.54 Y-4.521
X42.717 Y-5.272
X42.899 Y-6.009
X43.087 Y-6.733
X43.28 Y-7.444
X43.479 Y-8.142
X43.683 Y-8.827
X43.893 Y-9.499
X44.109 Y-10.158
X44.33 Y-10.804
X44.557 Y-11.439
X44.789 Y-12.061
X45.026 Y-12.672
X45.269 Y-13.272
X45.516 Y-13.861
X45.769 Y-14.438
X46.026 Y-15.005
X46.288 Y-15.561
X46.554 Y-16.107
X46.83 Y-16.652
G2 X46.915 Y-17.8 I-1.338 J-0.677
X46.162 Y-18.671 I-1.424 J0.471
G1 X45.388 Y-19.058
X45.409 Y-19.167
X45.671 Y-19.587
X45.695 Y-19.628
X46.076 Y-20.285
X46.1 Y-20.328
X46.455 Y-20.99
X46.478 Y-21.035
X46.807 Y-21.703
X46.829 Y-21.749
X47.133 Y-22.422
X47.154 Y-22.47
X47.432 Y-23.147
X47.451 Y-23.197
X47.702 Y-23.876
X47.72 Y-23.927
X47.944 Y-24.608
X47.96 Y-24.66
X48.157 Y-25.34
X48.171 Y-25.393
X48.34 Y-26.069
X48.352 Y-26.123
X48.493 Y-26.79
X48.503 Y-26.847
X48.615 Y-27.501
X48.624 Y-27.558
X48.707 Y-28.194
X48.713 Y-28.255
X48.768 Y-28.866
X48.771 Y-28.914
X48.788 Y-29.208
X48.79 Y-29.243
X48.799 Y-29.529
X48.8 Y-29.564
X48.803 Y-29.841
Y-29.879
X48.799 Y-30.146
X48.798 Y-30.185
X48.787 Y-30.443
X48.785 Y-30.484
X48.768 Y-30.732
X48.764 Y-30.775
X48.741 Y-31.012
X48.736 Y-31.058
X48.707 Y-31.285
X48.7 Y-31.332
X48.665 Y-31.547
X48.656 Y-31.597
X48.616 Y-31.803
X48.605 Y-31.853
X48.559 Y-32.049
X48.547 Y-32.098
X48.497 Y-32.285
X48.476 Y-32.356
X48.364 Y-32.707
X48.336 Y-32.786
X48.21 Y-33.114
X48.182 Y-33.18
X47.906 Y-33.807
X47.904 Y-33.812
X47.768 Y-34.118
X47.642 Y-34.418
X47.522 Y-34.733
X47.406 Y-35.074
X47.294 Y-35.448
X47.186 Y-35.859
X47.081 Y-36.31
X47.008 Y-36.671
Y-37.75
X47.429 Y-38.02
X48.191
G2 X49.252 Y-38.459 I0. J-1.5
G1 X49.843 Y-39.051
G2 X50.283 Y-40.111 I-1.061 J-1.061
G1 Y-41.889
G2 X49.843 Y-42.95 I-1.5 J0.
G1 X49.226 Y-43.567
G2 X48.166 Y-44.006 I-1.061 J1.061
G1 X19.427
G2 X18.366 Y-43.567 I0. J1.5
G1 X17.749 Y-42.95
G2 X17.31 Y-41.889 I1.061 J1.061
G1 Y-40.111
G2 X17.749 Y-39.051 I1.5 J0.
G1 X18.341 Y-38.459
G2 X19.402 Y-38.02 I1.061 J-1.061
G1 X20.163
X20.584 Y-37.75
Y-36.671
X20.511 Y-36.31
X20.407 Y-35.859
X20.299 Y-35.448
X20.186 Y-35.074
X20.071 Y-34.733
X19.951 Y-34.418
X19.825 Y-34.118
X19.689 Y-33.812
X19.686 Y-33.807
X19.41 Y-33.18
X19.383 Y-33.114
X19.257 Y-32.786
X19.229 Y-32.707
X19.116 Y-32.356
X19.095 Y-32.285
X19.045 Y-32.098
X19.033 Y-32.049
X18.988 Y-31.853
X18.977 Y-31.803
X18.936 Y-31.597
X18.928 Y-31.547
X18.893 Y-31.332
X18.886 Y-31.285
X18.857 Y-31.058
X18.851 Y-31.012
X18.828 Y-30.775
X18.824 Y-30.732
X18.807 Y-30.484
X18.805 Y-30.443
X18.795 Y-30.185
X18.794 Y-30.146
X18.79 Y-29.879
X18.789 Y-29.841
X18.792 Y-29.564
X18.793 Y-29.528
X18.803 Y-29.242
X18.804 Y-29.208
X18.821 Y-28.914
X18.825 Y-28.866
X18.879 Y-28.255
X18.886 Y-28.194
X18.969 Y-27.558
X18.978 Y-27.501
X19.089 Y-26.847
X19.1 Y-26.79
X19.24 Y-26.123
X19.253 Y-26.069
X19.421 Y-25.393
X19.436 Y-25.34
X19.632 Y-24.66
X19.648 Y-24.608
X19.872 Y-23.927
X19.89 Y-23.876
X20.141 Y-23.197
X20.161 Y-23.147
X20.438 Y-22.47
X20.459 Y-22.422
X20.763 Y-21.749
X20.785 Y-21.703
X21.115 Y-21.035
X21.138 Y-20.99
X21.493 Y-20.328
X21.517 Y-20.285
X21.897 Y-19.628
X21.922 Y-19.587
X22.183 Y-19.167
X22.205 Y-19.058
X21.43 Y-18.671
G2 X20.677 Y-17.8 I0.671 J1.342
X20.763 Y-16.652 I1.424 J0.471
G1 X21.039 Y-16.107
X21.305 Y-15.561
X21.567 Y-15.005
X21.824 Y-14.438
X22.076 Y-13.861
X22.324 Y-13.272
X22.566 Y-12.672
X22.803 Y-12.061
X23.035 Y-11.439
X23.262 Y-10.804
X23.483 Y-10.158
X23.699 Y-9.499
X23.909 Y-8.827
X24.114 Y-8.142
X24.313 Y-7.444
X24.506 Y-6.733
X24.694 Y-6.009
X24.876 Y-5.272
X25.052 Y-4.521
X25.224 Y-3.759
X25.39 Y-2.984
X25.551 Y-2.197
X25.657 Y-1.658
G3 X25.42 Y-1.306 I-0.294 J0.058
G1 X25.126 Y-1.248
X25.06 Y-1.235 Z-15.729
X24.998 Y-1.223 Z-15.707
X24.942 Y-1.212 Z-15.671
X24.895 Y-1.203 Z-15.624
X24.86 Y-1.196 Z-15.567
X24.839 Y-1.192 Z-15.503
X24.831 Y-1.19 Z-15.437
G0 Z5.
X-21.861 Y15.717
G1 Z1. F133.3
Z-15.437
X-21.867 Y15.712 Z-15.503 F400
X-21.883 Y15.697 Z-15.567
X-21.91 Y15.674 Z-15.624
X-21.946 Y15.642 Z-15.671
X-21.989 Y15.605 Z-15.707
X-22.036 Y15.563 Z-15.729
X-22.087 Y15.519 Z-15.736
X-22.312 Y15.321
G3 X-22.414 Y15.115 I0.198 J-0.226
X-22.34 Y14.898 I0.299 J-0.02
G1 X-22.238 Y14.781
X-22.127 Y14.657
X-22.003 Y14.519
X-21.864 Y14.367
X-21.712 Y14.201
X-21.548 Y14.022
X-21.546 Y14.019
X-21.372 Y13.829
X-21.365 Y13.821
X-21.185 Y13.621
X-21.163 Y13.596
X-20.793 Y13.171
X-20.739 Y13.106
X-20.384 Y12.657
X-20.32 Y12.571
X-20.161 Y12.343
X-20.105 Y12.258
X-19.964 Y12.031
X-19.899 Y11.915
X-19.781 Y11.69
X-19.711 Y11.538
X-19.621 Y11.318
X-19.584 Y11.219
X-19.553 Y11.118
X-19.494 Y10.905
G2 X-19.445 Y10.657 I-1.735 J-0.479
G1 X-19.418 Y10.452
G2 X-19.404 Y10.168 I-1.785 J-0.232
G1 X-19.409 Y9.973
G2 X-19.442 Y9.68 I-1.799 J0.052
G1 X-19.478 Y9.495
G2 X-19.552 Y9.228 I-1.767 J0.345
G1 X-19.615 Y9.053
X-19.659 Y8.943
X-19.711 Y8.835
X-19.796 Y8.671
X-19.842 Y8.588
X-19.892 Y8.507
X-19.995 Y8.353
X-20.076 Y8.239
X-20.19 Y8.094
X-20.268 Y8.
X-20.504 Y7.736
X-20.54 Y7.697
X-20.755 Y7.471
X-20.834 Y7.386
X-20.894 Y7.319
X-20.934 Y7.271
X-20.981 Y7.21
G2 X-22.401 Y6.517 I-1.42 J1.107
G1 X-24.431
X-26.467 Y5.125
X-26.376 Y4.448
X-26.252 Y3.582
X-26.123 Y2.724
X-25.99 Y1.875
X-25.852 Y1.036
X-25.71 Y0.207
X-25.564 Y-0.611
X-25.413 Y-1.418
X-25.257 Y-2.214
X-25.096 Y-2.998
X-24.931 Y-3.77
X-24.76 Y-4.53
X-24.584 Y-5.277
X-24.403 Y-6.011
X-24.216 Y-6.732
X-24.024 Y-7.439
X-23.826 Y-8.134
X-23.623 Y-8.815
X-23.414 Y-9.483
X-23.199 Y-10.138
X-22.979 Y-10.781
X-22.754 Y-11.412
X-22.523 Y-12.03
X-22.287 Y-12.637
X-22.046 Y-13.233
X-21.8 Y-13.818
X-21.55 Y-14.392
X-21.294 Y-14.955
X-21.034 Y-15.507
X-20.77 Y-16.049
X-20.495 Y-16.592
G2 X-20.392 Y-17.97 I-1.606 J-0.813
X-21.296 Y-19.015 I-1.709 J0.565
G1 X-21.811 Y-19.272
X-21.667 Y-19.504
X-21.637 Y-19.553
X-21.257 Y-20.21
X-21.228 Y-20.262
X-20.873 Y-20.924
X-20.846 Y-20.978
X-20.516 Y-21.646
X-20.49 Y-21.702
X-20.186 Y-22.374
X-20.161 Y-22.432
X-19.883 Y-23.109
X-19.86 Y-23.168
X-19.609 Y-23.848
X-19.587 Y-23.909
X-19.363 Y-24.59
X-19.344 Y-24.653
X-19.147 Y-25.332
X-19.13 Y-25.396
X-18.962 Y-26.072
X-18.947 Y-26.137
X-18.806 Y-26.804
X-18.793 Y-26.872
X-18.682 Y-27.526
X-18.671 Y-27.595
X-18.588 Y-28.231
X-18.58 Y-28.304
X-18.526 Y-28.915
X-18.521 Y-28.973
X-18.505 Y-29.267
X-18.503 Y-29.308
X-18.493 Y-29.594
X-18.492 Y-29.637
X-18.489 Y-29.914
X-18.49 Y-29.959
X-18.494 Y-30.226
X-18.495 Y-30.273
X-18.505 Y-30.53
X-18.508 Y-30.58
X-18.525 Y-30.828
X-18.529 Y-30.88
X-18.553 Y-31.117
X-18.559 Y-31.172
X-18.588 Y-31.399
X-18.596 Y-31.455
X-18.631 Y-31.671
X-18.642 Y-31.73
X-18.682 Y-31.936
X-18.695 Y-31.996
X-18.741 Y-32.192
X-18.755 Y-32.251
X-18.806 Y-32.438
X-18.831 Y-32.523
X-18.943 Y-32.874
X-18.977 Y-32.97
X-19.103 Y-33.297
X-19.136 Y-33.377
X-19.412 Y-34.004
X-19.415 Y-34.01
X-19.549 Y-34.312
X-19.672 Y-34.605
X-19.788 Y-34.91
X-19.901 Y-35.241
X-20.01 Y-35.605
X-20.116 Y-36.007
X-20.218 Y-36.449
X-20.284 Y-36.777
Y-37.661
X-20.075 Y-37.795
X-19.402
G2 X-18.129 Y-38.322 I0. J-1.8
G1 X-17.537 Y-38.914
G2 X-17.01 Y-40.187 I-1.273 J-1.273
G1 Y-41.965
G2 X-17.537 Y-43.238 I-1.8 J0.
G1 X-18.154 Y-43.855
G2 X-19.427 Y-44.382 I-1.273 J1.273
G1 X-48.166
G2 X-49.438 Y-43.855 I0. J1.8
G1 X-50.055 Y-43.238
G2 X-50.583 Y-41.965 I1.273 J1.273
G1 Y-40.187
G2 X-50.056 Y-38.914 I1.8 J0.
G1 X-49.464 Y-38.322
G2 X-48.191 Y-37.795 I1.273 J-1.273
G1 X-47.517
X-47.308 Y-37.661
Y-36.777
X-47.375 Y-36.449
X-47.477 Y-36.007
X-47.583 Y-35.605
X-47.692 Y-35.241
X-47.804 Y-34.91
X-47.92 Y-34.605
X-48.043 Y-34.312
X-48.178 Y-34.01
X-48.181 Y-34.004
X-48.457 Y-33.377
X-48.49 Y-33.297
X-48.616 Y-32.97
X-48.649 Y-32.874
X-48.762 Y-32.523
X-48.787 Y-32.438
X-48.837 Y-32.251
X-48.852 Y-32.192
X-48.897 Y-31.996
X-48.91 Y-31.936
X-48.95 Y-31.73
X-48.961 Y-31.671
X-48.996 Y-31.455
X-49.004 Y-31.399
X-49.034 Y-31.172
X-49.04 Y-31.117
X-49.063 Y-30.88
X-49.067 Y-30.828
X-49.084 Y-30.58
X-49.087 Y-30.53
X-49.098 Y-30.273
X-49.099 Y-30.226
X-49.103 Y-29.959
Y-29.913
X-49.1 Y-29.636
X-49.099 Y-29.595
X-49.09 Y-29.309
X-49.088 Y-29.267
X-49.071 Y-28.973
X-49.067 Y-28.915
X-49.012 Y-28.304
X-49.004 Y-28.231
X-48.921 Y-27.595
X-48.911 Y-27.526
X-48.799 Y-26.872
X-48.786 Y-26.804
X-48.646 Y-26.137
X-48.631 Y-26.072
X-48.462 Y-25.396
X-48.445 Y-25.332
X-48.249 Y-24.653
X-48.229 Y-24.59
X-48.005 Y-23.909
X-47.984 Y-23.848
X-47.733 Y-23.168
X-47.709 Y-23.109
X-47.432 Y-22.432
X-47.407 Y-22.374
X-47.103 Y-21.702
X-47.076 Y-21.646
X-46.747 Y-20.978
X-46.719 Y-20.924
X-46.364 Y-20.262
X-46.335 Y-20.21
X-45.955 Y-19.553
X-45.926 Y-19.504
X-45.781 Y-19.272
X-46.296 Y-19.015
G2 X-47.2 Y-17.97 I0.805 J1.61
X-47.097 Y-16.592 I1.709 J0.565
G1 X-46.822 Y-16.049
X-46.558 Y-15.507
X-46.298 Y-14.955
X-46.043 Y-14.392
X-45.792 Y-13.818
X-45.546 Y-13.233
X-45.305 Y-12.637
X-45.07 Y-12.03
X-44.839 Y-11.412
X-44.613 Y-10.781
X-44.394 Y-10.138
X-44.179 Y-9.483
X-43.97 Y-8.815
X-43.767 Y-8.134
X-43.569 Y-7.439
X-43.377 Y-6.732
X-43.19 Y-6.011
X-43.008 Y-5.277
X-42.832 Y-4.53
X-42.662 Y-3.77
X-42.496 Y-2.998
X-42.335 Y-2.214
X-42.18 Y-1.418
X-42.029 Y-0.611
X-41.882 Y0.207
X-41.74 Y1.036
X-41.603 Y1.875
X-41.47 Y2.724
X-41.341 Y3.582
X-41.216 Y4.448
X-41.126 Y5.125
X-43.161 Y6.517
X-45.191
G2 X-46.611 Y7.21 I0. J1.8
G1 X-46.658 Y7.271
X-46.699 Y7.319
X-46.758 Y7.386
X-46.837 Y7.471
X-47.052 Y7.697
X-47.088 Y7.736
X-47.325 Y8.
X-47.403 Y8.094
X-47.516 Y8.239
X-47.598 Y8.353
X-47.7 Y8.507
X-47.75 Y8.588
X-47.796 Y8.671
X-47.882 Y8.835
X-47.933 Y8.943
X-47.977 Y9.053
X-48.04 Y9.228
G2 X-48.114 Y9.495 I1.693 J0.612
G1 X-48.15 Y9.68
G2 X-48.183 Y9.973 I1.767 J0.345
G1 X-48.189 Y10.168
G2 X-48.175 Y10.452 I1.799 J0.052
G1 X-48.148 Y10.657
G2 X-48.098 Y10.905 I1.785 J-0.232
G1 X-48.039 Y11.118
X-48.008 Y11.219
X-47.971 Y11.318
X-47.882 Y11.538
X-47.811 Y11.69
X-47.694 Y11.915
X-47.628 Y12.031
X-47.488 Y12.258
X-47.432 Y12.343
X-47.272 Y12.571
X-47.209 Y12.657
X-46.854 Y13.106
X-46.8 Y13.171
X-46.429 Y13.596
X-46.408 Y13.621
X-46.227 Y13.821
X-46.22 Y13.829
X-46.047 Y14.019
X-46.044 Y14.022
X-45.88 Y14.201
X-45.728 Y14.367
X-45.59 Y14.519
X-45.465 Y14.657
X-45.355 Y14.781
X-45.252 Y14.898
G3 X-45.178 Y15.115 I-0.226 J0.198
X-45.28 Y15.321 I-0.299 J-0.02
G1 X-45.506 Y15.519
X-45.556 Y15.563 Z-15.729
X-45.604 Y15.605 Z-15.707
X-45.646 Y15.642 Z-15.671
X-45.682 Y15.674 Z-15.624
X-45.709 Y15.697 Z-15.567
X-45.726 Y15.712 Z-15.503
X-45.731 Y15.717 Z-15.437
G0 Z5.
X-44.198 Y16.412
G1 Z1. F133.3
Z-15.437
Y16.404 Z-15.503 F400
Y16.382 Z-15.567
Y16.347 Z-15.624
Y16.299 Z-15.671
Y16.242 Z-15.707
Y16.179 Z-15.729
Y16.112 Z-15.736
Y15.812
G3 X-43.898 Y15.512 I0.3 J0.
G1 X-42.691
X-42.099 Y15.974
X-43.57 Y18.181
G2 X-43.756 Y18.542 I1.498 J0.998
G1 X-44.148 Y19.578
X-44.565 Y20.604
X-45.003 Y21.655
X-45.013 Y21.677
X-45.229 Y22.215
X-45.246 Y22.26
X-45.449 Y22.807
X-45.473 Y22.877
X-45.655 Y23.437
X-45.683 Y23.532
X-45.836 Y24.108
X-45.856 Y24.193
X-45.919 Y24.487
X-45.931 Y24.548
X-45.984 Y24.846
X-45.995 Y24.911
X-46.037 Y25.212
X-46.045 Y25.279
X-46.076 Y25.583
X-46.082 Y25.651
X-46.102 Y25.955
X-46.105 Y26.025
X-46.112 Y26.33
X-46.113 Y26.4
X-46.108 Y26.703
X-46.106 Y26.774
X-46.09 Y27.074
X-46.085 Y27.147
X-46.057 Y27.442
X-46.048 Y27.517
X-46.008 Y27.806
X-45.996 Y27.885
X-45.944 Y28.165
X-45.927 Y28.249
X-45.864 Y28.52
X-45.841 Y28.609
X-45.766 Y28.869
X-45.735 Y28.966
X-45.649 Y29.214
X-45.609 Y29.318
X-45.51 Y29.553
X-45.459 Y29.664
X-45.347 Y29.887
X-45.283 Y30.003
X-45.157 Y30.213
X-45.081 Y30.329
X-44.941 Y30.527
X-44.853 Y30.641
X-44.697 Y30.828
X-44.602 Y30.933
X-44.43 Y31.109
X-44.331 Y31.203
X-44.141 Y31.369
X-44.043 Y31.449
X-43.835 Y31.606
X-43.743 Y31.672
X-43.517 Y31.822
X-43.432 Y31.875
X-43.187 Y32.019
X-43.113 Y32.06
X-42.849 Y32.199
X-42.784 Y32.231
X-42.502 Y32.365
X-42.446 Y32.391
X-42.146 Y32.521
X-42.098 Y32.541
X-41.781 Y32.668
X-41.741 Y32.683
X-41.41 Y32.806
X-41.373 Y32.819
X-41.029 Y32.939
X-40.984 Y32.954
X-40.264 Y33.183
X-40.212 Y33.199
X-39.467 Y33.411
X-39.42 Y33.424
X-38.668 Y33.617
X-38.622 Y33.628
X-37.881 Y33.797
X-37.845 Y33.805
X-37.483 Y33.88
X-37.458 Y33.885
X-37.263 Y33.923
Y33.952
X-38.796
G2 X-40.596 Y35.752 I0. J1.8
G1 Y39.085
G2 X-38.796 Y40.885 I1.8 J0.
G1 X-37.263
Y42.418
G2 X-35.463 Y44.218 I1.8 J0.
G1 X-32.13
G2 X-30.33 Y42.418 I0. J-1.8
G1 Y40.885
X-28.796
G2 X-26.996 Y39.085 I0. J-1.8
G1 Y35.752
G2 X-28.796 Y33.952 I-1.8 J0.
G1 X-30.33
Y33.923
X-30.135 Y33.885
X-30.109 Y33.88
X-29.748 Y33.805
X-29.712 Y33.797
X-28.97 Y33.628
X-28.924 Y33.617
X-28.172 Y33.423
X-28.126 Y33.411
X-27.38 Y33.199
X-27.328 Y33.183
X-26.609 Y32.954
X-26.563 Y32.939
X-26.219 Y32.819
X-26.183 Y32.806
X-25.852 Y32.683
X-25.81 Y32.667
X-25.494 Y32.541
X-25.447 Y32.521
X-25.147 Y32.391
X-25.091 Y32.365
X-24.808 Y32.231
X-24.744 Y32.199
X-24.48 Y32.06
X-24.405 Y32.019
X-24.16 Y31.875
X-24.076 Y31.822
X-23.85 Y31.672
X-23.757 Y31.606
X-23.55 Y31.449
X-23.451 Y31.368
X-23.262 Y31.202
X-23.163 Y31.109
X-22.991 Y30.933
X-22.895 Y30.828
X-22.739 Y30.641
X-22.652 Y30.527
X-22.511 Y30.329
X-22.435 Y30.213
X-22.309 Y30.002
X-22.246 Y29.887
X-22.134 Y29.664
X-22.083 Y29.554
X-21.984 Y29.318
X-21.944 Y29.214
X-21.857 Y28.965
X-21.826 Y28.869
X-21.752 Y28.609
X-21.729 Y28.52
X-21.666 Y28.249
X-21.648 Y28.165
X-21.597 Y27.885
X-21.584 Y27.806
X-21.545 Y27.517
X-21.536 Y27.442
X-21.508 Y27.147
X-21.503 Y27.074
X-21.486 Y26.774
X-21.484 Y26.703
X-21.48 Y26.4
Y26.33
X-21.488 Y26.025
X-21.491 Y25.955
X-21.51 Y25.651
X-21.516 Y25.583
X-21.547 Y25.279
X-21.555 Y25.212
X-21.598 Y24.911
X-21.608 Y24.846
X-21.661 Y24.548
X-21.673 Y24.487
X-21.736 Y24.193
X-21.756 Y24.108
X-21.909 Y23.532
X-21.937 Y23.437
X-22.12 Y22.877
X-22.144 Y22.807
X-22.347 Y22.26
X-22.364 Y22.215
X-22.58 Y21.677
X-22.589 Y21.655
X-23.028 Y20.604
X-23.444 Y19.578
X-23.836 Y18.542
G2 X-24.022 Y18.181 I-1.683 J0.637
G1 X-25.494 Y15.974
X-24.901 Y15.512
X-23.694
G3 X-23.394 Y15.812 I0. J0.3
G1 Y16.112
Y16.179 Z-15.729
Y16.242 Z-15.707
Y16.299 Z-15.671
Y16.347 Z-15.624
Y16.382 Z-15.567
Y16.404 Z-15.503
Y16.412 Z-15.437
G0 Z5.
X-22.087 Y15.519
G1 Z1. F133.3
Z-15.437
X-22.092 Y15.514 Z-15.503 F400
X-22.109 Y15.499 Z-15.567
X-22.136 Y15.476 Z-15.624
X-22.172 Y15.445 Z-15.671
X-22.214 Y15.407 Z-15.707
X-22.262 Y15.365 Z-15.729
X-22.312 Y15.321 Z-15.736
X-22.538 Y15.124
G3 X-22.566 Y14.7 I0.198 J-0.226
G1 X-22.463 Y14.582
X-22.351 Y14.456
X-22.225 Y14.317
X-22.086 Y14.164
X-21.934 Y13.998
X-21.77 Y13.819
X-21.767 Y13.816
X-21.594 Y13.626
X-21.588 Y13.62
X-21.407 Y13.42
X-21.389 Y13.4
X-21.019 Y12.974
X-20.974 Y12.92
X-20.619 Y12.471
X-20.566 Y12.4
X-20.407 Y12.171
X-20.36 Y12.101
X-20.219 Y11.873
X-20.165 Y11.777
X-20.048 Y11.552
X-19.989 Y11.425
X-19.899 Y11.205
X-19.868 Y11.122
X-19.843 Y11.038
X-19.784 Y10.825
X-19.759 Y10.722
X-19.742 Y10.619
X-19.715 Y10.414
X-19.705 Y10.295
X-19.704 Y10.177
X-19.709 Y9.981
X-19.718 Y9.859
X-19.737 Y9.737
X-19.773 Y9.552
X-19.799 Y9.44
X-19.834 Y9.33
X-19.897 Y9.155
X-19.934 Y9.063
X-19.977 Y8.974
X-20.062 Y8.809
X-20.101 Y8.74
X-20.143 Y8.673
X-20.245 Y8.518
X-20.313 Y8.424
X-20.426 Y8.279
X-20.491 Y8.201
X-20.728 Y7.936
X-20.758 Y7.904
X-20.974 Y7.677
X-21.056 Y7.588
X-21.121 Y7.515
X-21.167 Y7.46
X-21.218 Y7.395
G2 X-22.401 Y6.817 I-1.183 J0.922
G1 X-24.524
X-26.789 Y5.269
X-26.673 Y4.406
X-26.549 Y3.539
X-26.419 Y2.678
X-26.286 Y1.827
X-26.148 Y0.987
X-26.006 Y0.156
X-25.859 Y-0.665
X-25.708 Y-1.474
X-25.551 Y-2.272
X-25.39 Y-3.059
X-25.224 Y-3.834
X-25.052 Y-4.597
X-24.876 Y-5.347
X-24.694 Y-6.084
X-24.506 Y-6.809
X-24.313 Y-7.52
X-24.114 Y-8.218
X-23.909 Y-8.903
X-23.699 Y-9.574
X-23.483 Y-10.233
X-23.262 Y-10.88
X-23.035 Y-11.514
X-22.803 Y-12.137
X-22.566 Y-12.748
X-22.324 Y-13.348
X-22.076 Y-13.936
X-21.824 Y-14.514
X-21.567 Y-15.081
X-21.305 Y-15.637
X-21.039 Y-16.182
X-20.763 Y-16.727
G2 X-20.677 Y-17.876 I-1.338 J-0.677
X-21.43 Y-18.746 I-1.424 J0.471
G1 X-22.205 Y-19.134
X-22.183 Y-19.242
X-21.922 Y-19.663
X-21.897 Y-19.704
X-21.517 Y-20.361
X-21.493 Y-20.404
X-21.138 Y-21.066
X-21.115 Y-21.111
X-20.785 Y-21.778
X-20.763 Y-21.825
X-20.459 Y-22.498
X-20.438 Y-22.546
X-20.161 Y-23.223
X-20.141 Y-23.272
X-19.89 Y-23.952
X-19.872 Y-24.003
X-19.648 Y-24.684
X-19.632 Y-24.736
X-19.436 Y-25.416
X-19.421 Y-25.469
X-19.253 Y-26.144
X-19.24 Y-26.199
X-19.1 Y-26.866
X-19.089 Y-26.922
X-18.978 Y-27.576
X-18.969 Y-27.634
X-18.886 Y-28.269
X-18.879 Y-28.331
X-18.825 Y-28.941
X-18.821 Y-28.99
X-18.804 Y-29.284
X-18.803 Y-29.318
X-18.793 Y-29.604
X-18.792 Y-29.64
X-18.789 Y-29.917
X-18.79 Y-29.954
X-18.794 Y-30.222
X-18.795 Y-30.261
X-18.805 Y-30.518
X-18.807 Y-30.56
X-18.824 Y-30.807
X-18.828 Y-30.851
X-18.851 Y-31.088
X-18.857 Y-31.134
X-18.886 Y-31.36
X-18.893 Y-31.407
X-18.928 Y-31.623
X-18.936 Y-31.673
X-18.977 Y-31.878
X-18.988 Y-31.929
X-19.033 Y-32.125
X-19.045 Y-32.174
X-19.095 Y-32.361
X-19.116 Y-32.432
X-19.229 Y-32.782
X-19.257 Y-32.862
X-19.383 Y-33.189
X-19.41 Y-33.256
X-19.686 Y-33.883
X-19.689 Y-33.888
X-19.825 Y-34.193
X-19.951 Y-34.494
X-20.071 Y-34.809
X-20.186 Y-35.149
X-20.299 Y-35.523
X-20.407 Y-35.935
X-20.511 Y-36.386
X-20.584 Y-36.747
Y-37.826
X-20.163 Y-38.095
X-19.402
G2 X-18.341 Y-38.535 I0. J-1.5
G1 X-17.749 Y-39.126
G2 X-17.31 Y-40.187 I-1.061 J-1.061
G1 Y-41.965
G2 X-17.749 Y-43.025 I-1.5 J0.
G1 X-18.366 Y-43.643
G2 X-19.427 Y-44.082 I-1.061 J1.061
G1 X-48.166
G2 X-49.226 Y-43.643 I0. J1.5
G1 X-49.843 Y-43.025
G2 X-50.283 Y-41.965 I1.061 J1.061
G1 Y-40.187
G2 X-49.843 Y-39.126 I1.5 J0.
G1 X-49.252 Y-38.535
G2 X-48.191 Y-38.095 I1.061 J-1.061
G1 X-47.429
X-47.008 Y-37.826
Y-36.747
X-47.081 Y-36.386
X-47.186 Y-35.935
X-47.294 Y-35.523
X-47.406 Y-35.149
X-47.522 Y-34.809
X-47.642 Y-34.494
X-47.768 Y-34.193
X-47.904 Y-33.888
X-47.906 Y-33.883
X-48.182 Y-33.256
X-48.21 Y-33.189
X-48.336 Y-32.862
X-48.364 Y-32.782
X-48.476 Y-32.432
X-48.497 Y-32.361
X-48.547 Y-32.174
X-48.559 Y-32.125
X-48.605 Y-31.929
X-48.616 Y-31.878
X-48.656 Y-31.673
X-48.665 Y-31.623
X-48.7 Y-31.407
X-48.707 Y-31.36
X-48.736 Y-31.134
X-48.741 Y-31.088
X-48.764 Y-30.851
X-48.768 Y-30.807
X-48.785 Y-30.56
X-48.787 Y-30.518
X-48.798 Y-30.261
X-48.799 Y-30.222
X-48.803 Y-29.954
Y-29.916
X-48.8 Y-29.639
X-48.799 Y-29.605
X-48.79 Y-29.319
X-48.788 Y-29.284
X-48.771 Y-28.99
X-48.768 Y-28.941
X-48.713 Y-28.331
X-48.707 Y-28.269
X-48.624 Y-27.634
X-48.615 Y-27.576
X-48.503 Y-26.922
X-48.493 Y-26.866
X-48.352 Y-26.199
X-48.34 Y-26.144
X-48.171 Y-25.469
X-48.157 Y-25.416
X-47.96 Y-24.736
X-47.944 Y-24.684
X-47.72 Y-24.003
X-47.702 Y-23.952
X-47.451 Y-23.272
X-47.432 Y-23.223
X-47.154 Y-22.546
X-47.133 Y-22.498
X-46.829 Y-21.825
X-46.807 Y-21.778
X-46.478 Y-21.111
X-46.455 Y-21.066
X-46.1 Y-20.404
X-46.076 Y-20.361
X-45.695 Y-19.704
X-45.671 Y-19.663
X-45.409 Y-19.243
X-45.388 Y-19.134
X-46.162 Y-18.746
G2 X-46.915 Y-17.876 I0.671 J1.342
X-46.83 Y-16.727 I1.424 J0.471
G1 X-46.554 Y-16.182
X-46.288 Y-15.637
X-46.026 Y-15.081
X-45.769 Y-14.514
X-45.516 Y-13.936
X-45.269 Y-13.348
X-45.026 Y-12.748
X-44.789 Y-12.137
X-44.557 Y-11.514
X-44.33 Y-10.88
X-44.109 Y-10.233
X-43.893 Y-9.574
X-43.683 Y-8.903
X-43.479 Y-8.218
X-43.28 Y-7.52
X-43.087 Y-6.809
X-42.899 Y-6.084
X-42.717 Y-5.347
X-42.54 Y-4.597
X-42.369 Y-3.834
X-42.202 Y-3.059
X-42.041 Y-2.272
X-41.885 Y-1.474
X-41.734 Y-0.665
X-41.587 Y0.156
X-41.444 Y0.987
X-41.307 Y1.827
X-41.173 Y2.678
X-41.044 Y3.539
X-40.919 Y4.406
X-40.804 Y5.269
X-43.068 Y6.817
X-45.191
G2 X-46.374 Y7.395 I0. J1.5
G1 X-46.425 Y7.46
X-46.472 Y7.515
X-46.536 Y7.588
X-46.619 Y7.677
X-46.835 Y7.904
X-46.865 Y7.936
X-47.101 Y8.201
X-47.166 Y8.279
X-47.28 Y8.424
X-47.348 Y8.518
X-47.45 Y8.673
X-47.492 Y8.74
X-47.53 Y8.809
X-47.616 Y8.974
X-47.658 Y9.063
X-47.695 Y9.155
X-47.758 Y9.33
X-47.793 Y9.44
X-47.82 Y9.552
X-47.856 Y9.737
X-47.875 Y9.859
X-47.883 Y9.981
X-47.889 Y10.177
X-47.888 Y10.295
X-47.877 Y10.414
X-47.85 Y10.619
X-47.833 Y10.722
X-47.809 Y10.825
X-47.75 Y11.038
X-47.724 Y11.122
X-47.693 Y11.205
X-47.604 Y11.425
X-47.545 Y11.552
X-47.428 Y11.777
X-47.373 Y11.873
X-47.232 Y12.101
X-47.186 Y12.171
X-47.026 Y12.4
X-46.973 Y12.471
X-46.618 Y12.92
X-46.574 Y12.974
X-46.203 Y13.4
X-46.185 Y13.42
X-46.005 Y13.62
X-45.999 Y13.626
X-45.825 Y13.816
X-45.823 Y13.819
X-45.659 Y13.998
X-45.507 Y14.164
X-45.367 Y14.317
X-45.242 Y14.456
X-45.13 Y14.582
X-45.026 Y14.7
G3 X-45.054 Y15.124 I-0.226 J0.198
G1 X-45.28 Y15.321
X-45.33 Y15.365 Z-15.729
X-45.378 Y15.407 Z-15.707
X-45.421 Y15.445 Z-15.671
X-45.457 Y15.476 Z-15.624
X-45.483 Y15.499 Z-15.567
X-45.5 Y15.514 Z-15.503
X-45.506 Y15.519 Z-15.437
G0 Z5.
X-44.198 Y16.112
G1 Z1. F133.3
Z-15.437
Y16.104 Z-15.503 F400
Y16.082 Z-15.567
Y16.047 Z-15.624
Y15.999 Z-15.671
Y15.942 Z-15.707
Y15.879 Z-15.729
Y15.812 Z-15.736
Y15.512
G3 X-43.898 Y15.212 I0.3 J0.
G1 X-42.588
X-41.695 Y15.908
X-43.321 Y18.348
G2 X-43.475 Y18.648 I1.248 J0.832
G1 X-43.869 Y19.687
X-44.287 Y20.718
X-44.727 Y21.77
X-44.734 Y21.789
X-44.95 Y22.327
X-44.964 Y22.364
X-45.167 Y22.911
X-45.188 Y22.969
X-45.37 Y23.53
X-45.393 Y23.609
X-45.546 Y24.185
X-45.563 Y24.256
X-45.626 Y24.55
X-45.636 Y24.601
X-45.689 Y24.898
X-45.698 Y24.953
X-45.74 Y25.254
X-45.747 Y25.31
X-45.778 Y25.613
X-45.783 Y25.67
X-45.802 Y25.974
X-45.805 Y26.033
X-45.812 Y26.337
X-45.813 Y26.395
X-45.808 Y26.698
X-45.806 Y26.758
X-45.79 Y27.058
X-45.786 Y27.119
X-45.758 Y27.414
X-45.751 Y27.476
X-45.711 Y27.765
X-45.701 Y27.831
X-45.649 Y28.111
X-45.635 Y28.181
X-45.572 Y28.452
X-45.552 Y28.526
X-45.478 Y28.786
X-45.452 Y28.867
X-45.365 Y29.115
X-45.332 Y29.201
X-45.233 Y29.437
X-45.191 Y29.529
X-45.079 Y29.752
X-45.025 Y29.849
X-44.9 Y30.059
X-44.836 Y30.156
X-44.696 Y30.354
X-44.623 Y30.449
X-44.467 Y30.635
X-44.388 Y30.723
X-44.215 Y30.899
X-44.133 Y30.977
X-43.943 Y31.143
X-43.862 Y31.21
X-43.654 Y31.367
X-43.577 Y31.422
X-43.351 Y31.572
X-43.28 Y31.616
X-43.035 Y31.76
X-42.973 Y31.795
X-42.709 Y31.933
X-42.656 Y31.96
X-42.373 Y32.095
X-42.327 Y32.116
X-42.027 Y32.246
X-41.986 Y32.263
X-41.67 Y32.389
X-41.636 Y32.402
X-41.305 Y32.525
X-41.275 Y32.536
X-40.93 Y32.656
X-40.893 Y32.668
X-40.173 Y32.897
X-40.13 Y32.91
X-39.385 Y33.123
X-39.346 Y33.133
X-38.593 Y33.326
X-38.555 Y33.335
X-37.814 Y33.505
X-37.784 Y33.512
X-37.422 Y33.587
X-37.401 Y33.591
X-37.048 Y33.659
X-37.025 Y33.663
X-36.963 Y33.674
Y34.252
X-38.796
G2 X-40.296 Y35.752 I0. J1.5
G1 Y39.085
G2 X-38.796 Y40.585 I1.5 J0.
G1 X-36.963
Y42.418
G2 X-35.463 Y43.918 I1.5 J0.
G1 X-32.13
G2 X-30.629 Y42.418 I0. J-1.5
G1 Y40.585
X-28.796
G2 X-27.296 Y39.085 I0. J-1.5
G1 Y35.752
G2 X-28.796 Y34.252 I-1.5 J0.
G1 X-30.629
Y33.674
X-30.568 Y33.663
X-30.545 Y33.659
X-30.192 Y33.591
X-30.17 Y33.587
X-29.809 Y33.512
X-29.779 Y33.505
X-29.037 Y33.335
X-28.999 Y33.326
X-28.246 Y33.133
X-28.208 Y33.122
X-27.462 Y32.91
X-27.419 Y32.897
X-26.7 Y32.668
X-26.662 Y32.656
X-26.318 Y32.536
X-26.287 Y32.525
X-25.956 Y32.402
X-25.922 Y32.389
X-25.606 Y32.262
X-25.566 Y32.246
X-25.266 Y32.116
X-25.219 Y32.095
X-24.937 Y31.96
X-24.883 Y31.933
X-24.619 Y31.795
X-24.557 Y31.76
X-24.312 Y31.616
X-24.242 Y31.573
X-24.016 Y31.422
X-23.939 Y31.367
X-23.731 Y31.21
X-23.649 Y31.143
X-23.459 Y30.977
X-23.377 Y30.899
X-23.205 Y30.723
X-23.125 Y30.635
X-22.969 Y30.449
X-22.896 Y30.354
X-22.756 Y30.156
X-22.693 Y30.059
X-22.567 Y29.848
X-22.514 Y29.752
X-22.402 Y29.529
X-22.36 Y29.437
X-22.261 Y29.202
X-22.227 Y29.115
X-22.14 Y28.867
X-22.115 Y28.786
X-22.04 Y28.526
X-22.021 Y28.452
X-21.958 Y28.181
X-21.943 Y28.111
X-21.892 Y27.831
X-21.881 Y27.765
X-21.842 Y27.476
X-21.835 Y27.414
X-21.807 Y27.119
X-21.802 Y27.058
X-21.786 Y26.758
X-21.784 Y26.698
X-21.78 Y26.395
Y26.337
X-21.788 Y26.033
X-21.79 Y25.974
X-21.81 Y25.67
X-21.815 Y25.613
X-21.846 Y25.31
X-21.852 Y25.254
X-21.895 Y24.953
X-21.903 Y24.898
X-21.957 Y24.601
X-21.966 Y24.55
X-22.029 Y24.256
X-22.046 Y24.185
X-22.199 Y23.609
X-22.223 Y23.53
X-22.405 Y22.969
X-22.425 Y22.911
X-22.628 Y22.364
X-22.642 Y22.327
X-22.858 Y21.789
X-22.866 Y21.77
X-23.305 Y20.718
X-23.724 Y19.687
X-24.117 Y18.648
G2 X-24.272 Y18.348 I-1.403 J0.531
G1 X-25.898 Y15.908
X-25.004 Y15.212
X-23.694
G3 X-23.394 Y15.512 I0. J0.3
G1 Y15.812
Y15.879 Z-15.729
Y15.942 Z-15.707
Y15.999 Z-15.671
Y16.047 Z-15.624
Y16.082 Z-15.567
Y16.104 Z-15.503
Y16.112 Z-15.437
G0 Z15.

(Parallel1)
G64
X49.748 Y-43.338
Z15.
Z-7.637
G1 Z-15.426 F266.7
X49.741 Z-15.492 F800
X49.719 Z-15.556
X49.683 Z-15.613
X49.635 Z-15.66
X49.578 Z-15.696
X49.515 Z-15.718
X49.448 Z-15.726
X49.433 Z-15.204
X49.371 Z-14.433
X49.27 Z-13.673
X49.13 Z-12.928
X48.952 Z-12.189
X48.734 Z-11.457
X48.481 Z-10.743
X48.189 Z-10.036
X47.863 Z-9.352
X47.502 Z-8.684
X47.11 Z-8.038
X46.68 Z-7.406
X46.216 Z-6.794
X45.727 Z-6.214
X45.236 Z-5.687
X45.019 Z-5.472
X44.616 Z-5.085
X44.066 Z-4.605
X43.473 Z-4.137
X43.182 Z-3.927
X42.762 Z-3.632
X42.101 Z-3.215
X41.396 Z-2.819
X40.666 Z-2.457
X39.913 Z-2.13
X39.141 Z-1.841
X38.352 Z-1.592
X37.553 Z-1.385
X36.796 Z-1.231
X36.042 Z-1.117
X35.27 Z-1.041
X34.528 Z-1.005
X32.944 Z-1.009
X32.18 Z-1.052
X31.409 Z-1.136
X30.651 Z-1.258
X29.893 Z-1.42
X29.129 Z-1.625
X28.368 Z-1.871
X27.602 Z-2.162
X26.864 Z-2.486
X26.143 Z-2.848
X25.45 Z-3.241
X24.781 Z-3.666
X24.15 Z-4.114
X23.557 Z-4.579
X23.085 Z-4.99
X22.906 Z-5.151
X22.389 Z-5.652
X21.892 Z-6.185
X21.516 Z-6.627
X21.334 Z-6.849
X20.901 Z-7.422
X20.47 Z-8.058
X20.072 Z-8.715
X19.706 Z-9.398
X19.379 Z-10.093
X19.087 Z-10.807
X18.836 Z-11.527
X18.622 Z-12.259
X18.447 Z-12.999
X18.31 Z-13.753
X18.213 Z-14.51
X18.158 Z-15.223
X18.144 Z-15.716
X18.098 Z-15.708
X18.056 Z-15.687
X18.023 Z-15.654
X18.002 Z-15.612
X17.994 Z-15.566
X17.987 Z-15.519
X17.966 Z-15.478
X17.933 Z-15.444
X17.891 Z-15.423
X17.844 Z-15.416
X15.734
X15.688 Z-15.423
X15.646 Z-15.444
X15.613 Z-15.478
X15.591 Z-15.519
X15.584 Z-15.566
Z-15.586
X15.577 Z-15.633
X15.555 Z-15.675
X15.522 Z-15.708
X15.48 Z-15.729
X15.434 Z-15.736
X15.417 Z-15.183
X15.359 Z-14.452
X15.251 Z-13.66
X15.116 Z-12.938
X14.937 Z-12.201
X14.723 Z-11.479
X14.467 Z-10.76
X14.174 Z-10.055
X13.845 Z-9.366
X13.48 Z-8.695
X13.08 Z-8.042
X12.656 Z-7.422
X12.201 Z-6.826
X11.728 Z-6.265
X11.314 Z-5.821
X11.126 Z-5.627
X10.664 Z-5.182
X10.278 Z-4.84
X9.977 Z-4.586
X9.495 Z-4.209
X9.297 Z-4.063
X8.826 Z-3.733
X8.517 Z-3.534
X8.089 Z-3.267
X7.476 Z-2.923
X7.206 Z-2.784
X6.72 Z-2.545
X6.008 Z-2.234
X5.631 Z-2.089
X5.169 Z-1.919
X4.414 Z-1.68
X3.615 Z-1.471
X2.777 Z-1.297
X1.949 Z-1.169
X1.114 Z-1.084
X0.254 Z-1.042
X-0.647 Z-1.046
X-1.442 Z-1.09
X-2.278 Z-1.178
X-3.094 Z-1.307
X-3.913 Z-1.48
X-4.709 Z-1.69
X-5.483 Z-1.938
X-6.228 Z-2.218
X-6.782 Z-2.456
X-7.036 Z-2.571
X-7.707 Z-2.907
X-8.204 Z-3.185
X-8.436 Z-3.319
X-9.001 Z-3.675
X-9.405 Z-3.955
X-9.725 Z-4.186
X-10.191 Z-4.549
X-10.371 Z-4.697
X-10.853 Z-5.116
X-11.28 Z-5.523
X-11.488 Z-5.729
X-11.954 Z-6.226
X-12.392 Z-6.741
X-12.527 Z-6.909
X-12.942 Z-7.457
X-13.371 Z-8.087
X-13.771 Z-8.746
X-14.134 Z-9.421
X-14.461 Z-10.113
X-14.752 Z-10.825
X-15.004 Z-11.543
X-15.218 Z-12.274
X-15.392 Z-13.011
X-15.529 Z-13.764
X-15.624 Z-14.491
X-15.682 Z-15.248
X-15.695 Z-15.736
X-15.741 Z-15.729
X-15.783 Z-15.708
X-15.816 Z-15.675
X-15.837 Z-15.633
X-15.845 Z-15.586
X-15.852 Z-15.54
X-15.873 Z-15.498
X-15.906 Z-15.465
X-15.948 Z-15.444
X-15.995 Z-15.436
X-17.768
X-17.815 Z-15.444
X-17.857 Z-15.465
X-17.89 Z-15.498
X-17.911 Z-15.54
X-17.918 Z-15.586
Z-15.587
X-17.926 Z-15.633
X-17.947 Z-15.675
X-17.98 Z-15.708
X-18.022 Z-15.729
X-18.068 Z-15.736
X-18.083 Z-15.202
X-18.144 Z-14.44
X-18.246 Z-13.676
X-18.386 Z-12.922
X-18.565 Z-12.18
X-18.782 Z-11.446
X-19.038 Z-10.723
X-19.328 Z-10.021
X-19.653 Z-9.335
X-20.014 Z-8.665
X-20.409 Z-8.013
X-20.842 Z-7.375
X-21.307 Z-6.761
X-21.806 Z-6.167
X-22.339 Z-5.596
X-22.901 Z-5.052
X-23.493 Z-4.534
X-24.116 Z-4.044
X-24.767 Z-3.584
X-25.449 Z-3.153
X-26.157 Z-2.755
X-26.878 Z-2.397
X-27.616 Z-2.078
X-28.337 Z-1.81
X-29.078 Z-1.578
X-29.825 Z-1.385
X-30.582 Z-1.231
X-31.336 Z-1.117
X-32.108 Z-1.041
X-32.851 Z-1.005
X-34.861 Z-1.009
X-35.628 Z-1.052
X-36.393 Z-1.135
X-37.161 Z-1.258
X-37.913 Z-1.419
X-38.66 Z-1.62
X-39.393 Z-1.858
X-40.113 Z-2.134
X-40.81 Z-2.442
X-41.511 Z-2.795
X-42.214 Z-3.195
X-42.881 Z-3.622
X-43.53 Z-4.085
X-44.146 Z-4.574
X-44.735 Z-5.092
X-45.292 Z-5.635
X-45.822 Z-6.208
X-46.317 Z-6.802
X-46.779 Z-7.416
X-47.207 Z-8.05
X-47.604 Z-8.709
X-47.969 Z-9.395
X-48.296 Z-10.093
X-48.584 Z-10.801
X-48.836 Z-11.525
X-49.046 Z-12.248
X-49.221 Z-12.989
X-49.357 Z-13.744
X-49.454 Z-14.502
X-49.51 Z-15.216
X-49.524 Z-15.736
X-49.697 Y-43.166
X-49.868 Y-42.993
X-50.02 Y-42.803
X-50.084 Y-42.699
X-50.141 Y-42.588
X-50.128 Z-15.25
X-50.073 Z-14.522
X-49.977 Z-13.75
X-49.843 Z-12.994
X-49.67 Z-12.243
X-49.458 Z-11.5
X-49.208 Z-10.77
X-48.921 Z-10.055
X-48.598 Z-9.355
X-48.237 Z-8.67
X-47.844 Z-8.008
X-47.417 Z-7.366
X-46.956 Z-6.745
X-46.466 Z-6.151
X-45.944 Z-5.581
X-45.395 Z-5.041
X-44.817 Z-4.528
X-44.215 Z-4.046
X-43.588 Z-3.596
X-42.938 Z-3.178
X-42.27 Z-2.796
X-41.58 Z-2.446
X-40.876 Z-2.134
X-40.153 Z-1.858
X-39.419 Z-1.62
X-38.676 Z-1.42
X-37.918 Z-1.258
X-37.16 Z-1.136
X-36.39 Z-1.052
X-35.598 Z-1.008
X-32.088 Z-1.005
X-31.345 Z-1.041
X-30.573 Z-1.117
X-29.819 Z-1.231
X-29.062 Z-1.386
X-28.315 Z-1.578
X-27.579 Z-1.809
X-26.854 Z-2.079
X-26.145 Z-2.384
X-25.455 Z-2.725
X-24.783 Z-3.101
X-24.129 Z-3.513
X-23.498 Z-3.957
X-22.89 Z-4.433
X-22.307 Z-4.94
X-21.753 Z-5.475
X-21.225 Z-6.039
X-20.729 Z-6.628
X-20.262 Z-7.243
X-19.829 Z-7.881
X-19.428 Z-8.541
X-19.062 Z-9.22
X-18.732 Z-9.917
X-18.437 Z-10.63
X-18.18 Z-11.358
X-17.961 Z-12.097
X-17.779 Z-12.849
X-17.637 Z-13.608
X-17.535 Z-14.369
X-17.471 Z-15.145
X-17.452 Z-15.736
X-17.406 Z-15.729
X-17.364 Z-15.708
X-17.331 Z-15.675
X-17.309 Z-15.633
X-17.302 Z-15.586
X-17.295 Z-15.512
X-17.273 Z-15.44
X-17.237 Z-15.374
X-17.19 Z-15.316
X-17.132 Z-15.269
X-17.066 Z-15.233
X-16.994 Z-15.212
X-16.92 Z-15.204
X-16.845 Z-15.212
X-16.773 Z-15.233
X-16.707 Z-15.269
X-16.649 Z-15.316
X-16.602 Z-15.374
X-16.566 Z-15.44
X-16.545 Z-15.512
X-16.537 Z-15.586
Z-15.587
X-16.53 Z-15.633
X-16.509 Z-15.675
X-16.476 Z-15.708
X-16.434 Z-15.729
X-16.387 Z-15.736
X-16.375 Z-15.275
X-16.319 Z-14.511
X-16.225 Z-13.755
X-16.089 Z-12.989
X-15.916 Z-12.239
X-15.705 Z-11.502
X-15.455 Z-10.772
X-15.167 Z-10.053
X-14.844 Z-9.353
X-14.485 Z-8.671
X-14.09 Z-8.006
X-13.663 Z-7.365
X-13.204 Z-6.746
X-12.712 Z-6.15
X-12.192 Z-5.583
X-11.641 Z-5.04
X-11.063 Z-4.528
X-10.461 Z-4.046
X-9.833 Z-3.595
X-9.184 Z-3.178
X-8.515 Z-2.795
X-7.828 Z-2.447
X-7.121 Z-2.134
X-6.401 Z-1.858
X-5.667 Z-1.62
X-4.921 Z-1.419
X-4.168 Z-1.258
X-3.405 Z-1.136
X-2.635 Z-1.052
X-1.859 Z-1.008
X1.487 Z-1.005
X2.23 Z-1.041
X3.001 Z-1.117
X3.766 Z-1.232
X4.52 Z-1.386
X5.266 Z-1.579
X6.002 Z-1.81
X6.724 Z-2.078
X7.433 Z-2.384
X8.123 Z-2.725
X8.798 Z-3.102
X9.449 Z-3.512
X10.08 Z-3.956
X10.688 Z-4.432
X11.271 Z-4.939
X11.825 Z-5.474
X12.353 Z-6.038
X12.85 Z-6.629
X13.317 Z-7.245
X13.749 Z-7.88
X14.15 Z-8.54
X14.517 Z-9.222
X14.848 Z-9.918
X15.142 Z-10.632
X15.399 Z-11.36
X15.619 Z-12.1
X15.799 Z-12.847
X15.941 Z-13.605
X16.045 Z-14.376
X16.108 Z-15.144
X16.127 Z-15.736
X16.173 Z-15.728
X16.215 Z-15.707
X16.248 Z-15.674
X16.269 Z-15.632
X16.277 Z-15.586
Z-15.57
X16.284 Z-15.524
X16.305 Z-15.482
X16.338 Z-15.449
X16.38 Z-15.427
X16.427 Z-15.42
X17.189
X17.236 Z-15.427
X17.278 Z-15.449
X17.311 Z-15.482
X17.332 Z-15.524
X17.339 Z-15.57
X17.347 Z-15.616
X17.368 Z-15.658
X17.401 Z-15.691
X17.443 Z-15.713
X17.489 Z-15.72
X17.501 Z-15.258
X17.557 Z-14.506
X17.652 Z-13.751
X17.786 Z-12.995
X17.959 Z-12.244
X18.172 Z-11.501
X18.422 Z-10.77
X18.708 Z-10.056
X19.032 Z-9.355
X19.392 Z-8.67
X19.785 Z-8.008
X20.214 Z-7.364
X20.673 Z-6.745
X21.165 Z-6.15
X21.685 Z-5.582
X22.237 Z-5.039
X22.812 Z-4.529
X23.414 Z-4.047
X24.041 Z-3.596
X24.691 Z-3.179
X25.362 Z-2.794
X26.049 Z-2.447
X26.757 Z-2.133
X27.476 Z-1.858
X28.21 Z-1.62
X28.959 Z-1.419
X29.711 Z-1.258
X30.469 Z-1.136
X31.243 Z-1.052
X32.024 Z-1.008
X35.463 Z-1.005
X36.205 Z-1.041
X36.977 Z-1.117
X37.741 Z-1.232
X38.496 Z-1.386
X39.241 Z-1.579
X39.978 Z-1.81
X40.7 Z-2.078
X41.408 Z-2.383
X42.099 Z-2.724
X42.774 Z-3.102
X43.428 Z-3.513
X44.059 Z-3.957
X44.664 Z-4.431
X45.246 Z-4.938
X45.803 Z-5.475
X46.33 Z-6.039
X46.826 Z-6.628
X47.293 Z-7.244
X47.727 Z-7.882
X48.128 Z-8.542
X48.494 Z-9.221
X48.824 Z-9.917
X49.118 Z-10.631
X49.376 Z-11.359
X49.595 Z-12.098
X49.776 Z-12.851
X49.918 Z-13.609
X50.022 Z-14.379
X50.084 Z-15.136
X50.103 Z-15.723
X50.183 Y-42.409 Z-15.726
X50.238 Y-42.224 Z-15.73
X50.269 Y-42.034 Z-15.733
X50.276 Y-41.838 Z-15.736
X50.26 Z-15.18
X50.198 Z-14.404
X50.097 Z-13.64
X49.958 Z-12.888
X49.777 Z-12.129
X49.559 Z-11.389
X49.304 Z-10.661
X49.011 Z-9.948
X48.683 Z-9.251
X48.319 Z-8.573
X47.921 Z-7.913
X47.488 Z-7.273
X47.024 Z-6.658
X46.525 Z-6.063
X45.999 Z-5.497
X45.445 Z-4.961
X44.865 Z-4.454
X44.261 Z-3.978
X43.63 Z-3.532
X42.976 Z-3.118
X42.304 Z-2.741
X41.617 Z-2.399
X40.909 Z-2.092
X40.188 Z-1.822
X39.448 Z-1.587
X38.703 Z-1.393
X37.951 Z-1.238
X37.206 Z-1.123
X36.434 Z-1.044
X35.663 Z-1.005
X31.847 Z-1.008
X31.122 Z-1.047
X30.335 Z-1.13
X29.577 Z-1.249
X28.823 Z-1.409
X28.069 Z-1.61
X27.339 Z-1.844
X26.612 Z-2.121
X25.91 Z-2.43
X25.218 Z-2.778
X24.547 Z-3.16
X23.898 Z-3.576
X23.271 Z-4.024
X22.667 Z-4.504
X22.09 Z-5.014
X21.536 Z-5.557
X21.012 Z-6.125
X20.52 Z-6.719
X20.061 Z-7.333
X19.63 Z-7.978
X19.237 Z-8.637
X18.874 Z-9.322
X18.55 Z-10.019
X18.262 Z-10.732
X18.01 Z-11.461
X17.796 Z-12.202
X17.621 Z-12.949
X17.484 Z-13.711
X17.386 Z-14.481
X17.331 Z-15.201
X17.316 Z-15.736
X17.27 Z-15.729
X17.228 Z-15.708
X17.195 Z-15.675
X17.174 Z-15.633
X17.166 Z-15.587
X17.159 Z-15.517
X17.137 Z-15.451
X17.103 Z-15.39
X17.056 Z-15.339
X16.999 Z-15.298
X16.936 Z-15.269
X16.868 Z-15.255
X16.798
X16.73 Z-15.269
X16.666 Z-15.298
X16.61 Z-15.339
X16.563 Z-15.39
X16.528 Z-15.451
X16.507 Z-15.517
X16.499 Z-15.587
X16.492 Z-15.633
X16.471 Z-15.675
X16.437 Z-15.708
X16.396 Z-15.729
X16.349 Z-15.736
X16.33 Z-15.135
X16.267 Z-14.377
X16.164 Z-13.61
X16.022 Z-12.851
X15.841 Z-12.098
X15.621 Z-11.359
X15.364 Z-10.631
X15.07 Z-9.917
X14.74 Z-9.221
X14.374 Z-8.542
X13.973 Z-7.882
X13.539 Z-7.244
X13.072 Z-6.628
X12.576 Z-6.039
X12.049 Z-5.475
X11.492 Z-4.938
X10.91 Z-4.431
X10.304 Z-3.957
X9.674 Z-3.513
X9.019 Z-3.102
X8.345 Z-2.724
X7.654 Z-2.383
X6.946 Z-2.078
X6.224 Z-1.81
X5.487 Z-1.579
X4.741 Z-1.386
X3.987 Z-1.232
X3.223 Z-1.117
X2.451 Z-1.041
X1.709 Z-1.005
X-2.079 Z-1.008
X-2.858 Z-1.052
X-3.628 Z-1.136
X-4.391 Z-1.258
X-5.143 Z-1.419
X-5.89 Z-1.62
X-6.623 Z-1.858
X-7.343 Z-2.134
X-8.051 Z-2.447
X-8.738 Z-2.795
X-9.407 Z-3.178
X-10.056 Z-3.595
X-10.683 Z-4.046
X-11.286 Z-4.528
X-11.863 Z-5.04
X-12.414 Z-5.583
X-12.934 Z-6.15
X-13.426 Z-6.746
X-13.886 Z-7.365
X-14.313 Z-8.006
X-14.708 Z-8.671
X-15.066 Z-9.353
X-15.39 Z-10.053
X-15.678 Z-10.772
X-15.928 Z-11.502
X-16.139 Z-12.239
X-16.312 Z-12.989
X-16.447 Z-13.754
X-16.542 Z-14.511
X-16.598 Z-15.275
X-16.609 Z-15.72
X-16.656 Z-15.713
X-16.698 Z-15.691
X-16.731 Z-15.658
X-16.752 Z-15.616
X-16.759 Z-15.57
X-16.766 Z-15.517
X-16.787 Z-15.468
X-16.819 Z-15.426
X-16.861 Z-15.394
X-16.91 Z-15.374
X-16.963 Z-15.367
X-17.015 Z-15.374
X-17.065 Z-15.394
X-17.107 Z-15.426
X-17.139 Z-15.468
X-17.159 Z-15.517
X-17.166 Z-15.57
Z-15.586
X-17.174 Z-15.633
X-17.195 Z-15.674
X-17.228 Z-15.708
X-17.27 Z-15.729
X-17.316 Z-15.736
X-17.331 Z-15.198
X-17.393 Z-14.417
X-17.494 Z-13.651
X-17.634 Z-12.889
X-17.816 Z-12.13
X-18.033 Z-11.39
X-18.289 Z-10.662
X-18.581 Z-9.948
X-18.909 Z-9.252
X-19.273 Z-8.573
X-19.671 Z-7.913
X-20.104 Z-7.273
X-20.572 Z-6.653
X-21.067 Z-6.063
X-21.593 Z-5.498
X-22.147 Z-4.961
X-22.727 Z-4.454
X-23.331 Z-3.979
X-23.962 Z-3.532
X-24.616 Z-3.119
X-25.288 Z-2.741
X-25.982 Z-2.396
X-26.682 Z-2.092
X-27.413 Z-1.819
X-28.144 Z-1.588
X-28.888 Z-1.394
X-29.64 Z-1.238
X-30.414 Z-1.12
X-31.157 Z-1.044
X-31.928 Z-1.005
X-35.745 Z-1.008
X-36.47 Z-1.047
X-37.257 Z-1.13
X-38.015 Z-1.249
X-38.77 Z-1.409
X-39.523 Z-1.609
X-40.253 Z-1.844
X-40.981 Z-2.121
X-41.682 Z-2.429
X-42.375 Z-2.778
X-43.046 Z-3.16
X-43.695 Z-3.576
X-44.322 Z-4.024
X-44.926 Z-4.504
X-45.503 Z-5.014
X-46.057 Z-5.557
X-46.576 Z-6.121
X-47.073 Z-6.72
X-47.531 Z-7.334
X-47.963 Z-7.978
X-48.356 Z-8.637
X-48.718 Z-9.322
X-49.042 Z-10.019
X-49.331 Z-10.733
X-49.582 Z-11.461
X-49.796 Z-12.203
X-49.971 Z-12.95
X-50.108 Z-13.712
X-50.206 Z-14.483
X-50.262 Z-15.203
X-50.276 Z-15.736
Y-41.088
X-50.262 Z-15.203
X-50.206 Z-14.483
X-50.108 Z-13.712
X-49.971 Z-12.95
X-49.796 Z-12.203
X-49.582 Z-11.461
X-49.331 Z-10.733
X-49.042 Z-10.019
X-48.718 Z-9.322
X-48.356 Z-8.638
X-47.963 Z-7.978
X-47.531 Z-7.334
X-47.073 Z-6.72
X-46.576 Z-6.121
X-46.057 Z-5.557
X-45.503 Z-5.014
X-44.926 Z-4.504
X-44.322 Z-4.024
X-43.695 Z-3.576
X-43.046 Z-3.16
X-42.375 Z-2.778
X-41.682 Z-2.429
X-40.981 Z-2.121
X-40.253 Z-1.844
X-39.523 Z-1.609
X-38.77 Z-1.409
X-38.015 Z-1.249
X-37.257 Z-1.13
X-36.47 Z-1.047
X-35.745 Z-1.008
X-31.928 Z-1.005
X-31.157 Z-1.044
X-30.414 Z-1.12
X-29.64 Z-1.238
X-28.888 Z-1.394
X-28.144 Z-1.588
X-27.413 Z-1.819
X-26.682 Z-2.092
X-25.982 Z-2.396
X-25.288 Z-2.741
X-24.616 Z-3.119
X-23.962 Z-3.532
X-23.331 Z-3.979
X-22.727 Z-4.454
X-22.147 Z-4.961
X-21.593 Z-5.498
X-21.067 Z-6.063
X-20.572 Z-6.653
X-20.104 Z-7.273
X-19.671 Z-7.913
X-19.273 Z-8.573
X-18.909 Z-9.252
X-18.581 Z-9.948
X-18.289 Z-10.662
X-18.033 Z-11.39
X-17.816 Z-12.13
X-17.634 Z-12.889
X-17.494 Z-13.651
X-17.393 Z-14.417
X-17.331 Z-15.198
X-17.316 Z-15.736
X-17.27 Z-15.729
X-17.228 Z-15.708
X-17.195 Z-15.674
X-17.174 Z-15.633
X-17.166 Z-15.586
Z-15.582
X-17.159 Z-15.529
X-17.139 Z-15.48
X-17.107 Z-15.438
X-17.065 Z-15.406
X-17.016 Z-15.386
X-16.963 Z-15.379
X-16.911 Z-15.386
X-16.862 Z-15.406
X-16.82 Z-15.438
X-16.787 Z-15.48
X-16.767 Z-15.529
X-16.76 Z-15.582
X-16.753 Z-15.628
X-16.732 Z-15.67
X-16.698 Z-15.703
X-16.657 Z-15.724
X-16.61 Z-15.732
X-16.596 Z-15.201
X-16.54 Z-14.481
X-16.442 Z-13.711
X-16.305 Z-12.95
X-16.13 Z-12.202
X-15.916 Z-11.461
X-15.665 Z-10.732
X-15.376 Z-10.019
X-15.052 Z-9.322
X-14.69 Z-8.637
X-14.296 Z-7.978
X-13.865 Z-7.333
X-13.407 Z-6.719
X-12.914 Z-6.125
X-12.391 Z-5.557
X-11.837 Z-5.014
X-11.26 Z-4.504
X-10.656 Z-4.024
X-10.029 Z-3.576
X-9.38 Z-3.16
X-8.709 Z-2.778
X-8.016 Z-2.43
X-7.315 Z-2.121
X-6.587 Z-1.844
X-5.857 Z-1.61
X-5.104 Z-1.409
X-4.349 Z-1.249
X-3.591 Z-1.13
X-2.805 Z-1.047
X-2.08 Z-1.008
X1.736 Z-1.005
X2.507 Z-1.044
X3.279 Z-1.123
X4.024 Z-1.238
X4.776 Z-1.393
X5.521 Z-1.587
X6.261 Z-1.822
X6.982 Z-2.092
X7.691 Z-2.399
X8.378 Z-2.741
X9.049 Z-3.118
X9.704 Z-3.532
X10.335 Z-3.978
X10.938 Z-4.454
X11.519 Z-4.961
X12.072 Z-5.497
X12.598 Z-6.063
X13.097 Z-6.658
X13.561 Z-7.273
X13.995 Z-7.913
X14.393 Z-8.573
X14.756 Z-9.251
X15.085 Z-9.948
X15.377 Z-10.661
X15.633 Z-11.389
X15.85 Z-12.129
X16.032 Z-12.888
X16.172 Z-13.648
X16.273 Z-14.42
X16.333 Z-15.168
X16.35 Z-15.736
X16.396 Z-15.729
X16.438 Z-15.708
X16.471 Z-15.675
X16.492 Z-15.633
X16.5 Z-15.587
X16.507 Z-15.517
X16.529 Z-15.451
X16.563 Z-15.391
X16.61 Z-15.339
X16.666 Z-15.298
X16.73 Z-15.27
X16.798 Z-15.255
X16.868
X16.936 Z-15.27
X17. Z-15.298
X17.056 Z-15.339
X17.103 Z-15.391
X17.137 Z-15.451
X17.159 Z-15.517
X17.166 Z-15.587
X17.174 Z-15.633
X17.195 Z-15.675
X17.228 Z-15.708
X17.27 Z-15.729
X17.316 Z-15.736
X17.331 Z-15.201
X17.386 Z-14.481
X17.484 Z-13.711
X17.621 Z-12.949
X17.796 Z-12.202
X18.01 Z-11.461
X18.262 Z-10.732
X18.55 Z-10.019
X18.874 Z-9.322
X19.237 Z-8.637
X19.63 Z-7.978
X20.061 Z-7.333
X20.52 Z-6.719
X21.012 Z-6.125
X21.536 Z-5.557
X22.09 Z-5.014
X22.667 Z-4.504
X23.271 Z-4.024
X23.898 Z-3.576
X24.547 Z-3.16
X25.218 Z-2.778
X25.91 Z-2.43
X26.612 Z-2.121
X27.339 Z-1.844
X28.069 Z-1.61
X28.823 Z-1.409
X29.577 Z-1.249
X30.335 Z-1.13
X31.122 Z-1.047
X31.847 Z-1.008
X35.663 Z-1.005
X36.434 Z-1.044
X37.206 Z-1.123
X37.951 Z-1.238
X38.703 Z-1.393
X39.448 Z-1.587
X40.188 Z-1.822
X40.909 Z-2.092
X41.617 Z-2.399
X42.304 Z-2.741
X42.976 Z-3.118
X43.63 Z-3.532
X44.261 Z-3.978
X44.865 Z-4.454
X45.445 Z-4.961
X45.999 Z-5.497
X46.525 Z-6.063
X47.024 Z-6.658
X47.488 Z-7.273
X47.921 Z-7.913
X48.319 Z-8.573
X48.683 Z-9.251
X49.011 Z-9.948
X49.304 Z-10.661
X49.559 Z-11.389
X49.777 Z-12.129
X49.958 Z-12.888
X50.097 Z-13.64
X50.198 Z-14.404
X50.26 Z-15.18
X50.276 Z-15.736
Y-40.338
X50.26 Z-15.18
X50.198 Z-14.404
X50.097 Z-13.64
X49.958 Z-12.888
X49.777 Z-12.129
X49.559 Z-11.389
X49.304 Z-10.661
X49.011 Z-9.948
X48.683 Z-9.251
X48.319 Z-8.573
X47.921 Z-7.913
X47.488 Z-7.273
X47.024 Z-6.658
X46.525 Z-6.063
X45.999 Z-5.497
X45.445 Z-4.961
X44.865 Z-4.454
X44.261 Z-3.978
X43.63 Z-3.532
X42.976 Z-3.118
X42.304 Z-2.741
X41.617 Z-2.399
X40.909 Z-2.092
X40.188 Z-1.822
X39.448 Z-1.587
X38.703 Z-1.393
X37.951 Z-1.238
X37.206 Z-1.123
X36.434 Z-1.044
X35.663 Z-1.005
X31.847 Z-1.008
X31.122 Z-1.047
X30.335 Z-1.13
X29.577 Z-1.249
X28.823 Z-1.409
X28.069 Z-1.61
X27.339 Z-1.844
X26.612 Z-2.121
X25.91 Z-2.43
X25.218 Z-2.778
X24.547 Z-3.16
X23.898 Z-3.576
X23.271 Z-4.024
X22.667 Z-4.504
X22.09 Z-5.014
X21.536 Z-5.557
X21.012 Z-6.125
X20.52 Z-6.719
X20.061 Z-7.333
X19.63 Z-7.978
X19.237 Z-8.637
X18.874 Z-9.322
X18.55 Z-10.019
X18.262 Z-10.732
X18.01 Z-11.461
X17.796 Z-12.202
X17.621 Z-12.949
X17.484 Z-13.711
X17.386 Z-14.481
X17.331 Z-15.201
X17.316 Z-15.736
X17.27 Z-15.729
X17.228 Z-15.708
X17.195 Z-15.675
X17.174 Z-15.633
X17.166 Z-15.587
X17.159 Z-15.517
X17.137 Z-15.451
X17.103 Z-15.391
X17.056 Z-15.339
X17. Z-15.298
X16.936 Z-15.27
X16.868 Z-15.255
X16.798
X16.73 Z-15.27
X16.666 Z-15.298
X16.61 Z-15.339
X16.563 Z-15.391
X16.529 Z-15.451
X16.507 Z-15.517
X16.5 Z-15.587
X16.492 Z-15.633
X16.471 Z-15.675
X16.438 Z-15.708
X16.396 Z-15.729
X16.35 Z-15.736
X16.333 Z-15.168
X16.273 Z-14.42
X16.172 Z-13.648
X16.032 Z-12.888
X15.85 Z-12.129
X15.633 Z-11.389
X15.377 Z-10.661
X15.085 Z-9.948
X14.756 Z-9.251
X14.393 Z-8.573
X13.995 Z-7.913
X13.561 Z-7.273
X13.097 Z-6.658
X12.598 Z-6.063
X12.072 Z-5.497
X11.519 Z-4.961
X10.938 Z-4.454
X10.335 Z-3.978
X9.704 Z-3.532
X9.049 Z-3.118
X8.378 Z-2.741
X7.691 Z-2.399
X6.982 Z-2.092
X6.261 Z-1.822
X5.521 Z-1.587
X4.776 Z-1.393
X4.024 Z-1.238
X3.279 Z-1.123
X2.507 Z-1.044
X1.736 Z-1.005
X-2.08 Z-1.008
X-2.805 Z-1.047
X-3.591 Z-1.13
X-4.349 Z-1.249
X-5.104 Z-1.409
X-5.857 Z-1.61
X-6.587 Z-1.844
X-7.315 Z-2.121
X-8.016 Z-2.43
X-8.709 Z-2.778
X-9.38 Z-3.16
X-10.029 Z-3.576
X-10.656 Z-4.024
X-11.26 Z-4.504
X-11.837 Z-5.014
X-12.391 Z-5.557
X-12.914 Z-6.125
X-13.407 Z-6.719
X-13.865 Z-7.333
X-14.296 Z-7.978
X-14.69 Z-8.637
X-15.052 Z-9.322
X-15.376 Z-10.019
X-15.665 Z-10.732
X-15.916 Z-11.461
X-16.13 Z-12.202
X-16.305 Z-12.95
X-16.442 Z-13.711
X-16.54 Z-14.481
X-16.596 Z-15.201
X-16.61 Z-15.732
X-16.657 Z-15.724
X-16.698 Z-15.703
X-16.732 Z-15.67
X-16.753 Z-15.628
X-16.76 Z-15.582
X-16.767 Z-15.529
X-16.787 Z-15.48
X-16.82 Z-15.438
X-16.862 Z-15.406
X-16.911 Z-15.386
X-16.963 Z-15.379
X-17.016 Z-15.386
X-17.065 Z-15.406
X-17.107 Z-15.438
X-17.139 Z-15.48
X-17.159 Z-15.529
X-17.166 Z-15.582
Z-15.586
X-17.174 Z-15.633
X-17.195 Z-15.674
X-17.228 Z-15.708
X-17.27 Z-15.729
X-17.316 Z-15.736
X-17.331 Z-15.198
X-17.393 Z-14.417
X-17.494 Z-13.651
X-17.634 Z-12.889
X-17.816 Z-12.13
X-18.033 Z-11.39
X-18.289 Z-10.662
X-18.581 Z-9.948
X-18.909 Z-9.252
X-19.273 Z-8.573
X-19.671 Z-7.913
X-20.104 Z-7.273
X-20.572 Z-6.653
X-21.067 Z-6.063
X-21.593 Z-5.498
X-22.147 Z-4.961
X-22.727 Z-4.454
X-23.331 Z-3.979
X-23.962 Z-3.532
X-24.616 Z-3.119
X-25.288 Z-2.741
X-25.982 Z-2.396
X-26.682 Z-2.092
X-27.413 Z-1.819
X-28.144 Z-1.588
X-28.888 Z-1.394
X-29.64 Z-1.238
X-30.414 Z-1.12
X-31.157 Z-1.044
X-31.928 Z-1.005
X-35.745 Z-1.008
X-36.47 Z-1.047
X-37.257 Z-1.13
X-38.015 Z-1.249
X-38.77 Z-1.409
X-39.523 Z-1.609
X-40.253 Z-1.844
X-40.981 Z-2.121
X-41.682 Z-2.429
X-42.375 Z-2.778
X-43.046 Z-3.16
X-43.695 Z-3.576
X-44.322 Z-4.024
X-44.926 Z-4.504
X-45.503 Z-5.014
X-46.057 Z-5.557
X-46.576 Z-6.121
X-47.073 Z-6.72
X-47.531 Z-7.334
X-47.963 Z-7.978
X-48.356 Z-8.638
X-48.718 Z-9.322
X-49.042 Z-10.019
X-49.331 Z-10.733
X-49.582 Z-11.461
X-49.796 Z-12.203
X-49.971 Z-12.95
X-50.108 Z-13.712
X-50.206 Z-14.483
X-50.262 Z-15.203
X-50.276 Z-15.736
Y-40.146
X-50.258 Y-39.956
X-50.217 Y-39.77
X-50.152 Y-39.588
X-50.139 Z-15.252
X-50.083 Z-14.503
X-49.989 Z-13.75
X-49.855 Z-12.994
X-49.681 Z-12.243
X-49.469 Z-11.5
X-49.219 Z-10.77
X-48.933 Z-10.055
X-48.609 Z-9.355
X-48.249 Z-8.67
X-47.856 Z-8.008
X-47.428 Z-7.366
X-46.967 Z-6.745
X-46.477 Z-6.152
X-45.955 Z-5.582
X-45.406 Z-5.041
X-44.828 Z-4.528
X-44.226 Z-4.046
X-43.599 Z-3.596
X-42.949 Z-3.178
X-42.281 Z-2.796
X-41.591 Z-2.446
X-40.887 Z-2.135
X-40.164 Z-1.858
X-39.43 Z-1.62
X-38.687 Z-1.42
X-37.929 Z-1.258
X-37.171 Z-1.136
X-36.401 Z-1.052
X-35.631 Z-1.009
X-32.072 Z-1.005
X-31.329 Z-1.041
X-30.572 Z-1.116
X-29.803 Z-1.232
X-29.046 Z-1.387
X-28.302 Z-1.579
X-27.566 Z-1.81
X-26.845 Z-2.078
X-26.136 Z-2.383
X-25.442 Z-2.726
X-24.771 Z-3.101
X-24.117 Z-3.513
X-23.486 Z-3.957
X-22.878 Z-4.433
X-22.298 Z-4.938
X-21.741 Z-5.475
X-21.214 Z-6.039
X-20.718 Z-6.628
X-20.251 Z-7.244
X-19.817 Z-7.882
X-19.416 Z-8.542
X-19.051 Z-9.221
X-18.72 Z-9.917
X-18.426 Z-10.63
X-18.169 Z-11.358
X-17.949 Z-12.098
X-17.768 Z-12.85
X-17.626 Z-13.61
X-17.523 Z-14.372
X-17.46 Z-15.141
X-17.441 Z-15.736
X-17.394 Z-15.729
X-17.353 Z-15.708
X-17.319 Z-15.675
X-17.298 Z-15.633
X-17.291 Z-15.587
Z-15.586
X-17.283 Z-15.52
X-17.261 Z-15.457
X-17.226 Z-15.401
X-17.179 Z-15.354
X-17.122 Z-15.318
X-17.06 Z-15.296
X-16.993 Z-15.289
X-16.927 Z-15.296
X-16.864 Z-15.318
X-16.808 Z-15.354
X-16.761 Z-15.401
X-16.725 Z-15.457
X-16.703 Z-15.52
X-16.696 Z-15.586
X-16.689 Z-15.633
X-16.667 Z-15.675
X-16.634 Z-15.708
X-16.592 Z-15.729
X-16.546 Z-15.736
X-16.534 Z-15.256
X-16.477 Z-14.505
X-16.383 Z-13.751
X-16.249 Z-12.994
X-16.076 Z-12.243
X-15.863 Z-11.5
X-15.613 Z-10.77
X-15.327 Z-10.056
X-15.003 Z-9.355
X-14.643 Z-8.67
X-14.25 Z-8.008
X-13.823 Z-7.366
X-13.361 Z-6.745
X-12.87 Z-6.149
X-12.349 Z-5.582
X-11.798 Z-5.039
X-11.222 Z-4.528
X-10.62 Z-4.046
X-9.993 Z-3.596
X-9.344 Z-3.178
X-8.676 Z-2.796
X-7.985 Z-2.446
X-7.281 Z-2.135
X-6.558 Z-1.858
X-5.824 Z-1.62
X-5.082 Z-1.42
X-4.324 Z-1.258
X-3.565 Z-1.136
X-2.795 Z-1.052
X-2.027 Z-1.009
X1.654 Z-1.005
X2.397 Z-1.041
X3.154 Z-1.116
X3.923 Z-1.232
X4.68 Z-1.387
X5.424 Z-1.579
X6.16 Z-1.81
X6.881 Z-2.078
X7.59 Z-2.383
X8.28 Z-2.724
X8.955 Z-3.101
X9.609 Z-3.513
X10.24 Z-3.957
X10.846 Z-4.431
X11.428 Z-4.938
X11.985 Z-5.475
X12.51 Z-6.037
X13.008 Z-6.628
X13.475 Z-7.244
X13.909 Z-7.882
X14.31 Z-8.542
X14.676 Z-9.221
X15.006 Z-9.918
X15.3 Z-10.631
X15.558 Z-11.359
X15.777 Z-12.099
X15.958 Z-12.851
X16.1 Z-13.61
X16.203 Z-14.372
X16.266 Z-15.143
X16.285 Z-15.736
X16.332 Z-15.729
X16.373 Z-15.708
X16.407 Z-15.675
X16.428 Z-15.633
X16.435 Z-15.587
X16.443 Z-15.506
X16.467 Z-15.429
X16.505 Z-15.357
X16.556 Z-15.295
X16.619 Z-15.243
X16.69 Z-15.205
X16.767 Z-15.182
X16.848 Z-15.174
X16.928 Z-15.182
X17.006 Z-15.205
X17.077 Z-15.243
X17.139 Z-15.295
X17.191 Z-15.357
X17.229 Z-15.429
X17.252 Z-15.506
X17.26 Z-15.587
X17.268 Z-15.633
X17.289 Z-15.675
X17.322 Z-15.708
X17.364 Z-15.729
X17.41 Z-15.736
X17.422 Z-15.281
X17.478 Z-14.513
X17.574 Z-13.744
X17.708 Z-12.99
X17.881 Z-12.24
X18.094 Z-11.497
X18.342 Z-10.772
X18.63 Z-10.053
X18.954 Z-9.353
X19.312 Z-8.671
X19.707 Z-8.006
X20.134 Z-7.365
X20.594 Z-6.746
X21.086 Z-6.151
X21.608 Z-5.581
X22.157 Z-5.041
X22.734 Z-4.528
X23.337 Z-4.046
X23.964 Z-3.595
X24.614 Z-3.178
X25.282 Z-2.795
X25.972 Z-2.446
X26.677 Z-2.134
X27.397 Z-1.858
X28.134 Z-1.619
X28.878 Z-1.419
X29.63 Z-1.258
X30.397 Z-1.135
X31.163 Z-1.052
X31.939 Z-1.008
X35.543 Z-1.005
X36.285 Z-1.041
X37.057 Z-1.117
X37.821 Z-1.232
X38.576 Z-1.386
X39.321 Z-1.579
X40.058 Z-1.81
X40.78 Z-2.078
X41.488 Z-2.384
X42.179 Z-2.725
X42.853 Z-3.102
X43.505 Z-3.512
X44.136 Z-3.956
X44.744 Z-4.432
X45.326 Z-4.939
X45.881 Z-5.474
X46.408 Z-6.038
X46.906 Z-6.629
X47.371 Z-7.242
X47.805 Z-7.88
X48.206 Z-8.54
X48.573 Z-9.222
X48.903 Z-9.919
X49.198 Z-10.632
X49.455 Z-11.36
X49.674 Z-12.101
X49.854 Z-12.847
X49.996 Z-13.605
X50.1 Z-14.377
X50.162 Z-15.134
X50.182 Z-15.736
X50.081 Y-39.372
X49.951 Y-39.178
X49.792 Y-39.005
X49.625 Y-38.838
X49.61 Z-15.204
X49.548 Z-14.429
X49.447 Z-13.667
X49.307 Z-12.911
X49.128 Z-12.167
X48.911 Z-11.43
X48.655 Z-10.704
X48.366 Z-10.001
X48.037 Z-9.306
X47.674 Z-8.629
X47.275 Z-7.97
X46.838 Z-7.325
X46.37 Z-6.706
X45.867 Z-6.107
X45.333 Z-5.533
X44.767 Z-4.985
X44.168 Z-4.461
X43.551 Z-3.975
X42.894 Z-3.513
X42.24 Z-3.102
X41.566 Z-2.724
X40.875 Z-2.383
X40.166 Z-2.078
X39.444 Z-1.81
X38.708 Z-1.579
X37.962 Z-1.386
X37.208 Z-1.232
X36.444 Z-1.117
X35.672 Z-1.041
X34.929 Z-1.005
X32.54 Z-1.009
X31.773 Z-1.052
X31.008 Z-1.135
X30.247 Z-1.257
X29.488 Z-1.42
X28.746 Z-1.619
X28.009 Z-1.858
X27.289 Z-2.134
X26.584 Z-2.446
X25.894 Z-2.795
X25.226 Z-3.178
X24.576 Z-3.595
X23.968 Z-4.031
X23.362 Z-4.513
X22.763 Z-5.043
X22.204 Z-5.59
X21.675 Z-6.164
X21.177 Z-6.764
X20.713 Z-7.384
X20.282 Z-8.025
X19.886 Z-8.687
X19.524 Z-9.368
X19.198 Z-10.068
X18.91 Z-10.777
X18.658 Z-11.503
X18.445 Z-12.241
X18.27 Z-12.986
X18.136 Z-13.724
X18.039 Z-14.483
X17.98 Z-15.254
X17.968 Z-15.736
X18.189 Y-38.617
X18.3 Y-38.506
X18.413 Y-38.397
X18.534 Y-38.3
X18.665 Y-38.216
X18.807 Y-38.145
X18.958 Y-38.089
X18.97 Z-15.284
X19.025 Z-14.557
X19.119 Z-13.808
X19.253 Z-13.063
X19.425 Z-12.331
X19.636 Z-11.605
X19.884 Z-10.896
X20.168 Z-10.2
X20.489 Z-9.517
X20.846 Z-8.852
X21.236 Z-8.209
X21.659 Z-7.586
X22.115 Z-6.986
X22.601 Z-6.41
X23.118 Z-5.861
X23.661 Z-5.339
X24.23 Z-4.848
X24.828 Z-4.385
X25.446 Z-3.956
X26.087 Z-3.558
X26.747 Z-3.196
X27.426 Z-2.867
X28.121 Z-2.576
X28.872 Z-2.306
X29.65 Z-2.073
X30.455 Z-1.877
X31.274 Z-1.724
X32.112 Z-1.612
X32.966 Z-1.545
X33.818 Z-1.523
X34.624 Z-1.545
X35.445 Z-1.609
X36.261 Z-1.715
X37.067 Z-1.862
X37.861 Z-2.051
X38.613 Z-2.271
X39.336 Z-2.523
X40.035 Z-2.809
X40.715 Z-3.129
X41.38 Z-3.486
X42.024 Z-3.876
X42.647 Z-4.299
X43.247 Z-4.755
X43.823 Z-5.242
X44.371 Z-5.757
X44.892 Z-6.301
X45.386 Z-6.872
X45.847 Z-7.467
X46.277 Z-8.086
X46.675 Z-8.728
X47.037 Z-9.387
X47.365 Z-10.066
X47.657 Z-10.761
X47.912 Z-11.469
X48.13 Z-12.192
X48.31 Z-12.926
X48.451 Z-13.665
X48.553 Z-14.414
X48.615 Z-15.156
X48.634 Z-15.736
X48.411 Y-38.037
X48.172 Y-38.02
X47.43
X47.237 Y-37.901
X47.046 Y-37.779
X47.001 Y-37.608
Y-37.339
X46.984 Z-15.25
X46.927 Z-14.608
X46.82 Z-13.902
X46.686 Z-13.258
X46.506 Z-12.595
X46.289 Z-11.947
X46.035 Z-11.315
X45.746 Z-10.699
X45.422 Z-10.102
X45.062 Z-9.522
X44.67 Z-8.966
X44.245 Z-8.432
X43.792 Z-7.925
X43.308 Z-7.444
X42.798 Z-6.993
X42.26 Z-6.571
X41.704 Z-6.184
X41.125 Z-5.829
X40.521 Z-5.505
X39.906 Z-5.22
X39.273 Z-4.971
X38.624 Z-4.758
X38.357 Z-4.68
X38.077 Z-4.58
X37.547 Z-4.407
X37.241 Z-4.322
X36.757 Z-4.196
X36.059 Z-4.054
X35.3 Z-3.943
X34.519 Z-3.876
X33.757 Z-3.857
X33.019 Z-3.88
X32.277 Z-3.945
X31.534 Z-4.054
X30.826 Z-4.198
X30.323 Z-4.33
X30.044 Z-4.408
X29.423 Z-4.611
X29.131 Z-4.714
X28.9 Z-4.779
X28.26 Z-4.993
X27.628 Z-5.246
X27.012 Z-5.535
X26.409 Z-5.863
X25.835 Z-6.219
X25.274 Z-6.614
X24.74 Z-7.039
X24.234 Z-7.492
X23.753 Z-7.976
X23.302 Z-8.486
X22.883 Z-9.019
X22.493 Z-9.579
X22.138 Z-10.158
X21.815 Z-10.762
X21.53 Z-11.378
X21.281 Z-12.01
X21.067 Z-12.66
X20.894 Z-13.313
X20.759 Z-13.973
X20.661 Z-14.649
X20.605 Z-15.286
X20.591 Z-15.736
Y-36.776
X20.573 Y-36.589
X20.578 Z-15.557
X20.592 Z-15.234
X20.642 Z-14.668
X20.713 Z-14.158
X20.763 Z-13.856
X20.882 Z-13.287
X21.039 Z-12.691
X21.161 Z-12.305
X21.288 Z-11.936
X21.514 Z-11.364
X21.749 Z-10.851
X21.936 Z-10.485
X22.156 Z-10.084
X22.479 Z-9.559
X22.813 Z-9.074
X23.08 Z-8.722
X23.355 Z-8.383
X23.75 Z-7.939
X24.148 Z-7.534
X24.511 Z-7.196
X24.875 Z-6.884
X25.309 Z-6.543
X25.752 Z-6.227
X26.184 Z-5.946
X26.663 Z-5.665
X27.131 Z-5.416
X27.613 Z-5.186
X28.105 Z-4.976
X28.617 Z-4.783
X29.138 Z-4.612
X29.702 Z-4.453
X30.269 Z-4.317
X30.633 Z-4.241
X31.037 Z-4.169
X31.474 Z-4.102
X31.974 Z-4.041
X32.709 Z-3.982
X33.115 Z-3.962
X33.865 Z-3.946
X34.687 Z-3.969
X35.447 Z-4.025
X35.871 Z-4.071
X36.306 Z-4.129
X36.706 Z-4.194
X37.112 Z-4.272
X37.51 Z-4.359
X37.934 Z-4.465
X38.295 Z-4.565
X38.655 Z-4.675
X38.994 Z-4.79
X39.333 Z-4.915
X39.671 Z-5.051
X40.001 Z-5.196
X40.325 Z-5.348
X40.643 Z-5.509
X40.957 Z-5.68
X41.26 Z-5.857
X41.566 Z-6.046
X41.818 Z-6.212
X42.12 Z-6.424
X42.358 Z-6.599
X42.671 Z-6.846
X42.891 Z-7.03
X43.223 Z-7.325
X43.433 Z-7.523
X43.761 Z-7.852
X44.02 Z-8.135
X44.304 Z-8.462
X44.634 Z-8.879
X44.813 Z-9.122
X45.092 Z-9.526
X45.379 Z-9.988
X45.522 Z-10.235
X45.768 Z-10.697
X45.993 Z-11.171
X46.111 Z-11.445
X46.317 Z-11.967
X46.503 Z-12.524
X46.588 Z-12.819
X46.713 Z-13.297
X46.839 Z-13.904
X46.899 Z-14.287
X46.949 Z-14.655
X47.003 Z-15.282
X47.018 Z-15.716
X47.056 Y-36.4 Z-15.721
X47.076 Y-36.306 Z-15.724
X47.119 Y-36.119 Z-15.729
X47.141 Y-36.026 Z-15.731
X47.162 Y-35.932 Z-15.734
X47.185 Y-35.839 Z-15.736
X47.174 Z-15.349
X47.122 Z-14.708
X47.078 Z-14.349
X47.016 Z-13.953
X46.959 Z-13.649
X46.896 Z-13.354
X46.824 Z-13.051
X46.742 Z-12.745
X46.65 Z-12.436
X46.545 Z-12.114
X46.433 Z-11.801
X46.313 Z-11.494
X46.179 Z-11.177
X46.04 Z-10.872
X45.89 Z-10.566
X45.724 Z-10.252
X45.555 Z-9.953
X45.377 Z-9.658
X45.188 Z-9.365
X44.985 Z-9.069
X44.778 Z-8.786
X44.562 Z-8.508
X44.337 Z-8.235
X44.103 Z-7.968
X43.859 Z-7.705
X43.607 Z-7.449
X43.347 Z-7.201
X43.084 Z-6.964
X42.807 Z-6.729
X42.525 Z-6.504
X42.236 Z-6.287
X41.941 Z-6.078
X41.644 Z-5.881
X41.338 Z-5.691
X41.012 Z-5.501
X40.674 Z-5.316
X40.343 Z-5.149
X40.005 Z-4.99
X39.668 Z-4.842
X39.323 Z-4.703
X38.968 Z-4.572
X38.611 Z-4.451
X38.233 Z-4.335
X37.795 Z-4.213
X37.405 Z-4.117
X37.02 Z-4.033
X36.631 Z-3.959
X36.213 Z-3.89
X35.777 Z-3.832
X35.383 Z-3.789
X34.616 Z-3.733
X33.77 Z-3.712
X32.909 Z-3.736
X32.064 Z-3.803
X31.559 Z-3.864
X31.122 Z-3.931
X30.717 Z-4.004
X30.351 Z-4.08
X29.818 Z-4.208
X29.191 Z-4.385
X28.652 Z-4.562
X28.124 Z-4.761
X27.611 Z-4.979
X27.11 Z-5.218
X26.62 Z-5.478
X26.13 Z-5.767
X25.679 Z-6.059
X25.239 Z-6.373
X24.812 Z-6.707
X24.402 Z-7.059
X24.011 Z-7.424
X23.634 Z-7.81
X23.28 Z-8.206
X22.942 Z-8.619
X22.624 Z-9.045
X22.326 Z-9.485
X22.05 Z-9.931
X21.795 Z-10.389
X21.564 Z-10.846
X21.352 Z-11.319
X21.162 Z-11.793
X20.995 Z-12.27
X20.851 Z-12.743
X20.724 Z-13.233
X20.622 Z-13.704
X20.539 Z-14.183
X20.477 Z-14.647
X20.434 Z-15.118
X20.41 Z-15.527
X20.406 Z-15.736
X20.357 Y-35.65
X20.307 Y-35.462
X20.252 Y-35.275
X20.196 Y-35.089
X20.198 Z-15.565
X20.225 Z-15.079
X20.269 Z-14.613
X20.333 Z-14.13
X20.416 Z-13.655
X20.521 Z-13.17
X20.649 Z-12.679
X20.796 Z-12.196
X20.967 Z-11.709
X21.16 Z-11.226
X21.375 Z-10.747
X21.614 Z-10.271
X21.876 Z-9.802
X22.156 Z-9.349
X22.461 Z-8.9
X22.787 Z-8.464
X23.131 Z-8.043
X23.497 Z-7.633
X23.883 Z-7.239
X24.286 Z-6.862
X24.705 Z-6.503
X25.147 Z-6.157
X25.624 Z-5.817
X26.092 Z-5.513
X26.581 Z-5.225
X27.079 Z-4.961
X27.601 Z-4.712
X28.129 Z-4.487
X28.723 Z-4.264
X29.28 Z-4.081
X29.862 Z-3.916
X30.408 Z-3.786
X30.788 Z-3.707
X31.196 Z-3.634
X31.615 Z-3.571
X32.138 Z-3.506
X32.999 Z-3.44
X33.839 Z-3.42
X34.586 Z-3.44
X35.345 Z-3.496
X35.728 Z-3.538
X36.164 Z-3.597
X36.563 Z-3.663
X36.969 Z-3.74
X37.367 Z-3.827
X37.768 Z-3.927
X38.151 Z-4.033
X38.53 Z-4.15
X38.904 Z-4.277
X39.317 Z-4.43
X39.678 Z-4.575
X40.029 Z-4.729
X40.373 Z-4.892
X40.717 Z-5.066
X41.049 Z-5.247
X41.376 Z-5.437
X41.692 Z-5.635
X42.011 Z-5.846
X42.325 Z-6.069
X42.633 Z-6.3
X42.92 Z-6.53
X43.202 Z-6.769
X43.474 Z-7.014
X43.741 Z-7.27
X43.997 Z-7.53
X44.246 Z-7.797
X44.488 Z-8.074
X44.717 Z-8.352
X44.94 Z-8.639
X45.151 Z-8.928
X45.357 Z-9.229
X45.55 Z-9.527
X45.735 Z-9.834
X45.91 Z-10.145
X46.073 Z-10.454
X46.227 Z-10.767
X46.373 Z-11.086
X46.506 Z-11.403
X46.632 Z-11.726
X46.748 Z-12.05
X46.853 Z-12.372
X46.948 Z-12.693
X47.033 Z-13.013
X47.108 Z-13.332
X47.174 Z-13.646
X47.234 Z-13.973
X47.284 Z-14.302
X47.331 Z-14.68
X47.384 Z-15.34
X47.395 Z-15.736
X47.46 Y-34.9
X47.525 Y-34.711
X47.596 Y-34.524
X47.67 Y-34.339
X47.656 Z-15.307
X47.603 Z-14.649
X47.556 Z-14.268
X47.505 Z-13.938
X47.446 Z-13.608
X47.377 Z-13.276
X47.299 Z-12.946
X47.211 Z-12.614
X47.112 Z-12.282
X47.004 Z-11.95
X46.886 Z-11.619
X46.757 Z-11.288
X46.62 Z-10.963
X46.472 Z-10.637
X46.315 Z-10.317
X46.145 Z-9.995
X45.967 Z-9.679
X45.775 Z-9.361
X45.576 Z-9.052
X45.365 Z-8.745
X45.144 Z-8.441
X44.913 Z-8.144
X44.677 Z-7.857
X44.427 Z-7.571
X44.17 Z-7.295
X43.907 Z-7.027
X43.63 Z-6.763
X43.345 Z-6.506
X43.055 Z-6.259
X42.754 Z-6.018
X42.447 Z-5.787
X42.132 Z-5.564
X41.808 Z-5.349
X41.481 Z-5.145
X41.137 Z-4.945
X40.787 Z-4.754
X40.437 Z-4.576
X40.08 Z-4.407
X39.713 Z-4.247
X39.346 Z-4.098
X38.966 Z-3.957
X38.583 Z-3.827
X38.194 Z-3.708
X37.801 Z-3.598
X37.399 Z-3.498
X36.99 Z-3.408
X36.584 Z-3.331
X36.166 Z-3.263
X35.753 Z-3.206
X35.366 Z-3.164
X34.587 Z-3.106
X33.781 Z-3.087
X32.925 Z-3.11
X32.095 Z-3.177
X31.608 Z-3.237
X31.186 Z-3.3
X30.778 Z-3.373
X30.397 Z-3.452
X29.826 Z-3.589
X29.242 Z-3.754
X28.666 Z-3.943
X28.106 Z-4.154
X27.555 Z-4.388
X27.021 Z-4.643
X26.499 Z-4.92
X25.986 Z-5.222
X25.503 Z-5.535
X25.03 Z-5.872
X24.578 Z-6.226
X24.141 Z-6.599
X23.725 Z-6.989
X23.327 Z-7.396
X22.949 Z-7.818
X22.593 Z-8.253
X22.253 Z-8.709
X21.937 Z-9.173
X21.647 Z-9.642
X21.379 Z-10.122
X21.136 Z-10.605
X20.914 Z-11.098
X20.715 Z-11.596
X20.541 Z-12.092
X20.387 Z-12.594
X20.257 Z-13.095
X20.149 Z-13.594
X20.063 Z-14.088
X19.998 Z-14.569
X19.952 Z-15.072
X19.925 Z-15.57
X19.923 Z-15.736
X19.841 Y-34.151 Z-15.735
X19.761 Y-33.963 Z-15.733
X19.677 Y-33.776 Z-15.731
X19.594 Y-33.589 Z-15.73
X19.599 Z-15.479
X19.625 Z-15.029
X19.672 Z-14.533
X19.74 Z-14.029
X19.829 Z-13.52
X19.94 Z-13.009
X20.073 Z-12.497
X20.229 Z-11.985
X20.41 Z-11.471
X20.615 Z-10.958
X20.844 Z-10.45
X21.093 Z-9.955
X21.369 Z-9.462
X21.668 Z-8.977
X21.988 Z-8.507
X22.332 Z-8.047
X22.699 Z-7.598
X23.088 Z-7.163
X23.494 Z-6.748
X23.914 Z-6.355
X24.358 Z-5.974
X24.818 Z-5.614
X25.302 Z-5.269
X25.796 Z-4.949
X26.309 Z-4.647
X26.844 Z-4.363
X27.386 Z-4.105
X27.913 Z-3.88
X28.476 Z-3.667
X29.044 Z-3.481
X29.64 Z-3.312
X30.223 Z-3.173
X30.619 Z-3.091
X31.043 Z-3.015
X31.485 Z-2.949
X31.986 Z-2.887
X32.873 Z-2.818
X33.805 Z-2.795
X34.703 Z-2.817
X35.505 Z-2.877
X35.869 Z-2.918
X36.304 Z-2.977
X36.739 Z-3.048
X37.174 Z-3.131
X37.583 Z-3.221
X37.984 Z-3.321
X38.368 Z-3.427
X38.701 Z-3.529
X39.02 Z-3.634
X39.5 Z-3.809
X39.884 Z-3.964
X40.257 Z-4.128
X40.621 Z-4.3
X40.977 Z-4.481
X41.326 Z-4.671
X41.67 Z-4.872
X42.009 Z-5.083
X42.338 Z-5.302
X42.658 Z-5.529
X42.947 Z-5.746
X43.188 Z-5.937
X43.565 Z-6.254
X43.857 Z-6.517
X44.137 Z-6.786
X44.409 Z-7.062
X44.674 Z-7.347
X44.927 Z-7.637
X45.171 Z-7.933
X45.409 Z-8.24
X45.634 Z-8.549
X45.848 Z-8.861
X46.054 Z-9.181
X46.249 Z-9.506
X46.431 Z-9.828
X46.604 Z-10.156
X46.767 Z-10.49
X46.922 Z-10.83
X47.063 Z-11.164
X47.192 Z-11.496
X47.313 Z-11.836
X47.425 Z-12.177
X47.526 Z-12.52
X47.617 Z-12.863
X47.698 Z-13.208
X47.767 Z-13.541
X47.83 Z-13.888
X47.88 Z-14.22
X47.931 Z-14.626
X47.984 Z-15.289
X47.997 Z-15.736
X48.079 Y-33.403
X48.16 Y-33.217
X48.237 Y-33.029
X48.309 Y-32.839 Z-15.735
X48.295 Z-15.282
X48.239 Z-14.586
X48.189 Z-14.183
X48.136 Z-13.835
X48.073 Z-13.487
X48.001 Z-13.141
X47.923 Z-12.809
X47.828 Z-12.453
X47.728 Z-12.11
X47.613 Z-11.758
X47.491 Z-11.416
X47.356 Z-11.068
X47.213 Z-10.727
X47.058 Z-10.386
X46.891 Z-10.046
X46.712 Z-9.705
X46.527 Z-9.376
X46.328 Z-9.045
X46.118 Z-8.72
X45.901 Z-8.402
X45.672 Z-8.088
X45.434 Z-7.781
X45.183 Z-7.476
X44.925 Z-7.181
X44.657 Z-6.892
X44.381 Z-6.611
X44.094 Z-6.336
X43.723 Z-6.005
X43.327 Z-5.676
X42.858 Z-5.32
X42.567 Z-5.115
X42.249 Z-4.904
X41.91 Z-4.692
X41.567 Z-4.492
X41.211 Z-4.298
X40.855 Z-4.117
X40.49 Z-3.944
X40.125 Z-3.784
X39.741 Z-3.629
X39.353 Z-3.485
X38.97 Z-3.355
X38.482 Z-3.207
X37.882 Z-3.053
X37.461 Z-2.96
X37.024 Z-2.876
X36.592 Z-2.805
X36.119 Z-2.741
X35.666 Z-2.691
X34.825 Z-2.63
X33.853 Z-2.605
X33.168 Z-2.618
X32.643 Z-2.636
X31.746 Z-2.709
X31.235 Z-2.771
X30.772 Z-2.841
X30.345 Z-2.917
X29.934 Z-3.002
X29.363 Z-3.139
X28.786 Z-3.304
X28.246 Z-3.483
X27.709 Z-3.685
X27.15 Z-3.923
X26.607 Z-4.182
X26.077 Z-4.463
X25.563 Z-4.765
X25.06 Z-5.091
X24.551 Z-5.456
X24.093 Z-5.818
X23.651 Z-6.198
X23.248 Z-6.576
X22.841 Z-6.992
X22.448 Z-7.431
X22.073 Z-7.89
X21.725 Z-8.356
X21.399 Z-8.835
X21.095 Z-9.327
X20.812 Z-9.832
X20.556 Z-10.34
X20.325 Z-10.855
X20.116 Z-11.376
X19.932 Z-11.899
X19.773 Z-12.421
X19.634 Z-12.958
X19.523 Z-13.468
X19.431 Z-13.997
X19.363 Z-14.502
X19.313 Z-15.037
X19.287 Z-15.513
X19.282 Z-15.736
X19.215 Y-32.654
X19.155 Y-32.467
X19.099 Y-32.279
X19.048 Y-32.089
X19.054 Z-15.491
X19.081 Z-15.024
X19.13 Z-14.488
X19.201 Z-13.958
X19.293 Z-13.433
X19.407 Z-12.908
X19.546 Z-12.373
X19.709 Z-11.841
X19.892 Z-11.319
X20.104 Z-10.789
X20.339 Z-10.267
X20.598 Z-9.752
X20.884 Z-9.24
X21.188 Z-8.749
X21.521 Z-8.259
X21.873 Z-7.788
X22.248 Z-7.329
X22.642 Z-6.889
X23.061 Z-6.461
X23.495 Z-6.055
X23.95 Z-5.666
X24.417 Z-5.301
X24.907 Z-4.952
X25.408 Z-4.627
X25.905 Z-4.334
X26.397 Z-4.072
X26.915 Z-3.823
X27.486 Z-3.578
X28.042 Z-3.369
X28.612 Z-3.182
X29.167 Z-3.025
X29.697 Z-2.897
X30.065 Z-2.821
X30.454 Z-2.751
X30.9 Z-2.682
X31.423 Z-2.618
X32.194 Z-2.556
X32.552 Z-2.535
X33.681 Z-2.508
X34.343 Z-2.517
X35.192 Z-2.542
X36.005 Z-2.603
X36.441 Z-2.649
X36.809 Z-2.698
X37.207 Z-2.762
X37.575 Z-2.83
X37.94 Z-2.907
X38.438 Z-3.028
X38.827 Z-3.136
X39.214 Z-3.255
X39.597 Z-3.386
X39.967 Z-3.523
X40.409 Z-3.703
X40.922 Z-3.937
X41.371 Z-4.162
X41.723 Z-4.354
X42.067 Z-4.555
X42.405 Z-4.766
X42.734 Z-4.985
X43.059 Z-5.215
X43.382 Z-5.458
X43.692 Z-5.707
X43.996 Z-5.965
X44.289 Z-6.23
X44.578 Z-6.507
X44.854 Z-6.787
X45.126 Z-7.081
X45.384 Z-7.376
X45.635 Z-7.681
X45.876 Z-7.993
X46.106 Z-8.308
X46.327 Z-8.63
X46.536 Z-8.956
X46.738 Z-9.292
X46.927 Z-9.628
X47.107 Z-9.968
X47.273 Z-10.309
X47.431 Z-10.656
X47.578 Z-11.005
X47.714 Z-11.355
X47.838 Z-11.705
X47.953 Z-12.057
X48.057 Z-12.411
X48.151 Z-12.767
X48.232 Z-13.113
X48.304 Z-13.46
X48.367 Z-13.807
X48.423 Z-14.177
X48.471 Z-14.561
X48.527 Z-15.257
X48.543 Z-15.722
X48.586 Y-31.903 Z-15.726
X48.627 Y-31.716 Z-15.729
X48.662 Y-31.528 Z-15.733
