(Lober resterende)
(Machine)
(  vendor: Autodesk)
(  model: Generic 3-axis)
(  description: This machine has XYZ axis on the Head)
(T2  D=3. CR=0. - ZMIN=0. - flat end mill)
G90

(2D Contour2)
T2 M6 (flat end mill D=3.)
S15000 M3
G64
G54
G43 H2
G0 Z30.
G0 X131.266 Y31.985
Z31.007
Z21.007
G1 Z17.007 F133.3
Z0.55
X131.259 Y31.984 Z0.483 F400
X131.237 Y31.98 Z0.42
X131.202 Y31.973 Z0.363
X131.155 Y31.965 Z0.315
X131.099 Y31.954 Z0.28
X131.037 Y31.943 Z0.258
X130.971 Y31.931 Z0.25
X130.676 Y31.877
G3 X130.483 Y31.752 I0.054 J-0.295
X130.435 Y31.527 I0.247 J-0.17
G1 X130.471 Y31.332
X130.584 Y30.764
X130.709 Y30.193
X130.843 Y29.618
X130.985 Y29.051
X131.308 Y27.889
X131.478 Y27.326
X131.659 Y26.762
X131.847 Y26.203
X132.044 Y25.653
X132.245 Y25.115
X132.452 Y24.59
X132.664 Y24.079
X132.879 Y23.586
X133.096 Y23.114
X133.315 Y22.66
X133.533 Y22.229
X133.748 Y21.822
X133.961 Y21.439
X134.169 Y21.082
X134.373 Y20.748
X134.57 Y20.437
X134.756 Y20.149
X134.938 Y19.878
X135.109 Y19.624
X135.114 Y19.615
X135.267 Y19.384
X135.291 Y19.347
X135.422 Y19.138
X135.463 Y19.069
X135.57 Y18.88
X135.635 Y18.754
X135.715 Y18.583
X135.76 Y18.478
X135.798 Y18.37
X135.848 Y18.214
G2 X135.918 Y17.902 I-1.714 J-0.549
G1 X135.937 Y17.758
G2 X135.942 Y17.32 I-1.784 J-0.236
G1 X135.927 Y17.187
G2 X135.821 Y16.751 I-1.789 J0.202
G1 X135.774 Y16.627
G2 X135.58 Y16.253 I-1.683 J0.638
G1 X135.501 Y16.137
G2 X135.275 Y15.866 I-1.489 J1.012
G1 X135.164 Y15.757
X135.072 Y15.673
X134.974 Y15.595
X134.836 Y15.492
X134.753 Y15.434
X134.667 Y15.381
X134.502 Y15.285
X134.372 Y15.216
X134.186 Y15.128
X134.073 Y15.078
X133.868 Y14.998
X133.769 Y14.962
X133.548 Y14.889
X133.46 Y14.863
X133.226 Y14.799
X133.144 Y14.779
X132.9 Y14.724
X132.823 Y14.709
X132.784 Y14.702
X132.933 Y14.508
X132.943 Y14.495
X133.209 Y14.145
X133.233 Y14.114
X133.37 Y13.925
X133.384 Y13.905
X133.524 Y13.706
X133.549 Y13.669
X133.834 Y13.243
X133.863 Y13.199
X134.151 Y12.739
X134.177 Y12.696
X134.749 Y11.725
X134.76 Y11.706
X135.037 Y11.222
X135.041 Y11.216
X135.304 Y10.751
X135.553 Y10.313
X135.562 Y10.297
X135.789 Y9.888
X135.807 Y9.854
X136.009 Y9.471
X136.046 Y9.397
X136.217 Y9.034
X136.267 Y8.916
X136.403 Y8.563
X136.456 Y8.406
X136.555 Y8.056
X136.578 Y7.967
X136.596 Y7.877
X136.658 Y7.525
X136.671 Y7.435
X136.68 Y7.344
X136.706 Y6.986
X136.71 Y6.901
X136.711 Y6.816
X136.703 Y6.453
X136.694 Y6.316
X136.658 Y5.95
X136.643 Y5.831
X136.581 Y5.465
X136.566 Y5.384
X136.686 Y5.275
X137.287 Y4.675
G2 X137.815 Y3.401 I-1.272 J-1.274
G1 Y1.6
G2 X137.287 Y0.327 I-1.8 J0.
G1 X136.686 Y-0.274
G2 X135.414 Y-0.8 I-1.272 J1.274
G1 X106.6
G2 X105.327 Y-0.272 I0. J1.8
G1 X104.727 Y0.328
G2 X104.2 Y1.6 I1.273 J1.272
G1 Y3.401
G2 X104.727 Y4.674 I1.8 J0.
G1 X105.327 Y5.274
X105.449 Y5.385
X105.434 Y5.46
X105.372 Y5.826
X105.356 Y5.95
X105.32 Y6.316
X105.311 Y6.458
X105.304 Y6.821
X105.309 Y6.986
X105.335 Y7.344
X105.344 Y7.435
X105.357 Y7.525
X105.419 Y7.877
X105.437 Y7.967
X105.46 Y8.056
X105.559 Y8.406
X105.612 Y8.563
X105.748 Y8.916
X105.798 Y9.034
X105.969 Y9.397
X106.004 Y9.468
X106.205 Y9.851
X106.227 Y9.891
X106.455 Y10.3
X106.46 Y10.31
X106.708 Y10.749
X106.711 Y10.753
X106.976 Y11.219
X106.978 Y11.222
X107.255 Y11.706
X107.266 Y11.725
X107.838 Y12.696
X107.864 Y12.739
X108.152 Y13.199
X108.181 Y13.243
X108.466 Y13.669
X108.491 Y13.706
X108.631 Y13.905
X108.645 Y13.925
X108.782 Y14.114
X108.806 Y14.145
X109.072 Y14.495
X109.079 Y14.505
X109.231 Y14.702
X109.192 Y14.709
X109.115 Y14.724
X108.871 Y14.779
X108.789 Y14.799
X108.555 Y14.863
X108.467 Y14.889
X108.246 Y14.962
X108.147 Y14.998
X107.942 Y15.078
X107.832 Y15.126
X107.645 Y15.215
X107.508 Y15.287
X107.344 Y15.383
X107.262 Y15.434
X107.184 Y15.488
X107.045 Y15.591
G2 X106.844 Y15.763 I1.068 J1.449
G1 X106.734 Y15.872
G2 X106.52 Y16.128 I1.269 J1.277
G1 X106.44 Y16.244
G2 X106.24 Y16.627 I1.483 J1.021
G1 X106.193 Y16.751
G2 X106.086 Y17.2 I1.683 J0.638
G1 X106.072 Y17.333
G2 X106.078 Y17.758 I1.79 J0.189
G1 X106.097 Y17.902
G2 X106.167 Y18.214 I1.784 J-0.236
G1 X106.217 Y18.37
X106.253 Y18.474
X106.296 Y18.575
X106.375 Y18.747
X106.444 Y18.88
X106.551 Y19.069
X106.595 Y19.143
X106.727 Y19.352
X106.748 Y19.384
X106.901 Y19.615
X106.906 Y19.624
X107.076 Y19.877
X107.257 Y20.149
X107.447 Y20.438
X107.641 Y20.747
X107.844 Y21.081
X108.053 Y21.439
X108.266 Y21.822
X108.482 Y22.23
X108.7 Y22.66
X108.918 Y23.114
X109.136 Y23.587
X109.351 Y24.079
X109.562 Y24.589
X109.769 Y25.115
X109.972 Y25.655
X110.168 Y26.203
X110.356 Y26.76
X110.536 Y27.326
X110.707 Y27.89
X111.029 Y29.051
X111.172 Y29.619
X111.306 Y30.192
X111.43 Y30.764
X111.544 Y31.333
X111.648 Y31.896
X111.739 Y32.454
X111.821 Y33.009
X111.892 Y33.559
X111.952 Y34.1
X112.001 Y34.635
X112.039 Y35.163
X112.067 Y35.685
X112.083 Y36.2
X112.09 Y36.707
X112.085 Y37.207
X112.07 Y37.701
X112.045 Y38.188
X112.037 Y38.307
X112.014 Y38.315
X111.911 Y38.342
X111.745 Y38.373
X111.512 Y38.407
X110.955 Y38.484
X110.871 Y38.498
X110.593 Y38.549
X110.481 Y38.574
X110.211 Y38.642
X110.054 Y38.69
X109.8 Y38.78
X109.701 Y38.818
X109.605 Y38.862
X109.373 Y38.976
X109.289 Y39.02
X109.208 Y39.068
X109.102 Y39.134
X108.984 Y39.216
X108.886 Y39.289
X108.768 Y39.385
X108.678 Y39.465
X108.614 Y39.525
X108.552 Y39.588
X108.472 Y39.674
X108.412 Y39.742
X108.356 Y39.813
X108.286 Y39.906
X108.225 Y39.992
X108.169 Y40.082
X108.111 Y40.181
X108.067 Y40.261
X108.027 Y40.343
X107.979 Y40.448
X107.934 Y40.557
X107.895 Y40.669
X107.861 Y40.781
X107.835 Y40.877
X107.814 Y40.974
X107.792 Y41.091
X107.776 Y41.191
X107.766 Y41.292
X107.757 Y41.415
X107.752 Y41.522
X107.754 Y41.63
X107.76 Y41.758
X107.767 Y41.85
X107.778 Y41.941
X107.798 Y42.074
X107.813 Y42.162
X107.833 Y42.248
X107.868 Y42.387
X107.909 Y42.527
X107.958 Y42.671
X108.013 Y42.812
X108.078 Y42.961
X108.131 Y43.071
X108.211 Y43.225
X108.264 Y43.32
X108.359 Y43.478
X108.415 Y43.566
X108.526 Y43.728
X108.58 Y43.803
X108.707 Y43.97
X108.754 Y44.029
X108.896 Y44.2
X108.944 Y44.256
X109.102 Y44.431
X109.147 Y44.479
X109.321 Y44.659
X109.362 Y44.701
X109.552 Y44.885
X109.588 Y44.918
X109.793 Y45.106
X109.826 Y45.135
X110.046 Y45.327
X110.08 Y45.356
X110.316 Y45.552
X110.347 Y45.577
X110.448 Y45.657
X110.445 Y45.661
X110.369 Y45.766
X110.273 Y45.909
X110.201 Y46.024
X110.117 Y46.172
X110.06 Y46.28
X109.987 Y46.431
X109.94 Y46.538
X109.878 Y46.692
X109.838 Y46.802
X109.737 Y47.109
X109.716 Y47.175
X109.637 Y47.45
X109.562 Y47.685
X109.53 Y47.773
X109.488 Y47.874
X109.435 Y47.992
X109.366 Y48.133
X109.282 Y48.295
X109.18 Y48.481
X109.061 Y48.694
X108.928 Y48.927
X108.785 Y49.176
X108.632 Y49.44
X108.623 Y49.457
X108.312 Y50.01
X108.286 Y50.058
X107.984 Y50.636
X107.952 Y50.699
X107.812 Y50.995
X107.789 Y51.045
X107.659 Y51.345
X107.627 Y51.42
X107.51 Y51.725
X107.482 Y51.804
X107.379 Y52.115
X107.349 Y52.217
X107.264 Y52.535
X107.239 Y52.639
X107.172 Y52.967
X107.153 Y53.08
X107.106 Y53.418
X107.094 Y53.533
X107.068 Y53.885
X107.063 Y54.003
X107.06 Y54.369
X107.063 Y54.482
X107.084 Y54.865
X107.092 Y54.963
X107.136 Y55.363
X107.149 Y55.459
X107.218 Y55.878
X107.232 Y55.955
X107.324 Y56.394
X107.341 Y56.466
X107.457 Y56.924
X107.475 Y56.989
X107.615 Y57.466
X107.63 Y57.516
X107.791 Y58.011
X107.808 Y58.06
X107.991 Y58.572
X108.007 Y58.613
X108.21 Y59.139
X108.224 Y59.174
X108.445 Y59.713
X108.458 Y59.746
X108.696 Y60.296
X108.71 Y60.327
X108.964 Y60.884
X108.975 Y60.907
X109.241 Y61.469
X109.26 Y61.507
X109.826 Y62.634
X109.849 Y62.679
X110.446 Y63.787
X110.464 Y63.82
X110.769 Y64.359
X110.78 Y64.379
X111.086 Y64.904
G2 X113.548 Y65.554 I1.556 J-0.906
X114.09 Y65.068 I-0.906 J-1.556
G1 X117.735 Y60.132
X118.04 Y60.384
X113.597 Y66.401
G2 X113.708 Y68.675 I1.448 J1.069
G1 X113.961 Y68.956
X114.01 Y69.009
X114.254 Y69.259
X114.314 Y69.317
X114.548 Y69.536
X114.627 Y69.605
X114.852 Y69.792
X114.949 Y69.867
X114.981 Y69.89
X114.974 Y70.011
X114.972 Y70.095
X114.971 Y70.307
X114.973 Y70.4
X114.983 Y70.611
X114.99 Y70.705
X115.011 Y70.915
X115.023 Y71.008
X115.055 Y71.217
X115.073 Y71.318
X115.117 Y71.525
X115.137 Y71.608
X115.191 Y71.814
X115.219 Y71.911
X115.285 Y72.115
X115.316 Y72.203
X115.393 Y72.405
X115.429 Y72.491
X115.517 Y72.689
X115.557 Y72.774
X115.656 Y72.97
X115.705 Y73.06
X115.816 Y73.251
X115.859 Y73.322
X115.979 Y73.509
X116.036 Y73.591
X116.167 Y73.772
X116.226 Y73.849
X116.367 Y74.023
X116.424 Y74.09
X116.573 Y74.256
X116.645 Y74.333
X116.804 Y74.491
X116.876 Y74.558
X117.043 Y74.707
X117.121 Y74.773
X117.296 Y74.912
X117.379 Y74.973
X117.561 Y75.101
X117.65 Y75.16
X117.839 Y75.277
X117.937 Y75.334
X118.134 Y75.439
X118.226 Y75.485
X118.428 Y75.579
X118.53 Y75.622
X118.739 Y75.704
X118.837 Y75.739
X119.051 Y75.808
X119.15 Y75.838
X119.37 Y75.895
X119.467 Y75.918
X119.692 Y75.964
X119.789 Y75.981
X120.02 Y76.015
X120.112 Y76.027
X120.348 Y76.049
X120.437 Y76.056
X120.678 Y76.067
X120.763 Y76.069
X121.007
X121.251
X121.335 Y76.067
X121.577 Y76.056
X121.667 Y76.049
X121.903 Y76.027
X121.996 Y76.015
X122.227 Y75.981
X122.32 Y75.965
X122.546 Y75.919
X122.645 Y75.895
X122.865 Y75.838
X122.964 Y75.808
X123.178 Y75.739
X123.276 Y75.704
X123.485 Y75.622
X123.587 Y75.579
X123.789 Y75.485
X123.885 Y75.437
X124.081 Y75.332
X124.171 Y75.279
X124.361 Y75.163
X124.454 Y75.101
X124.636 Y74.973
X124.719 Y74.912
X124.894 Y74.773
X124.972 Y74.707
X125.139 Y74.558
X125.215 Y74.487
X125.373 Y74.329
X125.437 Y74.261
X125.587 Y74.094
X125.648 Y74.023
X125.789 Y73.849
X125.852 Y73.766
X125.982 Y73.586
X126.031 Y73.514
X126.152 Y73.328
X126.203 Y73.245
X126.313 Y73.054
X126.355 Y72.976
X126.455 Y72.781
X126.498 Y72.689
X126.586 Y72.491
X126.622 Y72.405
X126.699 Y72.203
X126.73 Y72.115
X126.796 Y71.911
X126.824 Y71.814
X126.878 Y71.608
X126.899 Y71.517
X126.942 Y71.31
X126.959 Y71.217
X126.991 Y71.008
X127.003 Y70.915
X127.024 Y70.705
X127.031 Y70.611
X127.041 Y70.4
X127.043 Y70.315
Y70.104
X127.04 Y70.002
X127.034 Y69.891
X127.095 Y69.845
X127.237 Y69.733
X127.293 Y69.687
X127.439 Y69.561
X127.491 Y69.515
X127.64 Y69.376
X127.676 Y69.341
X127.83 Y69.19
X127.87 Y69.15
X128.027 Y68.986
X128.061 Y68.95
X128.221 Y68.773
X128.244 Y68.747
X128.409 Y68.558
X128.438 Y68.523
X128.605 Y68.321
X128.621 Y68.301
X128.793 Y68.087
X128.816 Y68.058
X128.99 Y67.832
X129.007 Y67.809
X129.184 Y67.572
X129.2 Y67.551
X129.38 Y67.302
X129.393 Y67.283
X129.576 Y67.023
X129.59 Y67.003
X129.775 Y66.733
X129.792 Y66.707
X130.168 Y66.136
X130.189 Y66.103
X130.57 Y65.496
X130.588 Y65.468
X130.972 Y64.83
X130.989 Y64.801
X131.372 Y64.138
X131.387 Y64.111
X131.766 Y63.428
X131.781 Y63.401
X132.152 Y62.704
X132.166 Y62.676
X132.525 Y61.972
X132.54 Y61.944
X132.884 Y61.239
X132.899 Y61.207
X133.224 Y60.507
X133.241 Y60.47
X133.542 Y59.78
X133.558 Y59.741
X133.833 Y59.067
X133.851 Y59.021
X134.097 Y58.369
X134.112 Y58.328
X134.223 Y58.011
X134.233 Y57.982
X134.336 Y57.672
X134.347 Y57.637
X134.441 Y57.333
X134.451 Y57.297
X134.536 Y57.
X134.547 Y56.962
X134.623 Y56.673
X134.633 Y56.632
X134.7 Y56.35
X134.71 Y56.306
X134.768 Y56.032
X134.778 Y55.979
X134.826 Y55.712
X134.835 Y55.661
X134.874 Y55.402
X134.882 Y55.34
X134.911 Y55.088
X134.917 Y55.029
X134.937 Y54.784
X134.941 Y54.721
X134.952 Y54.483
X134.954 Y54.408
X134.955 Y54.176
X134.954 Y54.113
X134.947 Y53.888
X134.94 Y53.774
X134.899 Y53.34
X134.88 Y53.198
X134.807 Y52.782
X134.776 Y52.641
X134.672 Y52.241
X134.637 Y52.122
X134.507 Y51.734
X134.469 Y51.632
X134.316 Y51.252
X134.282 Y51.174
X134.111 Y50.802
X134.083 Y50.744
X133.899 Y50.378
X133.878 Y50.337
X133.686 Y49.979
X133.67 Y49.95
X133.475 Y49.603
X133.467 Y49.588
X133.275 Y49.253
X133.272 Y49.249
X133.09 Y48.933
X132.927 Y48.648
X132.786 Y48.392
X132.67 Y48.175
X132.582 Y47.996
X132.515 Y47.848
X132.472 Y47.739
X132.376 Y47.444
X132.273 Y47.093
X132.256 Y47.038
X132.193 Y46.846
X132.154 Y46.737
X132.077 Y46.545
X132.025 Y46.428
X131.933 Y46.239
X131.853 Y46.092
X131.742 Y45.909
X131.653 Y45.777
X131.566 Y45.658
X131.668 Y45.577
X131.699 Y45.552
X131.935 Y45.356
X131.969 Y45.327
X132.189 Y45.135
X132.222 Y45.106
X132.427 Y44.918
X132.466 Y44.881
X132.655 Y44.697
X132.693 Y44.659
X132.867 Y44.479
X132.912 Y44.431
X133.07 Y44.256
X133.114 Y44.205
X133.257 Y44.034
X133.312 Y43.965
X133.438 Y43.798
X133.488 Y43.728
X133.599 Y43.566
X133.65 Y43.485
X133.746 Y43.327
X133.804 Y43.225
X133.884 Y43.071
X133.937 Y42.961
X134.002 Y42.812
X134.057 Y42.671
X134.106 Y42.527
X134.147 Y42.387
X134.182 Y42.248
X134.202 Y42.162
X134.217 Y42.074
X134.237 Y41.941
X134.249 Y41.843
X134.256 Y41.744
X134.261 Y41.616
X134.262 Y41.523
X134.258 Y41.429
X134.25 Y41.306
X134.24 Y41.198
X134.223 Y41.091
X134.201 Y40.974
X134.178 Y40.869
X134.149 Y40.766
X134.114 Y40.655
X134.08 Y40.557
X134.041 Y40.461
X133.994 Y40.356
X133.948 Y40.261
X133.897 Y40.169
X133.838 Y40.07
X133.789 Y39.992
X133.735 Y39.916
X133.666 Y39.823
X133.607 Y39.747
X133.543 Y39.674
X133.463 Y39.588
X133.401 Y39.525
X133.337 Y39.465
X133.247 Y39.385
X133.129 Y39.289
X133.031 Y39.216
X132.913 Y39.134
X132.807 Y39.068
X132.724 Y39.019
X132.64 Y38.975
X132.407 Y38.86
X132.312 Y38.817
X132.214 Y38.78
X131.96 Y38.69
X131.805 Y38.643
X131.536 Y38.574
X131.422 Y38.549
X131.144 Y38.498
X131.06 Y38.484
X130.503 Y38.407
X130.27 Y38.373
X130.104 Y38.342
X130. Y38.315
X129.978 Y38.307
X129.969 Y38.186
X129.944 Y37.701
X129.93 Y37.208
X129.925 Y36.707
X129.932 Y36.2
X129.948 Y35.685
X129.976 Y35.163
X130.014 Y34.635
X130.063 Y34.099
X130.122 Y33.557
X130.193 Y33.009
X130.274 Y32.456
X130.367 Y31.897
X130.435 Y31.527
G2 X130.329 Y31.28 I-0.24 J-0.044
G3 X130.225 Y31.031 I0.132 J-0.201
G1 X130.29 Y30.702
X130.416 Y30.127
X130.552 Y29.547
X130.695 Y28.974
X131.02 Y27.805
X131.191 Y27.236
X131.374 Y26.668
X131.564 Y26.105
X131.762 Y25.55
X131.965 Y25.007
X132.174 Y24.477
X132.388 Y23.962
X132.606 Y23.464
X132.824 Y22.986
X133.046 Y22.527
X133.266 Y22.091
X133.485 Y21.679
X133.701 Y21.291
X133.912 Y20.929
X134.118 Y20.59
X134.317 Y20.275
X134.506 Y19.984
X134.688 Y19.712
X134.859 Y19.457
X134.864 Y19.45
X135.017 Y19.218
X135.037 Y19.187
X135.168 Y18.978
X135.202 Y18.921
X135.309 Y18.732
X135.363 Y18.627
X135.443 Y18.456
X135.481 Y18.369
X135.513 Y18.279
X135.563 Y18.122
G2 X135.621 Y17.862 I-1.429 J-0.457
G1 X135.64 Y17.719
G2 X135.644 Y17.353 I-1.487 J-0.197
G1 X135.629 Y17.221
G2 X135.54 Y16.857 I-1.491 J0.168
G1 X135.493 Y16.733
G2 X135.331 Y16.422 I-1.402 J0.532
G1 X135.252 Y16.306
G2 X135.064 Y16.08 I-1.24 J0.843
G1 X134.953 Y15.971
X134.877 Y15.9
X134.795 Y15.836
X134.657 Y15.733
X134.588 Y15.685
X134.516 Y15.64
X134.351 Y15.544
X134.243 Y15.487
X134.057 Y15.399
X133.963 Y15.358
X133.758 Y15.277
X133.675 Y15.247
X133.454 Y15.174
X133.381 Y15.152
X133.147 Y15.088
X133.079 Y15.071
X132.835 Y15.017
X132.77 Y15.004
X132.517 Y14.959
X132.456 Y14.949
X132.249 Y14.922
X132.271 Y14.888
X132.459 Y14.631
X132.696 Y14.325
X132.704 Y14.314
X132.97 Y13.963
X132.99 Y13.937
X133.127 Y13.749
X133.139 Y13.732
X133.279 Y13.533
X133.3 Y13.503
X133.585 Y13.077
X133.609 Y13.039
X133.897 Y12.58
X133.919 Y12.544
X134.491 Y11.573
X134.5 Y11.557
X134.777 Y11.073
X134.78 Y11.068
X135.043 Y10.603
X135.292 Y10.165
X135.3 Y10.152
X135.527 Y9.742
X135.542 Y9.714
X135.744 Y9.331
X135.775 Y9.27
X135.945 Y8.906
X135.988 Y8.808
X136.124 Y8.455
X136.167 Y8.324
X136.266 Y7.974
X136.3 Y7.825
X136.362 Y7.473
X136.381 Y7.322
X136.407 Y6.964
X136.411 Y6.822
X136.403 Y6.459
X136.396 Y6.346
X136.36 Y5.98
X136.347 Y5.88
X136.286 Y5.514
X136.268 Y5.426
X136.23 Y5.26
G2 X136.474 Y5.063 I-0.816 J-1.258
G1 X137.075 Y4.462
G2 X137.515 Y3.401 I-1.06 J-1.061
G1 Y1.6
G2 X137.075 Y0.539 I-1.5 J0.
G1 X136.474 Y-0.061
G2 X135.414 Y-0.5 I-1.06 J1.061
G1 X106.6
G2 X105.539 Y-0.06 I0. J1.5
G1 X104.939 Y0.54
G2 X104.5 Y1.6 I1.061 J1.06
G1 Y3.401
G2 X104.939 Y4.462 I1.5 J0.
G1 X105.539 Y5.062
G2 X105.784 Y5.26 I1.061 J-1.06
G1 X105.746 Y5.43
X105.73 Y5.51
X105.668 Y5.876
X105.654 Y5.98
X105.618 Y6.346
X105.611 Y6.464
X105.604 Y6.826
X105.608 Y6.964
X105.634 Y7.322
X105.653 Y7.473
X105.715 Y7.825
X105.749 Y7.974
X105.848 Y8.324
X105.891 Y8.455
X106.027 Y8.808
X106.069 Y8.906
X106.241 Y9.27
X106.27 Y9.329
X106.471 Y9.712
X106.489 Y9.745
X106.717 Y10.154
X106.721 Y10.163
X106.969 Y10.601
X106.972 Y10.605
X107.237 Y11.07
X107.238 Y11.073
X107.515 Y11.557
X107.524 Y11.573
X108.096 Y12.544
X108.118 Y12.58
X108.406 Y13.039
X108.43 Y13.077
X108.715 Y13.503
X108.736 Y13.533
X108.876 Y13.732
X108.888 Y13.749
X109.025 Y13.937
X109.045 Y13.963
X109.311 Y14.314
X109.317 Y14.322
X109.555 Y14.631
X109.744 Y14.888
X109.765 Y14.922
X109.559 Y14.95
X109.498 Y14.959
X109.245 Y15.004
X109.18 Y15.017
X108.936 Y15.071
X108.868 Y15.088
X108.634 Y15.152
X108.561 Y15.174
X108.34 Y15.247
X108.257 Y15.277
X108.052 Y15.358
X107.961 Y15.397
X107.774 Y15.486
X107.659 Y15.546
X107.495 Y15.642
X107.427 Y15.684
X107.362 Y15.73
X107.223 Y15.832
X107.137 Y15.901
X107.056 Y15.976
X106.946 Y16.085
G2 X106.767 Y16.298 I1.057 J1.064
G1 X106.687 Y16.415
G2 X106.521 Y16.733 I1.236 J0.851
G1 X106.474 Y16.857
G2 X106.384 Y17.232 I1.402 J0.532
G1 X106.37 Y17.364
G2 X106.375 Y17.719 I1.492 J0.157
G1 X106.394 Y17.862
G2 X106.452 Y18.122 I1.487 J-0.197
G1 X106.502 Y18.279
X106.533 Y18.365
X106.569 Y18.45
X106.648 Y18.621
X106.705 Y18.732
X106.812 Y18.921
X106.849 Y18.983
X106.981 Y19.192
X106.998 Y19.218
X107.151 Y19.45
X107.156 Y19.457
X107.325 Y19.71
X107.508 Y19.984
X107.699 Y20.276
X107.896 Y20.589
X108.102 Y20.927
X108.313 Y21.291
X108.529 Y21.679
X108.748 Y22.092
X108.969 Y22.527
X109.19 Y22.986
X109.41 Y23.465
X109.627 Y23.962
X109.84 Y24.476
X110.049 Y25.007
X110.253 Y25.551
X110.451 Y26.105
X110.641 Y26.667
X110.823 Y27.236
X110.995 Y27.806
X111.319 Y28.975
X111.463 Y29.548
X111.599 Y30.126
X111.724 Y30.702
X111.839 Y31.276
X111.943 Y31.845
X112.036 Y32.408
X112.118 Y32.968
X112.19 Y33.523
X112.251 Y34.07
X112.3 Y34.611
X112.339 Y35.145
X112.366 Y35.672
X112.383 Y36.194
X112.39 Y36.707
X112.385 Y37.213
X112.37 Y37.713
X112.345 Y38.206
X112.328 Y38.433
X112.307 Y38.469
X112.273 Y38.512
X112.25 Y38.534
X112.228 Y38.55
X112.184 Y38.573
X112.104 Y38.602
X111.977 Y38.635
X111.794 Y38.669
X111.554 Y38.704
X110.996 Y38.781
X110.926 Y38.792
X110.648 Y38.844
X110.555 Y38.865
X110.285 Y38.933
X110.154 Y38.973
X109.9 Y39.063
X109.817 Y39.094
X109.737 Y39.131
X109.505 Y39.245
X109.436 Y39.282
X109.368 Y39.322
X109.262 Y39.388
X109.163 Y39.456
X109.065 Y39.529
X108.967 Y39.609
X108.877 Y39.689
X108.772 Y39.792
X108.692 Y39.878
X108.595 Y39.994
X108.525 Y40.087
X108.475 Y40.158
X108.428 Y40.233
X108.37 Y40.332
X108.3 Y40.467
X108.252 Y40.572
X108.214 Y40.663
X108.182 Y40.757
X108.148 Y40.868
X108.126 Y40.948
X108.109 Y41.029
X108.087 Y41.146
X108.074 Y41.23
X108.065 Y41.314
X108.056 Y41.437
X108.052 Y41.526
X108.054 Y41.616
X108.06 Y41.744
X108.075 Y41.896
X108.095 Y42.03
X108.124 Y42.175
X108.159 Y42.314
X108.193 Y42.43
X108.242 Y42.574
X108.288 Y42.692
X108.353 Y42.84
X108.397 Y42.933
X108.477 Y43.086
X108.521 Y43.166
X108.616 Y43.324
X108.663 Y43.397
X108.774 Y43.559
X108.819 Y43.621
X108.946 Y43.788
X108.985 Y43.838
X109.127 Y44.009
X109.167 Y44.055
X109.325 Y44.231
X109.362 Y44.271
X109.536 Y44.45
X109.571 Y44.485
X109.761 Y44.669
X109.791 Y44.697
X109.996 Y44.885
X110.023 Y44.909
X110.243 Y45.101
X110.272 Y45.125
X110.508 Y45.321
X110.533 Y45.342
X110.785 Y45.542
X110.806 Y45.557
X110.873 Y45.609
X110.848 Y45.638
X110.788 Y45.71
X110.681 Y45.846
X110.617 Y45.934
X110.521 Y46.076
X110.462 Y46.172
X110.378 Y46.32
X110.331 Y46.41
X110.258 Y46.562
X110.218 Y46.651
X110.156 Y46.804
X110.122 Y46.896
X110.021 Y47.203
X110.004 Y47.258
X109.924 Y47.537
X109.846 Y47.783
X109.81 Y47.882
X109.764 Y47.993
X109.707 Y48.119
X109.634 Y48.268
X109.547 Y48.436
X109.443 Y48.627
X109.322 Y48.842
X109.188 Y49.076
X109.045 Y49.326
X108.892 Y49.59
X108.884 Y49.604
X108.573 Y50.157
X108.552 Y50.197
X108.25 Y50.775
X108.223 Y50.827
X108.083 Y51.123
X108.064 Y51.165
X107.933 Y51.465
X107.908 Y51.528
X107.791 Y51.833
X107.767 Y51.898
X107.664 Y52.209
X107.639 Y52.294
X107.554 Y52.613
X107.533 Y52.699
X107.466 Y53.027
X107.45 Y53.121
X107.403 Y53.46
X107.393 Y53.555
X107.367 Y53.907
X107.363 Y54.005
X107.36 Y54.371
X107.362 Y54.466
X107.383 Y54.848
X107.39 Y54.93
X107.434 Y55.33
X107.445 Y55.41
X107.514 Y55.829
X107.526 Y55.894
X107.618 Y56.332
X107.632 Y56.392
X107.748 Y56.85
X107.763 Y56.905
X107.903 Y57.381
X107.916 Y57.423
X108.077 Y57.918
X108.091 Y57.959
X108.274 Y58.471
X108.286 Y58.505
X108.489 Y59.031
X108.501 Y59.061
X108.722 Y59.6
X108.734 Y59.627
X108.972 Y60.176
X108.983 Y60.202
X109.237 Y60.759
X109.246 Y60.779
X109.512 Y61.341
X109.528 Y61.373
X110.094 Y62.499
X110.113 Y62.537
X110.71 Y63.645
X110.725 Y63.672
X111.03 Y64.211
X111.04 Y64.228
X111.346 Y64.754
G2 X113.397 Y65.295 I1.296 J-0.755
X113.849 Y64.89 I-0.755 J-1.296
G1 X117.682 Y59.699
X118.45 Y60.333
X113.838 Y66.58
G2 X113.93 Y68.474 I1.207 J0.891
G1 X114.183 Y68.755
X114.225 Y68.799
X114.469 Y69.049
X114.519 Y69.098
X114.753 Y69.316
X114.818 Y69.374
X115.043 Y69.561
X115.125 Y69.624
X115.29 Y69.743
X115.285 Y69.814
X115.274 Y70.026
X115.272 Y70.097
X115.271 Y70.308
X115.273 Y70.386
X115.283 Y70.597
X115.288 Y70.675
X115.309 Y70.885
X115.319 Y70.963
X115.351 Y71.171
X115.367 Y71.255
X115.411 Y71.463
X115.427 Y71.532
X115.481 Y71.737
X115.505 Y71.819
X115.571 Y72.023
X115.597 Y72.096
X115.674 Y72.298
X115.703 Y72.369
X115.791 Y72.568
X115.825 Y72.639
X115.924 Y72.834
X115.964 Y72.909
X116.075 Y73.101
X116.112 Y73.16
X116.232 Y73.346
X116.279 Y73.415
X116.41 Y73.596
X116.459 Y73.66
X116.6 Y73.834
X116.647 Y73.89
X116.796 Y74.056
X116.857 Y74.12
X117.016 Y74.278
X117.075 Y74.334
X117.242 Y74.483
X117.308 Y74.538
X117.483 Y74.677
X117.552 Y74.728
X117.734 Y74.856
X117.808 Y74.905
X117.997 Y75.022
X118.078 Y75.069
X118.275 Y75.174
X118.352 Y75.213
X118.554 Y75.306
X118.639 Y75.342
X118.848 Y75.424
X118.929 Y75.453
X119.143 Y75.523
X119.226 Y75.547
X119.446 Y75.605
X119.528 Y75.624
X119.753 Y75.67
X119.833 Y75.684
X120.064 Y75.719
X120.14 Y75.728
X120.376 Y75.751
X120.451 Y75.756
X120.692 Y75.767
X120.763 Y75.769
X121.007
X121.251
X121.322 Y75.767
X121.564 Y75.756
X121.639 Y75.751
X121.875 Y75.728
X121.952 Y75.719
X122.182 Y75.684
X122.26 Y75.671
X122.486 Y75.625
X122.569 Y75.605
X122.789 Y75.547
X122.872 Y75.523
X123.086 Y75.453
X123.167 Y75.424
X123.376 Y75.342
X123.461 Y75.306
X123.663 Y75.213
X123.742 Y75.173
X123.938 Y75.067
X124.014 Y75.024
X124.204 Y74.907
X124.281 Y74.856
X124.463 Y74.728
X124.532 Y74.677
X124.707 Y74.538
X124.773 Y74.483
X124.94 Y74.334
X125.003 Y74.274
X125.161 Y74.116
X125.214 Y74.06
X125.364 Y73.893
X125.415 Y73.834
X125.556 Y73.66
X125.609 Y73.591
X125.739 Y73.411
X125.779 Y73.351
X125.9 Y73.165
X125.943 Y73.096
X126.053 Y72.904
X126.087 Y72.84
X126.187 Y72.644
X126.224 Y72.568
X126.312 Y72.369
X126.341 Y72.298
X126.418 Y72.096
X126.444 Y72.023
X126.51 Y71.819
X126.534 Y71.737
X126.588 Y71.532
X126.606 Y71.456
X126.649 Y71.249
X126.663 Y71.171
X126.695 Y70.963
X126.705 Y70.885
X126.726 Y70.675
X126.731 Y70.597
X126.741 Y70.386
X126.743 Y70.315
Y70.104
X126.741 Y70.019
X126.729 Y69.807
X126.724 Y69.745
X126.855 Y69.651
X126.909 Y69.61
X127.051 Y69.497
X127.097 Y69.459
X127.243 Y69.334
X127.287 Y69.295
X127.436 Y69.156
X127.466 Y69.127
X127.62 Y68.976
X127.653 Y68.943
X127.81 Y68.779
X127.838 Y68.748
X127.998 Y68.572
X128.017 Y68.55
X128.182 Y68.361
X128.207 Y68.332
X128.374 Y68.13
X128.387 Y68.114
X128.559 Y67.9
X128.578 Y67.875
X128.752 Y67.649
X128.767 Y67.63
X128.944 Y67.392
X128.957 Y67.375
X129.137 Y67.126
X129.148 Y67.111
X129.331 Y66.851
X129.342 Y66.834
X129.527 Y66.564
X129.542 Y66.542
X129.918 Y65.971
X129.935 Y65.944
X130.316 Y65.337
X130.331 Y65.313
X130.715 Y64.675
X130.729 Y64.651
X131.112 Y63.988
X131.125 Y63.966
X131.504 Y63.283
X131.516 Y63.26
X131.887 Y62.563
X131.899 Y62.54
X132.258 Y61.836
X132.27 Y61.812
X132.614 Y61.107
X132.627 Y61.081
X132.952 Y60.381
X132.966 Y60.35
X133.267 Y59.66
X133.281 Y59.627
X133.556 Y58.954
X133.571 Y58.916
X133.817 Y58.263
X133.829 Y58.229
X133.94 Y57.912
X133.948 Y57.888
X134.051 Y57.577
X134.06 Y57.549
X134.154 Y57.245
X134.163 Y57.215
X134.248 Y56.918
X134.257 Y56.886
X134.333 Y56.597
X134.341 Y56.562
X134.408 Y56.281
X134.417 Y56.244
X134.475 Y55.97
X134.483 Y55.925
X134.531 Y55.659
X134.538 Y55.616
X134.577 Y55.357
X134.584 Y55.306
X134.613 Y55.054
X134.618 Y55.005
X134.638 Y54.76
X134.641 Y54.707
X134.652 Y54.469
X134.654 Y54.407
X134.655 Y54.175
X134.654 Y54.122
X134.647 Y53.897
X134.641 Y53.802
X134.6 Y53.368
X134.584 Y53.25
X134.511 Y52.834
X134.486 Y52.716
X134.382 Y52.316
X134.352 Y52.217
X134.222 Y51.829
X134.191 Y51.744
X134.038 Y51.364
X134.01 Y51.299
X133.839 Y50.927
X133.816 Y50.879
X133.632 Y50.513
X133.614 Y50.479
X133.422 Y50.121
X133.408 Y50.097
X133.213 Y49.749
X133.206 Y49.737
X133.014 Y49.402
X133.012 Y49.398
X132.83 Y49.083
X132.666 Y48.795
X132.522 Y48.536
X132.403 Y48.312
X132.31 Y48.123
X132.239 Y47.965
X132.19 Y47.841
X132.089 Y47.532
X131.986 Y47.178
X131.971 Y47.131
X131.908 Y46.939
X131.875 Y46.849
X131.798 Y46.657
X131.755 Y46.559
X131.663 Y46.37
X131.596 Y46.247
X131.485 Y46.065
X131.412 Y45.955
X131.284 Y45.781
X131.203 Y45.68
X131.141 Y45.61
X131.207 Y45.559
X131.23 Y45.542
X131.482 Y45.342
X131.507 Y45.321
X131.743 Y45.125
X131.772 Y45.101
X131.992 Y44.909
X132.019 Y44.885
X132.224 Y44.697
X132.257 Y44.666
X132.446 Y44.482
X132.478 Y44.45
X132.652 Y44.271
X132.689 Y44.231
X132.847 Y44.055
X132.883 Y44.013
X133.027 Y43.842
X133.072 Y43.784
X133.198 Y43.617
X133.24 Y43.559
X133.351 Y43.397
X133.394 Y43.33
X133.49 Y43.172
X133.538 Y43.086
X133.618 Y42.933
X133.662 Y42.84
X133.727 Y42.692
X133.773 Y42.574
X133.822 Y42.43
X133.856 Y42.314
X133.891 Y42.175
X133.92 Y42.03
X133.94 Y41.896
X133.95 Y41.815
X133.956 Y41.733
X133.961 Y41.605
X133.962 Y41.527
X133.959 Y41.449
X133.951 Y41.326
X133.942 Y41.236
X133.928 Y41.146
X133.906 Y41.029
X133.887 Y40.942
X133.863 Y40.856
X133.828 Y40.745
X133.8 Y40.663
X133.767 Y40.583
X133.72 Y40.478
X133.682 Y40.399
X133.639 Y40.323
X133.58 Y40.223
X133.495 Y40.095
X133.426 Y40.002
X133.376 Y39.939
X133.323 Y39.878
X133.243 Y39.792
X133.138 Y39.689
X133.048 Y39.609
X132.95 Y39.529
X132.852 Y39.456
X132.753 Y39.388
X132.647 Y39.322
X132.578 Y39.281
X132.508 Y39.244
X132.275 Y39.13
X132.196 Y39.094
X132.114 Y39.063
X131.86 Y38.973
X131.731 Y38.934
X131.462 Y38.865
X131.367 Y38.844
X131.089 Y38.792
X131.019 Y38.781
X130.461 Y38.704
X130.221 Y38.669
X130.038 Y38.635
X129.91 Y38.602
X129.831 Y38.573
X129.788 Y38.551
X129.765 Y38.534
X129.742 Y38.512
X129.708 Y38.469
X129.687 Y38.433
X129.67 Y38.205
X129.644 Y37.713
X129.63 Y37.214
X129.625 Y36.707
X129.632 Y36.194
X129.649 Y35.672
X129.676 Y35.145
X129.715 Y34.611
X129.765 Y34.069
X129.824 Y33.521
X129.896 Y32.968
X129.978 Y32.41
X130.072 Y31.846
X130.176 Y31.275
X130.225 Y31.031
G3 X130.578 Y30.796 I0.294 J0.059
G1 X130.872 Y30.854
X130.937 Y30.867 Z0.258
X131. Y30.88 Z0.28
X131.055 Y30.891 Z0.315
X131.102 Y30.9 Z0.363
X131.137 Y30.907 Z0.42
X131.159 Y30.911 Z0.483
X131.166 Y30.913 Z0.55
G0 Z21.007
X145.87 Y31.407
G1 Z17.007 F133.3
Z0.55
X145.877 Y31.405 Z0.483 F400
X145.899 Y31.401 Z0.42
X145.934 Y31.395 Z0.363
X145.981 Y31.386 Z0.315
X146.037 Y31.376 Z0.28
X146.099 Y31.365 Z0.258
X146.165 Y31.353 Z0.25
X146.46 Y31.299
G3 X146.809 Y31.541 I0.054 J0.295
G1 X146.874 Y31.896
X146.967 Y32.456
X147.048 Y33.009
X147.119 Y33.557
X147.178 Y34.099
X147.227 Y34.635
X147.265 Y35.163
X147.293 Y35.685
X147.309 Y36.2
X147.316 Y36.709
X147.312 Y37.208
X147.297 Y37.701
X147.272 Y38.186
X147.263 Y38.307
X147.241 Y38.315
X147.137 Y38.342
X146.971 Y38.373
X146.738 Y38.407
X146.181 Y38.484
X146.097 Y38.498
X145.819 Y38.549
X145.705 Y38.574
X145.436 Y38.643
X145.281 Y38.69
X145.027 Y38.78
X144.929 Y38.817
X144.834 Y38.86
X144.601 Y38.975
X144.517 Y39.019
X144.434 Y39.068
X144.328 Y39.134
X144.21 Y39.216
X144.112 Y39.289
X143.987 Y39.392
X143.898 Y39.471
X143.779 Y39.588
X143.699 Y39.674
X143.639 Y39.742
X143.583 Y39.813
X143.513 Y39.906
X143.456 Y39.987
X143.403 Y40.07
X143.344 Y40.169
X143.293 Y40.261
X143.247 Y40.356
X143.2 Y40.461
X143.161 Y40.557
X143.127 Y40.655
X143.092 Y40.766
X143.063 Y40.869
X143.04 Y40.974
X143.018 Y41.091
X143.001 Y41.198
X142.991 Y41.306
X142.983 Y41.429
X142.979 Y41.523
X142.98 Y41.616
X142.985 Y41.744
X142.992 Y41.843
X143.004 Y41.941
X143.024 Y42.074
X143.039 Y42.162
X143.059 Y42.248
X143.094 Y42.387
X143.139 Y42.538
X143.189 Y42.681
X143.236 Y42.803
X143.3 Y42.951
X143.357 Y43.071
X143.437 Y43.225
X143.495 Y43.327
X143.591 Y43.485
X143.642 Y43.566
X143.753 Y43.728
X143.807 Y43.803
X143.934 Y43.97
X143.981 Y44.029
X144.123 Y44.2
X144.171 Y44.256
X144.329 Y44.431
X144.374 Y44.479
X144.548 Y44.659
X144.586 Y44.697
X144.775 Y44.881
X144.814 Y44.918
X145.019 Y45.106
X145.055 Y45.138
X145.276 Y45.33
X145.307 Y45.356
X145.543 Y45.552
X145.571 Y45.575
X145.676 Y45.658
X145.592 Y45.772
X145.499 Y45.909
X145.388 Y46.092
X145.308 Y46.239
X145.216 Y46.428
X145.161 Y46.553
X145.085 Y46.745
X145.051 Y46.838
X144.987 Y47.03
X144.968 Y47.093
X144.865 Y47.444
X144.769 Y47.739
X144.726 Y47.848
X144.659 Y47.996
X144.57 Y48.177
X144.456 Y48.393
X144.315 Y48.645
X144.151 Y48.933
X143.969 Y49.249
X143.966 Y49.253
X143.774 Y49.588
X143.766 Y49.603
X143.571 Y49.95
X143.555 Y49.979
X143.363 Y50.337
X143.342 Y50.378
X143.158 Y50.744
X143.13 Y50.802
X142.959 Y51.174
X142.925 Y51.252
X142.772 Y51.632
X142.734 Y51.734
X142.604 Y52.122
X142.568 Y52.245
X142.465 Y52.645
X142.436 Y52.778
X142.362 Y53.193
X142.342 Y53.34
X142.301 Y53.774
X142.294 Y53.888
X142.287 Y54.113
X142.286 Y54.176
X142.287 Y54.408
X142.289 Y54.483
X142.3 Y54.721
X142.304 Y54.784
X142.324 Y55.029
X142.33 Y55.088
X142.359 Y55.34
X142.367 Y55.402
X142.406 Y55.661
X142.415 Y55.712
X142.463 Y55.979
X142.473 Y56.032
X142.531 Y56.306
X142.541 Y56.35
X142.608 Y56.632
X142.618 Y56.673
X142.694 Y56.962
X142.705 Y57.
X142.79 Y57.297
X142.8 Y57.333
X142.894 Y57.637
X142.905 Y57.672
X143.008 Y57.982
X143.018 Y58.011
X143.129 Y58.328
X143.144 Y58.369
X143.39 Y59.021
X143.408 Y59.067
X143.683 Y59.741
X143.7 Y59.782
X144.002 Y60.472
X144.017 Y60.505
X144.341 Y61.205
X144.357 Y61.239
X144.701 Y61.944
X144.715 Y61.972
X145.075 Y62.676
X145.089 Y62.704
X145.46 Y63.401
X145.475 Y63.428
X145.854 Y64.111
X145.869 Y64.138
X146.252 Y64.801
X146.269 Y64.83
X146.653 Y65.468
X146.672 Y65.498
X147.054 Y66.105
X147.073 Y66.135
X147.448 Y66.705
X147.466 Y66.733
X147.651 Y67.003
X147.665 Y67.023
X147.848 Y67.283
X147.861 Y67.302
X148.041 Y67.551
X148.057 Y67.572
X148.234 Y67.809
X148.254 Y67.836
X148.429 Y68.062
X148.446 Y68.083
X148.617 Y68.297
X148.636 Y68.321
X148.803 Y68.523
X148.832 Y68.558
X148.997 Y68.747
X149.02 Y68.773
X149.18 Y68.95
X149.218 Y68.99
X149.376 Y69.154
X149.407 Y69.186
X149.56 Y69.337
X149.601 Y69.376
X149.75 Y69.515
X149.802 Y69.561
X149.948 Y69.687
X150.004 Y69.733
X150.146 Y69.845
X150.207 Y69.891
X150.201 Y70.002
X150.198 Y70.104
Y70.315
X150.2 Y70.4
X150.21 Y70.611
X150.217 Y70.705
X150.238 Y70.915
X150.25 Y71.008
X150.282 Y71.217
X150.299 Y71.31
X150.342 Y71.517
X150.363 Y71.608
X150.417 Y71.814
X150.445 Y71.911
X150.511 Y72.115
X150.542 Y72.203
X150.619 Y72.405
X150.658 Y72.497
X150.747 Y72.696
X150.784 Y72.774
X150.883 Y72.97
X150.928 Y73.054
X151.038 Y73.245
X151.089 Y73.328
X151.21 Y73.514
X151.259 Y73.586
X151.389 Y73.766
X151.452 Y73.849
X151.593 Y74.023
X151.654 Y74.094
X151.804 Y74.261
X151.868 Y74.329
X152.026 Y74.487
X152.102 Y74.558
X152.269 Y74.707
X152.347 Y74.773
X152.522 Y74.912
X152.605 Y74.973
X152.787 Y75.101
X152.88 Y75.163
X153.07 Y75.279
X153.16 Y75.332
X153.356 Y75.437
X153.452 Y75.485
X153.654 Y75.579
X153.756 Y75.622
X153.965 Y75.704
X154.063 Y75.739
X154.277 Y75.808
X154.376 Y75.838
X154.596 Y75.895
X154.695 Y75.919
X154.921 Y75.965
X155.016 Y75.981
X155.247 Y76.015
X155.339 Y76.027
X155.575 Y76.049
X155.664 Y76.056
X155.905 Y76.067
X155.99 Y76.069
X156.234
X156.478
X156.563 Y76.067
X156.804 Y76.056
X156.893 Y76.049
X157.129 Y76.027
X157.221 Y76.015
X157.452 Y75.981
X157.549 Y75.964
X157.774 Y75.918
X157.871 Y75.895
X158.091 Y75.838
X158.188 Y75.809
X158.403 Y75.739
X158.506 Y75.702
X158.714 Y75.621
X158.81 Y75.58
X159.013 Y75.486
X159.112 Y75.437
X159.308 Y75.332
X159.402 Y75.277
X159.591 Y75.16
X159.68 Y75.101
X159.862 Y74.973
X159.945 Y74.912
X160.12 Y74.773
X160.198 Y74.707
X160.365 Y74.558
X160.437 Y74.491
X160.596 Y74.333
X160.664 Y74.261
X160.814 Y74.094
X160.879 Y74.018
X161.019 Y73.844
X161.074 Y73.772
X161.205 Y73.591
X161.258 Y73.514
X161.379 Y73.328
X161.43 Y73.245
X161.54 Y73.054
X161.585 Y72.97
X161.684 Y72.774
X161.724 Y72.689
X161.812 Y72.491
X161.848 Y72.405
X161.925 Y72.203
X161.956 Y72.115
X162.022 Y71.911
X162.05 Y71.814
X162.104 Y71.608
X162.124 Y71.525
X162.168 Y71.318
X162.186 Y71.217
X162.218 Y71.008
X162.23 Y70.915
X162.251 Y70.705
X162.258 Y70.611
X162.268 Y70.4
X162.27 Y70.307
X162.269 Y70.095
X162.267 Y70.011
X162.26 Y69.89
X162.292 Y69.867
X162.389 Y69.792
X162.614 Y69.605
X162.69 Y69.538
X162.925 Y69.32
X162.99 Y69.256
X163.233 Y69.006
X163.28 Y68.956
X163.533 Y68.675
G2 X163.644 Y66.401 I-1.337 J-1.205
G1 X159.201 Y60.384
X159.506 Y60.132
X163.151 Y65.068
G2 X165.668 Y65.447 I1.448 J-1.069
X166.155 Y64.904 I-1.069 J-1.448
G1 X166.461 Y64.379
X166.472 Y64.359
X166.777 Y63.82
X166.795 Y63.787
X167.392 Y62.679
X167.415 Y62.634
X167.981 Y61.507
X168. Y61.469
X168.266 Y60.907
X168.277 Y60.884
X168.531 Y60.327
X168.545 Y60.296
X168.783 Y59.746
X168.796 Y59.713
X169.017 Y59.174
X169.031 Y59.139
X169.234 Y58.613
X169.25 Y58.572
X169.433 Y58.06
X169.45 Y58.011
X169.611 Y57.516
X169.626 Y57.466
X169.766 Y56.989
X169.784 Y56.924
X169.9 Y56.466
X169.917 Y56.394
X170.009 Y55.955
X170.023 Y55.878
X170.092 Y55.459
X170.105 Y55.363
X170.149 Y54.963
X170.157 Y54.865
X170.178 Y54.482
X170.181 Y54.369
X170.178 Y54.003
X170.173 Y53.885
X170.147 Y53.533
X170.136 Y53.423
X170.09 Y53.085
X170.07 Y52.967
X170.003 Y52.639
X169.977 Y52.53
X169.891 Y52.212
X169.862 Y52.115
X169.759 Y51.804
X169.731 Y51.725
X169.614 Y51.42
X169.583 Y51.345
X169.451 Y51.045
X169.429 Y50.995
X169.289 Y50.699
X169.257 Y50.636
X168.955 Y50.058
X168.929 Y50.01
X168.618 Y49.457
X168.609 Y49.44
X168.457 Y49.176
X168.313 Y48.927
X168.18 Y48.694
X168.062 Y48.484
X167.96 Y48.295
X167.873 Y48.13
X167.806 Y47.992
X167.753 Y47.874
X167.711 Y47.773
X167.679 Y47.685
X167.604 Y47.45
X167.525 Y47.175
X167.504 Y47.109
X167.403 Y46.802
X167.363 Y46.692
X167.301 Y46.538
X167.254 Y46.431
X167.181 Y46.28
X167.124 Y46.172
X167.04 Y46.024
X166.968 Y45.909
X166.872 Y45.766
X166.796 Y45.661
X166.793 Y45.657
X166.897 Y45.575
X166.925 Y45.552
X167.161 Y45.356
X167.192 Y45.33
X167.413 Y45.138
X167.449 Y45.106
X167.654 Y44.918
X167.693 Y44.881
X167.882 Y44.697
X167.92 Y44.659
X168.094 Y44.479
X168.139 Y44.431
X168.297 Y44.256
X168.345 Y44.2
X168.487 Y44.029
X168.534 Y43.97
X168.661 Y43.803
X168.715 Y43.728
X168.826 Y43.566
X168.882 Y43.478
X168.977 Y43.32
X169.03 Y43.225
X169.11 Y43.071
X169.163 Y42.961
X169.228 Y42.812
X169.279 Y42.681
X169.329 Y42.538
X169.377 Y42.375
X169.411 Y42.236
X169.443 Y42.074
X169.463 Y41.941
X169.474 Y41.85
X169.481 Y41.758
X169.487 Y41.63
X169.489 Y41.522
X169.484 Y41.415
X169.475 Y41.292
X169.465 Y41.191
X169.449 Y41.091
X169.427 Y40.974
X169.406 Y40.877
X169.38 Y40.781
X169.346 Y40.669
X169.31 Y40.564
X169.268 Y40.461
X169.221 Y40.356
X169.175 Y40.261
X169.124 Y40.169
X169.065 Y40.07
X169.012 Y39.987
X168.955 Y39.906
X168.885 Y39.813
X168.829 Y39.742
X168.769 Y39.674
X168.689 Y39.588
X168.627 Y39.525
X168.563 Y39.465
X168.473 Y39.385
X168.355 Y39.289
X168.257 Y39.216
X168.139 Y39.134
X168.033 Y39.068
X167.952 Y39.02
X167.868 Y38.976
X167.636 Y38.862
X167.54 Y38.818
X167.441 Y38.78
X167.187 Y38.69
X167.032 Y38.643
X166.763 Y38.574
X166.648 Y38.549
X166.369 Y38.497
X166.286 Y38.484
X165.729 Y38.407
X165.496 Y38.373
X165.331 Y38.342
X165.227 Y38.315
X165.204 Y38.307
X165.196 Y38.188
X165.171 Y37.701
X165.156 Y37.207
X165.151 Y36.707
X165.158 Y36.2
X165.174 Y35.685
X165.202 Y35.163
X165.24 Y34.635
X165.289 Y34.1
X165.349 Y33.559
X165.42 Y33.009
X165.502 Y32.454
X165.593 Y31.896
X165.697 Y31.333
X165.811 Y30.764
X165.935 Y30.192
X166.069 Y29.619
X166.212 Y29.051
X166.534 Y27.89
X166.704 Y27.327
X166.886 Y26.76
X167.074 Y26.202
X167.269 Y25.655
X167.472 Y25.115
X167.679 Y24.589
X167.89 Y24.081
X168.106 Y23.587
X168.323 Y23.112
X168.541 Y22.66
X168.759 Y22.23
X168.975 Y21.822
X169.188 Y21.439
X169.397 Y21.081
X169.6 Y20.747
X169.794 Y20.438
X169.984 Y20.149
X170.164 Y19.879
X170.333 Y19.628
X170.341 Y19.615
X170.494 Y19.384
X170.518 Y19.347
X170.649 Y19.138
X170.69 Y19.069
X170.797 Y18.88
X170.862 Y18.754
X170.942 Y18.583
X170.987 Y18.478
X171.025 Y18.37
X171.075 Y18.214
G2 X171.147 Y17.889 I-1.714 J-0.549
G1 X171.165 Y17.746
G2 X171.169 Y17.333 I-1.786 J-0.224
G1 X171.155 Y17.2
G2 X171.048 Y16.751 I-1.79 J0.189
G1 X171.001 Y16.627
G2 X170.801 Y16.244 I-1.683 J0.638
G1 X170.721 Y16.128
G2 X170.507 Y15.872 I-1.483 J1.021
G1 X170.397 Y15.763
G2 X170.196 Y15.591 I-1.269 J1.277
G1 X170.057 Y15.488
X169.979 Y15.434
X169.897 Y15.383
X169.733 Y15.287
X169.596 Y15.215
X169.409 Y15.126
X169.299 Y15.078
X169.094 Y14.998
X168.995 Y14.962
X168.774 Y14.889
X168.686 Y14.863
X168.452 Y14.799
X168.37 Y14.779
X168.126 Y14.724
X168.05 Y14.709
X168.01 Y14.702
X168.162 Y14.505
X168.169 Y14.495
X168.435 Y14.145
X168.459 Y14.114
X168.596 Y13.925
X168.61 Y13.905
X168.75 Y13.706
X168.775 Y13.669
X169.06 Y13.243
X169.089 Y13.199
X169.377 Y12.739
X169.402 Y12.698
X169.975 Y11.726
X169.989 Y11.703
X170.265 Y11.22
Y11.219
X170.53 Y10.753
X170.533 Y10.749
X170.781 Y10.31
X170.786 Y10.3
X171.014 Y9.891
X171.036 Y9.851
X171.237 Y9.468
X171.272 Y9.397
X171.443 Y9.034
X171.493 Y8.916
X171.629 Y8.563
X171.682 Y8.406
X171.781 Y8.056
X171.804 Y7.967
X171.822 Y7.877
X171.884 Y7.525
X171.897 Y7.435
X171.906 Y7.344
X171.932 Y6.986
X171.937 Y6.821
X171.93 Y6.458
X171.921 Y6.316
X171.885 Y5.95
X171.869 Y5.826
X171.807 Y5.46
X171.792 Y5.385
X171.914 Y5.274
X172.514 Y4.674
G2 X173.041 Y3.401 I-1.273 J-1.272
G1 Y1.6
G2 X172.514 Y0.328 I-1.8 J0.
G1 X171.914 Y-0.272
G2 X170.641 Y-0.8 I-1.273 J1.272
G1 X141.827
G2 X140.555 Y-0.274 I0. J1.8
G1 X139.954 Y0.327
G2 X139.426 Y1.6 I1.272 J1.274
G1 Y3.401
G2 X139.954 Y4.675 I1.8 J0.
G1 X140.555 Y5.275
X140.675 Y5.384
X140.66 Y5.465
X140.598 Y5.831
X140.583 Y5.95
X140.547 Y6.316
X140.538 Y6.458
X140.531 Y6.821
X140.535 Y6.981
X140.56 Y7.339
X140.569 Y7.432
X140.583 Y7.525
X140.645 Y7.877
X140.663 Y7.967
X140.686 Y8.056
X140.785 Y8.406
X140.81 Y8.487
X140.839 Y8.567
X140.976 Y8.92
X141.023 Y9.03
X141.193 Y9.394
X141.232 Y9.471
X141.434 Y9.854
X141.452 Y9.888
X141.679 Y10.297
X141.688 Y10.313
X141.937 Y10.751
X142.2 Y11.216
X142.204 Y11.222
X142.481 Y11.706
X142.492 Y11.725
X143.064 Y12.696
X143.091 Y12.742
X143.38 Y13.201
X143.406 Y13.241
X143.69 Y13.667
X143.717 Y13.706
X143.857 Y13.905
X143.875 Y13.93
X144.013 Y14.119
X144.031 Y14.142
X144.296 Y14.493
X144.308 Y14.508
X144.457 Y14.702
X144.418 Y14.709
X144.341 Y14.724
X144.097 Y14.779
X144.015 Y14.799
X143.781 Y14.863
X143.691 Y14.89
X143.471 Y14.963
X143.377 Y14.996
X143.171 Y15.077
X143.055 Y15.128
X142.869 Y15.216
X142.735 Y15.287
X142.571 Y15.383
X142.489 Y15.434
X142.411 Y15.488
X142.272 Y15.591
G2 X142.071 Y15.763 I1.068 J1.449
G1 X141.961 Y15.872
G2 X141.747 Y16.128 I1.269 J1.277
G1 X141.667 Y16.244
G2 X141.467 Y16.627 I1.483 J1.021
G1 X141.42 Y16.751
G2 X141.314 Y17.187 I1.683 J0.638
G1 X141.299 Y17.32
G2 X141.304 Y17.758 I1.789 J0.202
G1 X141.323 Y17.902
G2 X141.393 Y18.214 I1.784 J-0.236
G1 X141.443 Y18.37
X141.481 Y18.478
X141.526 Y18.583
X141.606 Y18.754
X141.671 Y18.88
X141.778 Y19.069
X141.819 Y19.138
X141.95 Y19.347
X141.974 Y19.384
X142.127 Y19.615
X142.135 Y19.628
X142.304 Y19.879
X142.483 Y20.148
X142.671 Y20.437
X142.868 Y20.748
X143.072 Y21.082
X143.28 Y21.439
X143.493 Y21.822
X143.708 Y22.229
X143.926 Y22.66
X144.145 Y23.114
X144.362 Y23.586
X144.577 Y24.079
X144.789 Y24.59
X144.996 Y25.115
X145.197 Y25.653
X145.394 Y26.203
X145.582 Y26.762
X145.764 Y27.327
X145.934 Y27.89
X146.255 Y29.05
X146.398 Y29.618
X146.532 Y30.193
X146.657 Y30.765
X146.771 Y31.332
X146.809 Y31.541
G2 X146.997 Y31.735 I0.239 J-0.043
G3 X147.183 Y31.93 I-0.05 J0.235
G1 X147.263 Y32.41
X147.345 Y32.968
X147.417 Y33.521
X147.476 Y34.069
X147.526 Y34.611
X147.565 Y35.145
X147.592 Y35.672
X147.609 Y36.194
X147.616 Y36.708
X147.612 Y37.214
X147.597 Y37.713
X147.572 Y38.205
X147.555 Y38.432
X147.533 Y38.469
X147.499 Y38.512
X147.476 Y38.534
X147.453 Y38.551
X147.41 Y38.573
X147.331 Y38.602
X147.203 Y38.635
X147.02 Y38.669
X146.78 Y38.704
X146.222 Y38.781
X146.152 Y38.792
X145.874 Y38.844
X145.779 Y38.865
X145.51 Y38.934
X145.381 Y38.973
X145.127 Y39.063
X145.045 Y39.094
X144.966 Y39.13
X144.733 Y39.244
X144.663 Y39.281
X144.594 Y39.322
X144.488 Y39.388
X144.389 Y39.456
X144.291 Y39.529
X144.187 Y39.615
X144.098 Y39.695
X143.999 Y39.792
X143.919 Y39.878
X143.822 Y39.994
X143.752 Y40.087
X143.705 Y40.154
X143.661 Y40.223
X143.602 Y40.323
X143.559 Y40.399
X143.521 Y40.478
X143.474 Y40.583
X143.441 Y40.663
X143.413 Y40.745
X143.378 Y40.856
X143.354 Y40.942
X143.335 Y41.029
X143.313 Y41.146
X143.299 Y41.236
X143.29 Y41.326
X143.282 Y41.449
X143.279 Y41.527
X143.28 Y41.605
X143.285 Y41.733
X143.291 Y41.815
X143.301 Y41.896
X143.321 Y42.03
X143.35 Y42.175
X143.385 Y42.314
X143.422 Y42.439
X143.472 Y42.583
X143.511 Y42.684
X143.575 Y42.833
X143.623 Y42.933
X143.703 Y43.086
X143.751 Y43.172
X143.847 Y43.33
X143.89 Y43.397
X144.001 Y43.559
X144.046 Y43.621
X144.173 Y43.788
X144.212 Y43.838
X144.354 Y44.009
X144.394 Y44.055
X144.552 Y44.231
X144.589 Y44.271
X144.763 Y44.45
X144.795 Y44.482
X144.984 Y44.666
X145.017 Y44.697
X145.222 Y44.885
X145.252 Y44.911
X145.473 Y45.103
X145.499 Y45.125
X145.735 Y45.321
X145.758 Y45.34
X146.009 Y45.54
X146.034 Y45.559
X146.1 Y45.61
X146.036 Y45.684
X145.962 Y45.776
X145.833 Y45.95
X145.756 Y46.065
X145.645 Y46.247
X145.578 Y46.37
X145.486 Y46.559
X145.44 Y46.663
X145.364 Y46.855
X145.336 Y46.933
X145.272 Y47.124
X145.255 Y47.178
X145.152 Y47.532
X145.051 Y47.841
X145.002 Y47.965
X144.931 Y48.123
X144.837 Y48.314
X144.72 Y48.536
X144.576 Y48.793
X144.411 Y49.083
X144.229 Y49.398
X144.227 Y49.402
X144.035 Y49.737
X144.028 Y49.749
X143.833 Y50.097
X143.819 Y50.121
X143.627 Y50.479
X143.609 Y50.513
X143.425 Y50.879
X143.402 Y50.927
X143.231 Y51.299
X143.203 Y51.364
X143.05 Y51.744
X143.019 Y51.829
X142.889 Y52.217
X142.858 Y52.32
X142.755 Y52.72
X142.731 Y52.831
X142.657 Y53.246
X142.641 Y53.368
X142.6 Y53.802
X142.594 Y53.897
X142.587 Y54.122
X142.586 Y54.175
X142.587 Y54.407
X142.589 Y54.469
X142.6 Y54.707
X142.603 Y54.76
X142.623 Y55.005
X142.628 Y55.054
X142.657 Y55.306
X142.664 Y55.357
X142.703 Y55.616
X142.71 Y55.659
X142.758 Y55.925
X142.766 Y55.97
X142.824 Y56.244
X142.833 Y56.281
X142.9 Y56.562
X142.908 Y56.597
X142.984 Y56.886
X142.993 Y56.918
X143.078 Y57.215
X143.087 Y57.245
X143.181 Y57.549
X143.19 Y57.577
X143.293 Y57.888
X143.301 Y57.912
X143.412 Y58.229
X143.424 Y58.263
X143.67 Y58.916
X143.685 Y58.954
X143.96 Y59.627
X143.975 Y59.662
X144.277 Y60.351
X144.29 Y60.379
X144.614 Y61.079
X144.627 Y61.107
X144.971 Y61.812
X144.983 Y61.836
X145.342 Y62.54
X145.354 Y62.563
X145.725 Y63.26
X145.737 Y63.283
X146.116 Y63.966
X146.129 Y63.988
X146.512 Y64.651
X146.526 Y64.675
X146.91 Y65.313
X146.926 Y65.338
X147.308 Y65.945
X147.323 Y65.97
X147.698 Y66.541
X147.714 Y66.564
X147.899 Y66.834
X147.91 Y66.851
X148.093 Y67.111
X148.104 Y67.126
X148.284 Y67.375
X148.297 Y67.392
X148.474 Y67.63
X148.491 Y67.653
X148.666 Y67.878
X148.68 Y67.896
X148.851 Y68.11
X148.867 Y68.13
X149.034 Y68.332
X149.059 Y68.361
X149.224 Y68.55
X149.243 Y68.572
X149.403 Y68.748
X149.434 Y68.782
X149.592 Y68.946
X149.618 Y68.973
X149.771 Y69.124
X149.805 Y69.156
X149.954 Y69.295
X149.998 Y69.334
X150.144 Y69.459
X150.19 Y69.497
X150.332 Y69.61
X150.386 Y69.651
X150.517 Y69.745
X150.512 Y69.807
X150.5 Y70.019
X150.498 Y70.104
Y70.315
X150.5 Y70.386
X150.51 Y70.597
X150.515 Y70.675
X150.536 Y70.885
X150.546 Y70.963
X150.578 Y71.171
X150.592 Y71.249
X150.635 Y71.456
X150.653 Y71.532
X150.707 Y71.737
X150.731 Y71.819
X150.797 Y72.023
X150.823 Y72.096
X150.9 Y72.298
X150.932 Y72.375
X151.021 Y72.574
X151.052 Y72.639
X151.151 Y72.834
X151.188 Y72.904
X151.298 Y73.096
X151.341 Y73.165
X151.462 Y73.351
X151.502 Y73.411
X151.632 Y73.591
X151.685 Y73.66
X151.826 Y73.834
X151.877 Y73.893
X152.027 Y74.06
X152.08 Y74.116
X152.238 Y74.274
X152.301 Y74.334
X152.468 Y74.483
X152.534 Y74.538
X152.709 Y74.677
X152.778 Y74.728
X152.96 Y74.856
X153.037 Y74.907
X153.227 Y75.024
X153.303 Y75.067
X153.499 Y75.173
X153.578 Y75.213
X153.78 Y75.306
X153.865 Y75.342
X154.074 Y75.424
X154.155 Y75.453
X154.369 Y75.523
X154.452 Y75.547
X154.672 Y75.605
X154.755 Y75.625
X154.981 Y75.671
X155.06 Y75.684
X155.291 Y75.719
X155.367 Y75.728
X155.603 Y75.751
X155.678 Y75.756
X155.919 Y75.767
X155.99 Y75.769
X156.234
X156.478
X156.549 Y75.767
X156.79 Y75.756
X156.865 Y75.751
X157.101 Y75.728
X157.177 Y75.719
X157.408 Y75.684
X157.488 Y75.67
X157.713 Y75.624
X157.795 Y75.605
X158.015 Y75.547
X158.096 Y75.524
X158.311 Y75.454
X158.396 Y75.423
X158.604 Y75.342
X158.684 Y75.308
X158.887 Y75.214
X158.969 Y75.173
X159.165 Y75.067
X159.244 Y75.022
X159.433 Y74.905
X159.507 Y74.856
X159.689 Y74.728
X159.758 Y74.677
X159.933 Y74.538
X159.999 Y74.483
X160.166 Y74.334
X160.225 Y74.278
X160.384 Y74.12
X160.441 Y74.06
X160.591 Y73.893
X160.646 Y73.83
X160.786 Y73.656
X160.831 Y73.596
X160.962 Y73.415
X161.006 Y73.351
X161.127 Y73.165
X161.17 Y73.096
X161.28 Y72.904
X161.317 Y72.834
X161.416 Y72.639
X161.45 Y72.568
X161.538 Y72.369
X161.567 Y72.298
X161.644 Y72.096
X161.67 Y72.023
X161.736 Y71.819
X161.76 Y71.737
X161.814 Y71.532
X161.83 Y71.463
X161.874 Y71.255
X161.89 Y71.171
X161.922 Y70.963
X161.932 Y70.885
X161.953 Y70.675
X161.958 Y70.597
X161.968 Y70.386
X161.97 Y70.308
X161.969 Y70.097
X161.967 Y70.026
X161.956 Y69.814
X161.951 Y69.743
X162.116 Y69.624
X162.198 Y69.561
X162.423 Y69.374
X162.486 Y69.318
X162.721 Y69.1
X162.775 Y69.047
X163.018 Y68.797
X163.058 Y68.755
X163.311 Y68.474
G2 X163.403 Y66.58 I-1.115 J-1.004
G1 X158.791 Y60.333
X159.559 Y59.699
X163.392 Y64.89
G2 X165.49 Y65.205 I1.207 J-0.891
X165.895 Y64.754 I-0.891 J-1.207
G1 X166.201 Y64.228
X166.211 Y64.211
X166.516 Y63.672
X166.531 Y63.645
X167.128 Y62.537
X167.147 Y62.499
X167.713 Y61.373
X167.729 Y61.341
X167.995 Y60.779
X168.004 Y60.759
X168.258 Y60.202
X168.269 Y60.176
X168.507 Y59.627
X168.519 Y59.6
X168.74 Y59.061
X168.752 Y59.031
X168.954 Y58.505
X168.967 Y58.471
X169.15 Y57.959
X169.164 Y57.918
X169.325 Y57.423
X169.338 Y57.381
X169.478 Y56.905
X169.493 Y56.85
X169.609 Y56.392
X169.623 Y56.332
X169.715 Y55.894
X169.727 Y55.829
X169.796 Y55.41
X169.807 Y55.33
X169.851 Y54.93
X169.858 Y54.848
X169.879 Y54.466
X169.881 Y54.371
X169.878 Y54.005
X169.874 Y53.907
X169.848 Y53.555
X169.838 Y53.464
X169.792 Y53.125
X169.776 Y53.027
X169.709 Y52.699
X169.687 Y52.608
X169.601 Y52.29
X169.577 Y52.209
X169.474 Y51.898
X169.45 Y51.833
X169.333 Y51.528
X169.308 Y51.465
X169.177 Y51.165
X169.158 Y51.123
X169.018 Y50.827
X168.991 Y50.775
X168.689 Y50.197
X168.668 Y50.157
X168.357 Y49.604
X168.349 Y49.59
X168.197 Y49.326
X168.053 Y49.076
X167.919 Y48.842
X167.799 Y48.629
X167.695 Y48.436
X167.605 Y48.265
X167.534 Y48.119
X167.477 Y47.993
X167.431 Y47.882
X167.395 Y47.783
X167.317 Y47.537
X167.237 Y47.258
X167.22 Y47.203
X167.118 Y46.896
X167.085 Y46.804
X167.023 Y46.651
X166.983 Y46.562
X166.91 Y46.41
X166.863 Y46.32
X166.779 Y46.172
X166.72 Y46.076
X166.624 Y45.934
X166.56 Y45.846
X166.453 Y45.71
X166.393 Y45.638
X166.368 Y45.609
X166.434 Y45.559
X166.459 Y45.54
X166.71 Y45.34
X166.733 Y45.321
X166.969 Y45.125
X166.995 Y45.103
X167.216 Y44.911
X167.246 Y44.885
X167.451 Y44.697
X167.484 Y44.666
X167.673 Y44.482
X167.705 Y44.45
X167.879 Y44.271
X167.916 Y44.231
X168.074 Y44.055
X168.114 Y44.009
X168.256 Y43.838
X168.295 Y43.788
X168.422 Y43.621
X168.467 Y43.559
X168.578 Y43.397
X168.625 Y43.324
X168.72 Y43.166
X168.764 Y43.086
X168.844 Y42.933
X168.888 Y42.84
X168.953 Y42.692
X168.996 Y42.583
X169.046 Y42.439
X169.086 Y42.304
X169.12 Y42.165
X169.146 Y42.03
X169.166 Y41.896
X169.181 Y41.744
X169.187 Y41.616
X169.189 Y41.526
X169.185 Y41.437
X169.176 Y41.314
X169.167 Y41.23
X169.154 Y41.146
X169.132 Y41.029
X169.115 Y40.948
X169.093 Y40.868
X169.059 Y40.757
X169.029 Y40.669
X168.994 Y40.583
X168.947 Y40.478
X168.909 Y40.399
X168.866 Y40.323
X168.807 Y40.223
X168.763 Y40.154
X168.716 Y40.087
X168.646 Y39.994
X168.549 Y39.878
X168.469 Y39.792
X168.364 Y39.689
X168.274 Y39.609
X168.176 Y39.529
X168.078 Y39.456
X167.979 Y39.388
X167.873 Y39.322
X167.805 Y39.282
X167.736 Y39.245
X167.504 Y39.131
X167.424 Y39.094
X167.341 Y39.063
X167.087 Y38.973
X166.958 Y38.934
X166.689 Y38.865
X166.593 Y38.844
X166.314 Y38.792
X166.245 Y38.781
X165.687 Y38.704
X165.447 Y38.669
X165.265 Y38.635
X165.137 Y38.602
X165.058 Y38.573
X165.014 Y38.55
X164.989 Y38.532
X164.968 Y38.512
X164.936 Y38.471
X164.913 Y38.432
X164.896 Y38.206
X164.871 Y37.713
X164.856 Y37.213
X164.851 Y36.707
X164.858 Y36.194
X164.875 Y35.672
X164.902 Y35.145
X164.941 Y34.611
X164.99 Y34.07
X165.051 Y33.523
X165.123 Y32.968
X165.205 Y32.408
X165.298 Y31.845
X165.402 Y31.276
X165.517 Y30.702
X165.642 Y30.126
X165.778 Y29.548
X165.922 Y28.975
X166.246 Y27.806
X166.418 Y27.238
X166.601 Y26.667
X166.79 Y26.104
X166.988 Y25.551
X167.192 Y25.007
X167.401 Y24.476
X167.614 Y23.963
X167.832 Y23.465
X168.052 Y22.985
X168.272 Y22.527
X168.493 Y22.092
X168.712 Y21.679
X168.928 Y21.291
X169.139 Y20.927
X169.345 Y20.589
X169.542 Y20.276
X169.733 Y19.984
X169.914 Y19.712
X170.084 Y19.46
X170.091 Y19.45
X170.244 Y19.218
X170.264 Y19.187
X170.395 Y18.978
X170.429 Y18.921
X170.536 Y18.732
X170.59 Y18.627
X170.67 Y18.456
X170.708 Y18.369
X170.74 Y18.279
X170.79 Y18.122
G2 X170.849 Y17.852 I-1.429 J-0.457
G1 X170.867 Y17.709
G2 X170.871 Y17.364 I-1.488 J-0.187
G1 X170.857 Y17.232
G2 X170.767 Y16.857 I-1.492 J0.157
G1 X170.72 Y16.733
G2 X170.553 Y16.415 I-1.402 J0.532
G1 X170.474 Y16.298
G2 X170.295 Y16.085 I-1.236 J0.851
G1 X170.185 Y15.976
X170.104 Y15.901
X170.018 Y15.832
X169.879 Y15.73
X169.814 Y15.684
X169.746 Y15.642
X169.582 Y15.546
X169.467 Y15.486
X169.28 Y15.397
X169.189 Y15.358
X168.984 Y15.277
X168.901 Y15.247
X168.68 Y15.174
X168.607 Y15.152
X168.373 Y15.088
X168.305 Y15.071
X168.061 Y15.017
X167.997 Y15.004
X167.745 Y14.959
X167.683 Y14.949
X167.476 Y14.922
X167.497 Y14.888
X167.686 Y14.631
X167.924 Y14.322
X167.93 Y14.314
X168.196 Y13.963
X168.216 Y13.937
X168.353 Y13.749
X168.365 Y13.732
X168.505 Y13.533
X168.526 Y13.503
X168.811 Y13.077
X168.835 Y13.039
X169.123 Y12.58
X169.144 Y12.545
X169.717 Y11.574
X169.728 Y11.555
X170.004 Y11.071
X170.269 Y10.605
X170.272 Y10.601
X170.52 Y10.163
X170.524 Y10.154
X170.752 Y9.745
X170.77 Y9.712
X170.971 Y9.329
X171.001 Y9.27
X171.172 Y8.906
X171.214 Y8.808
X171.35 Y8.455
X171.393 Y8.324
X171.492 Y7.974
X171.526 Y7.825
X171.588 Y7.473
X171.607 Y7.322
X171.633 Y6.964
X171.637 Y6.826
X171.63 Y6.464
X171.623 Y6.346
X171.587 Y5.98
X171.573 Y5.876
X171.511 Y5.51
X171.495 Y5.43
X171.457 Y5.26
G2 X171.702 Y5.062 I-0.816 J-1.259
G1 X172.302 Y4.462
G2 X172.741 Y3.401 I-1.061 J-1.06
G1 Y1.6
G2 X172.302 Y0.54 I-1.5 J0.
G1 X171.702 Y-0.06
G2 X170.641 Y-0.5 I-1.061 J1.06
G1 X141.827
G2 X140.767 Y-0.061 I0. J1.5
G1 X140.166 Y0.539
G2 X139.726 Y1.6 I1.06 J1.061
G1 Y3.401
G2 X140.166 Y4.462 I1.5 J0.
G1 X140.767 Y5.063
G2 X141.011 Y5.26 I1.06 J-1.061
G1 X140.973 Y5.426
X140.955 Y5.514
X140.894 Y5.88
X140.881 Y5.98
X140.845 Y6.346
X140.838 Y6.464
X140.831 Y6.826
X140.835 Y6.96
X140.86 Y7.318
X140.867 Y7.396
X140.879 Y7.473
X140.941 Y7.825
X140.975 Y7.974
X141.074 Y8.324
X141.119 Y8.458
X141.256 Y8.811
X141.295 Y8.903
X141.465 Y9.267
X141.497 Y9.331
X141.699 Y9.714
X141.714 Y9.742
X141.941 Y10.152
X141.949 Y10.165
X142.198 Y10.603
X142.461 Y11.068
X142.464 Y11.073
X142.741 Y11.557
X142.75 Y11.573
X143.322 Y12.544
X143.345 Y12.582
X143.634 Y13.041
X143.656 Y13.074
X143.94 Y13.501
X143.962 Y13.533
X144.102 Y13.732
X144.117 Y13.753
X144.255 Y13.942
X144.27 Y13.961
X144.535 Y14.312
X144.545 Y14.325
X144.782 Y14.631
X144.97 Y14.888
X144.992 Y14.922
X144.785 Y14.949
X144.724 Y14.959
X144.471 Y15.004
X144.406 Y15.017
X144.162 Y15.071
X144.094 Y15.088
X143.86 Y15.152
X143.785 Y15.175
X143.565 Y15.247
X143.487 Y15.276
X143.281 Y15.357
X143.184 Y15.399
X142.998 Y15.487
X142.886 Y15.546
X142.722 Y15.642
X142.654 Y15.684
X142.589 Y15.73
X142.45 Y15.832
X142.364 Y15.901
X142.283 Y15.976
X142.173 Y16.085
G2 X141.994 Y16.298 I1.057 J1.064
G1 X141.914 Y16.415
G2 X141.748 Y16.733 I1.236 J0.851
G1 X141.701 Y16.857
G2 X141.612 Y17.221 I1.402 J0.532
G1 X141.597 Y17.353
G2 X141.601 Y17.719 I1.491 J0.168
G1 X141.62 Y17.862
G2 X141.678 Y18.122 I1.487 J-0.197
G1 X141.728 Y18.279
X141.76 Y18.369
X141.798 Y18.456
X141.878 Y18.627
X141.932 Y18.732
X142.039 Y18.921
X142.073 Y18.978
X142.204 Y19.187
X142.224 Y19.218
X142.377 Y19.45
X142.384 Y19.46
X142.554 Y19.712
X142.734 Y19.983
X142.924 Y20.275
X143.123 Y20.59
X143.329 Y20.929
X143.54 Y21.291
X143.756 Y21.679
X143.975 Y22.091
X144.195 Y22.527
X144.417 Y22.986
X144.635 Y23.464
X144.853 Y23.962
X145.067 Y24.477
X145.276 Y25.007
X145.479 Y25.55
X145.677 Y26.105
X145.867 Y26.668
X146.05 Y27.238
X146.222 Y27.806
X146.545 Y28.974
X146.689 Y29.547
X146.825 Y30.127
X146.951 Y30.704
X147.066 Y31.275
X147.169 Y31.845
X147.183 Y31.93
G3 X147.131 Y32.154 I-0.296 J0.049
X146.937 Y32.275 I-0.244 J-0.175
G1 X146.641 Y32.324
X146.575 Y32.335 Z0.258
X146.512 Y32.346 Z0.28
X146.456 Y32.355 Z0.315
X146.409 Y32.363 Z0.363
X146.374 Y32.369 Z0.42
X146.352 Y32.372 Z0.483
X146.345 Y32.373 Z0.55
G0 Z21.007
X180.881 Y31.466
G1 Z17.007 F133.3
Z0.55
X180.888 Y31.464 Z0.483 F400
X180.91 Y31.46 Z0.42
X180.945 Y31.454 Z0.363
X180.992 Y31.445 Z0.315
X181.048 Y31.435 Z0.28
X181.11 Y31.424 Z0.258
X181.176 Y31.412 Z0.25
X181.471 Y31.358
G3 X181.695 Y31.407 I0.054 J0.295
X181.82 Y31.6 I-0.171 J0.247
G1 X181.874 Y31.896
X181.967 Y32.456
X182.048 Y33.009
X182.119 Y33.557
X182.178 Y34.099
X182.227 Y34.635
X182.265 Y35.163
X182.293 Y35.685
X182.309 Y36.2
X182.316 Y36.709
X182.312 Y37.208
X182.297 Y37.701
X182.272 Y38.186
X182.263 Y38.307
X182.241 Y38.315
X182.137 Y38.342
X181.971 Y38.373
X181.738 Y38.407
X181.181 Y38.484
X181.097 Y38.498
X180.819 Y38.549
X180.705 Y38.574
X180.436 Y38.643
X180.281 Y38.69
X180.027 Y38.78
X179.929 Y38.817
X179.834 Y38.86
X179.601 Y38.975
X179.517 Y39.019
X179.434 Y39.068
X179.328 Y39.134
X179.21 Y39.216
X179.112 Y39.289
X178.987 Y39.392
X178.898 Y39.471
X178.779 Y39.588
X178.699 Y39.674
X178.639 Y39.742
X178.583 Y39.813
X178.513 Y39.906
X178.456 Y39.987
X178.403 Y40.07
X178.344 Y40.169
X178.293 Y40.261
X178.247 Y40.356
X178.2 Y40.461
X178.161 Y40.557
X178.127 Y40.655
X178.092 Y40.766
X178.063 Y40.869
X178.04 Y40.974
X178.018 Y41.091
X178.001 Y41.198
X177.991 Y41.306
X177.983 Y41.429
X177.979 Y41.523
X177.98 Y41.616
X177.985 Y41.744
X177.992 Y41.843
X178.004 Y41.941
X178.024 Y42.074
X178.039 Y42.162
X178.059 Y42.248
X178.094 Y42.387
X178.139 Y42.538
X178.189 Y42.681
X178.236 Y42.803
X178.3 Y42.951
X178.357 Y43.071
X178.437 Y43.225
X178.495 Y43.327
X178.591 Y43.485
X178.642 Y43.566
X178.753 Y43.728
X178.807 Y43.803
X178.934 Y43.97
X178.981 Y44.029
X179.123 Y44.2
X179.171 Y44.256
X179.329 Y44.431
X179.374 Y44.479
X179.548 Y44.659
X179.586 Y44.697
X179.775 Y44.881
X179.814 Y44.918
X180.019 Y45.106
X180.055 Y45.138
X180.276 Y45.33
X180.307 Y45.356
X180.543 Y45.552
X180.571 Y45.575
X180.676 Y45.658
X180.592 Y45.772
X180.499 Y45.909
X180.388 Y46.092
X180.308 Y46.239
X180.216 Y46.428
X180.161 Y46.553
X180.085 Y46.745
X180.051 Y46.838
X179.987 Y47.03
X179.968 Y47.093
X179.865 Y47.444
X179.769 Y47.739
X179.726 Y47.848
X179.659 Y47.996
X179.57 Y48.177
X179.456 Y48.393
X179.315 Y48.645
X179.151 Y48.933
X178.969 Y49.249
X178.966 Y49.253
X178.774 Y49.588
X178.766 Y49.603
X178.571 Y49.95
X178.555 Y49.979
X178.363 Y50.337
X178.342 Y50.378
X178.158 Y50.744
X178.13 Y50.802
X177.959 Y51.174
X177.925 Y51.252
X177.772 Y51.632
X177.734 Y51.734
X177.604 Y52.122
X177.568 Y52.245
X177.465 Y52.645
X177.436 Y52.778
X177.362 Y53.193
X177.342 Y53.34
X177.301 Y53.774
X177.294 Y53.888
X177.287 Y54.113
X177.286 Y54.176
X177.287 Y54.408
X177.289 Y54.483
X177.3 Y54.721
X177.304 Y54.784
X177.324 Y55.029
X177.33 Y55.088
X177.359 Y55.34
X177.367 Y55.402
X177.406 Y55.661
X177.415 Y55.712
X177.463 Y55.979
X177.473 Y56.032
X177.531 Y56.306
X177.541 Y56.35
X177.608 Y56.632
X177.618 Y56.673
X177.694 Y56.962
X177.705 Y57.
X177.79 Y57.297
X177.8 Y57.333
X177.894 Y57.637
X177.905 Y57.672
X178.008 Y57.982
X178.018 Y58.011
X178.129 Y58.328
X178.144 Y58.369
X178.39 Y59.021
X178.408 Y59.067
X178.683 Y59.741
X178.7 Y59.782
X179.002 Y60.472
X179.017 Y60.505
X179.341 Y61.205
X179.357 Y61.239
X179.701 Y61.944
X179.715 Y61.972
X180.075 Y62.676
X180.089 Y62.704
X180.46 Y63.401
X180.475 Y63.428
X180.854 Y64.111
X180.869 Y64.138
X181.252 Y64.801
X181.269 Y64.83
X181.653 Y65.468
X181.672 Y65.498
X182.054 Y66.105
X182.073 Y66.135
X182.448 Y66.705
X182.466 Y66.733
X182.651 Y67.003
X182.665 Y67.023
X182.848 Y67.283
X182.861 Y67.302
X183.041 Y67.551
X183.057 Y67.572
X183.234 Y67.809
X183.254 Y67.836
X183.429 Y68.062
X183.446 Y68.083
X183.617 Y68.297
X183.636 Y68.321
X183.803 Y68.523
X183.832 Y68.558
X183.997 Y68.747
X184.02 Y68.773
X184.18 Y68.95
X184.218 Y68.99
X184.376 Y69.154
X184.407 Y69.186
X184.56 Y69.337
X184.601 Y69.376
X184.75 Y69.515
X184.802 Y69.561
X184.948 Y69.687
X185.004 Y69.733
X185.146 Y69.845
X185.207 Y69.891
X185.201 Y70.002
X185.198 Y70.104
Y70.315
X185.2 Y70.4
X185.21 Y70.611
X185.217 Y70.705
X185.238 Y70.915
X185.25 Y71.008
X185.282 Y71.217
X185.299 Y71.31
X185.342 Y71.517
X185.363 Y71.608
X185.417 Y71.814
X185.445 Y71.911
X185.511 Y72.115
X185.542 Y72.203
X185.619 Y72.405
X185.658 Y72.497
X185.747 Y72.696
X185.784 Y72.774
X185.883 Y72.97
X185.928 Y73.054
X186.038 Y73.245
X186.089 Y73.328
X186.21 Y73.514
X186.259 Y73.586
X186.389 Y73.766
X186.452 Y73.849
X186.593 Y74.023
X186.654 Y74.094
X186.804 Y74.261
X186.868 Y74.329
X187.026 Y74.487
X187.102 Y74.558
X187.269 Y74.707
X187.347 Y74.773
X187.522 Y74.912
X187.605 Y74.973
X187.787 Y75.101
X187.88 Y75.163
X188.07 Y75.279
X188.16 Y75.332
X188.356 Y75.437
X188.452 Y75.485
X188.654 Y75.579
X188.756 Y75.622
X188.965 Y75.704
X189.063 Y75.739
X189.277 Y75.808
X189.376 Y75.838
X189.596 Y75.895
X189.695 Y75.919
X189.921 Y75.965
X190.016 Y75.981
X190.247 Y76.015
X190.339 Y76.027
X190.575 Y76.049
X190.664 Y76.056
X190.905 Y76.067
X190.99 Y76.069
X191.234
X191.478
X191.563 Y76.067
X191.804 Y76.056
X191.893 Y76.049
X192.129 Y76.027
X192.221 Y76.015
X192.452 Y75.981
X192.549 Y75.964
X192.774 Y75.918
X192.871 Y75.895
X193.091 Y75.838
X193.188 Y75.809
X193.403 Y75.739
X193.506 Y75.702
X193.714 Y75.621
X193.81 Y75.58
X194.013 Y75.486
X194.112 Y75.437
X194.308 Y75.332
X194.402 Y75.277
X194.591 Y75.16
X194.68 Y75.101
X194.862 Y74.973
X194.945 Y74.912
X195.12 Y74.773
X195.198 Y74.707
X195.365 Y74.558
X195.437 Y74.491
X195.596 Y74.333
X195.664 Y74.261
X195.814 Y74.094
X195.879 Y74.018
X196.019 Y73.844
X196.074 Y73.772
X196.205 Y73.591
X196.258 Y73.514
X196.379 Y73.328
X196.43 Y73.245
X196.54 Y73.054
X196.585 Y72.97
X196.684 Y72.774
X196.724 Y72.689
X196.812 Y72.491
X196.848 Y72.405
X196.925 Y72.203
X196.956 Y72.115
X197.022 Y71.911
X197.05 Y71.814
X197.104 Y71.608
X197.124 Y71.525
X197.168 Y71.318
X197.186 Y71.217
X197.218 Y71.008
X197.23 Y70.915
X197.251 Y70.705
X197.258 Y70.611
X197.268 Y70.4
X197.27 Y70.307
X197.269 Y70.095
X197.267 Y70.011
X197.26 Y69.89
X197.292 Y69.867
X197.389 Y69.792
X197.614 Y69.605
X197.69 Y69.538
X197.925 Y69.32
X197.99 Y69.256
X198.233 Y69.006
X198.28 Y68.956
X198.533 Y68.675
G2 X198.644 Y66.401 I-1.337 J-1.205
G1 X194.201 Y60.384
X194.506 Y60.132
X198.151 Y65.068
G2 X200.668 Y65.447 I1.448 J-1.069
X201.155 Y64.904 I-1.069 J-1.448
G1 X201.461 Y64.379
X201.472 Y64.359
X201.777 Y63.82
X201.795 Y63.787
X202.392 Y62.679
X202.415 Y62.634
X202.981 Y61.507
X203. Y61.469
X203.266 Y60.907
X203.277 Y60.884
X203.531 Y60.327
X203.545 Y60.296
X203.783 Y59.746
X203.796 Y59.713
X204.017 Y59.174
X204.031 Y59.139
X204.234 Y58.613
X204.25 Y58.572
X204.433 Y58.06
X204.45 Y58.011
X204.611 Y57.516
X204.626 Y57.466
X204.766 Y56.989
X204.784 Y56.924
X204.9 Y56.466
X204.917 Y56.394
X205.009 Y55.955
X205.023 Y55.878
X205.092 Y55.459
X205.105 Y55.363
X205.149 Y54.963
X205.157 Y54.865
X205.178 Y54.482
X205.181 Y54.369
X205.178 Y54.003
X205.173 Y53.885
X205.147 Y53.533
X205.136 Y53.423
X205.09 Y53.085
X205.07 Y52.967
X205.003 Y52.639
X204.977 Y52.53
X204.891 Y52.212
X204.862 Y52.115
X204.759 Y51.804
X204.731 Y51.725
X204.614 Y51.42
X204.583 Y51.345
X204.451 Y51.045
X204.429 Y50.995
X204.289 Y50.699
X204.257 Y50.636
X203.955 Y50.058
X203.929 Y50.01
X203.618 Y49.457
X203.609 Y49.44
X203.457 Y49.176
X203.313 Y48.927
X203.18 Y48.694
X203.062 Y48.484
X202.96 Y48.295
X202.873 Y48.13
X202.806 Y47.992
X202.753 Y47.874
X202.711 Y47.773
X202.679 Y47.685
X202.604 Y47.45
X202.525 Y47.175
X202.504 Y47.109
X202.403 Y46.802
X202.363 Y46.692
X202.301 Y46.538
X202.254 Y46.431
X202.181 Y46.28
X202.124 Y46.172
X202.04 Y46.024
X201.968 Y45.909
X201.872 Y45.766
X201.796 Y45.661
X201.793 Y45.657
X201.897 Y45.575
X201.925 Y45.552
X202.161 Y45.356
X202.192 Y45.33
X202.413 Y45.138
X202.449 Y45.106
X202.654 Y44.918
X202.693 Y44.881
X202.882 Y44.697
X202.92 Y44.659
X203.094 Y44.479
X203.139 Y44.431
X203.297 Y44.256
X203.345 Y44.2
X203.487 Y44.029
X203.534 Y43.97
X203.661 Y43.803
X203.715 Y43.728
X203.826 Y43.566
X203.882 Y43.478
X203.977 Y43.32
X204.03 Y43.225
X204.11 Y43.071
X204.163 Y42.961
X204.228 Y42.812
X204.279 Y42.681
X204.329 Y42.538
X204.377 Y42.375
X204.411 Y42.236
X204.443 Y42.074
X204.463 Y41.941
X204.474 Y41.85
X204.481 Y41.758
X204.487 Y41.63
X204.489 Y41.522
X204.484 Y41.415
X204.475 Y41.292
X204.465 Y41.191
X204.449 Y41.091
X204.427 Y40.974
X204.406 Y40.877
X204.38 Y40.781
X204.346 Y40.669
X204.31 Y40.564
X204.268 Y40.461
X204.221 Y40.356
X204.175 Y40.261
X204.124 Y40.169
X204.065 Y40.07
X204.012 Y39.987
X203.955 Y39.906
X203.885 Y39.813
X203.829 Y39.742
X203.769 Y39.674
X203.689 Y39.588
X203.627 Y39.525
X203.563 Y39.465
X203.473 Y39.385
X203.355 Y39.289
X203.257 Y39.216
X203.139 Y39.134
X203.033 Y39.068
X202.952 Y39.02
X202.868 Y38.976
X202.636 Y38.862
X202.54 Y38.818
X202.441 Y38.78
X202.187 Y38.69
X202.032 Y38.643
X201.763 Y38.574
X201.648 Y38.549
X201.369 Y38.497
X201.286 Y38.484
X200.729 Y38.407
X200.496 Y38.373
X200.331 Y38.342
X200.227 Y38.315
X200.204 Y38.307
X200.196 Y38.188
X200.171 Y37.701
X200.156 Y37.207
X200.151 Y36.707
X200.158 Y36.2
X200.174 Y35.685
X200.202 Y35.163
X200.24 Y34.635
X200.289 Y34.1
X200.349 Y33.559
X200.42 Y33.009
X200.502 Y32.454
X200.593 Y31.896
X200.697 Y31.333
X200.811 Y30.764
X200.935 Y30.192
X201.069 Y29.619
X201.212 Y29.051
X201.534 Y27.89
X201.704 Y27.327
X201.886 Y26.76
X202.074 Y26.202
X202.269 Y25.655
X202.472 Y25.115
X202.679 Y24.589
X202.89 Y24.081
X203.106 Y23.587
X203.323 Y23.112
X203.541 Y22.66
X203.759 Y22.23
X203.975 Y21.822
X204.188 Y21.439
X204.397 Y21.081
X204.6 Y20.747
X204.794 Y20.438
X204.984 Y20.149
X205.164 Y19.879
X205.333 Y19.628
X205.341 Y19.615
X205.494 Y19.384
X205.518 Y19.347
X205.649 Y19.138
X205.69 Y19.069
X205.797 Y18.88
X205.862 Y18.754
X205.942 Y18.583
X205.987 Y18.478
X206.025 Y18.37
X206.075 Y18.214
G2 X206.147 Y17.889 I-1.714 J-0.549
G1 X206.165 Y17.746
G2 X206.169 Y17.333 I-1.786 J-0.224
G1 X206.155 Y17.2
G2 X206.048 Y16.751 I-1.79 J0.189
G1 X206.001 Y16.627
G2 X205.801 Y16.244 I-1.683 J0.638
G1 X205.721 Y16.128
G2 X205.507 Y15.872 I-1.483 J1.021
G1 X205.397 Y15.763
G2 X205.196 Y15.591 I-1.269 J1.277
G1 X205.057 Y15.488
X204.979 Y15.434
X204.897 Y15.383
X204.733 Y15.287
X204.596 Y15.215
X204.409 Y15.126
X204.299 Y15.078
X204.094 Y14.998
X203.995 Y14.962
X203.774 Y14.889
X203.686 Y14.863
X203.452 Y14.799
X203.37 Y14.779
X203.126 Y14.724
X203.05 Y14.709
X203.01 Y14.702
X203.162 Y14.505
X203.169 Y14.495
X203.435 Y14.145
X203.459 Y14.114
X203.596 Y13.925
X203.61 Y13.905
X203.75 Y13.706
X203.775 Y13.669
X204.06 Y13.243
X204.089 Y13.199
X204.377 Y12.739
X204.402 Y12.698
X204.975 Y11.726
X204.989 Y11.703
X205.265 Y11.22
Y11.219
X205.53 Y10.753
X205.533 Y10.749
X205.781 Y10.31
X205.786 Y10.3
X206.014 Y9.891
X206.036 Y9.851
X206.237 Y9.468
X206.272 Y9.397
X206.443 Y9.034
X206.493 Y8.916
X206.629 Y8.563
X206.682 Y8.406
X206.781 Y8.056
X206.804 Y7.967
X206.822 Y7.877
X206.884 Y7.525
X206.897 Y7.435
X206.906 Y7.344
X206.932 Y6.986
X206.937 Y6.821
X206.93 Y6.458
X206.921 Y6.316
X206.885 Y5.95
X206.869 Y5.826
X206.807 Y5.46
X206.792 Y5.385
X206.914 Y5.274
X207.514 Y4.674
G2 X208.041 Y3.401 I-1.273 J-1.272
G1 Y1.6
G2 X207.514 Y0.328 I-1.8 J0.
G1 X206.914 Y-0.272
G2 X205.641 Y-0.8 I-1.273 J1.272
G1 X176.827
G2 X175.555 Y-0.274 I0. J1.8
G1 X174.954 Y0.327
G2 X174.426 Y1.6 I1.272 J1.274
G1 Y3.401
G2 X174.954 Y4.675 I1.8 J0.
G1 X175.555 Y5.275
X175.675 Y5.384
X175.66 Y5.465
X175.598 Y5.831
X175.583 Y5.95
X175.547 Y6.316
X175.538 Y6.458
X175.531 Y6.821
X175.535 Y6.981
X175.56 Y7.339
X175.569 Y7.432
X175.583 Y7.525
X175.645 Y7.877
X175.663 Y7.967
X175.686 Y8.056
X175.785 Y8.406
X175.81 Y8.487
X175.839 Y8.567
X175.976 Y8.92
X176.023 Y9.03
X176.193 Y9.394
X176.232 Y9.471
X176.434 Y9.854
X176.452 Y9.888
X176.679 Y10.297
X176.688 Y10.313
X176.937 Y10.751
X177.2 Y11.216
X177.204 Y11.222
X177.481 Y11.706
X177.492 Y11.725
X178.064 Y12.696
X178.091 Y12.742
X178.38 Y13.201
X178.406 Y13.241
X178.69 Y13.667
X178.717 Y13.706
X178.857 Y13.905
X178.875 Y13.93
X179.013 Y14.119
X179.031 Y14.142
X179.296 Y14.493
X179.308 Y14.508
X179.457 Y14.702
X179.418 Y14.709
X179.341 Y14.724
X179.097 Y14.779
X179.015 Y14.799
X178.781 Y14.863
X178.691 Y14.89
X178.471 Y14.963
X178.377 Y14.996
X178.171 Y15.077
X178.055 Y15.128
X177.869 Y15.216
X177.735 Y15.287
X177.571 Y15.383
X177.489 Y15.434
X177.411 Y15.488
X177.272 Y15.591
G2 X177.071 Y15.763 I1.068 J1.449
G1 X176.961 Y15.872
G2 X176.747 Y16.128 I1.269 J1.277
G1 X176.667 Y16.244
G2 X176.467 Y16.627 I1.483 J1.021
G1 X176.42 Y16.751
G2 X176.314 Y17.187 I1.683 J0.638
G1 X176.299 Y17.32
G2 X176.304 Y17.758 I1.789 J0.202
G1 X176.323 Y17.902
G2 X176.393 Y18.214 I1.784 J-0.236
G1 X176.443 Y18.37
X176.481 Y18.478
X176.526 Y18.583
X176.606 Y18.754
X176.671 Y18.88
X176.778 Y19.069
X176.819 Y19.138
X176.95 Y19.347
X176.974 Y19.384
X177.127 Y19.615
X177.135 Y19.628
X177.304 Y19.879
X177.483 Y20.148
X177.671 Y20.437
X177.868 Y20.748
X178.072 Y21.082
X178.28 Y21.439
X178.493 Y21.822
X178.708 Y22.229
X178.926 Y22.66
X179.145 Y23.114
X179.362 Y23.586
X179.577 Y24.079
X179.789 Y24.59
X179.996 Y25.115
X180.197 Y25.653
X180.394 Y26.203
X180.582 Y26.762
X180.764 Y27.327
X180.934 Y27.89
X181.255 Y29.05
X181.398 Y29.618
X181.532 Y30.193
X181.657 Y30.765
X181.771 Y31.332
X181.82 Y31.6
G2 X182.007 Y31.794 I0.239 J-0.043
G3 X182.193 Y31.989 I-0.051 J0.235
G1 X182.263 Y32.41
X182.345 Y32.968
X182.417 Y33.521
X182.476 Y34.069
X182.526 Y34.611
X182.565 Y35.145
X182.592 Y35.672
X182.609 Y36.194
X182.616 Y36.708
X182.612 Y37.214
X182.597 Y37.713
X182.572 Y38.205
X182.555 Y38.432
X182.533 Y38.469
X182.499 Y38.512
X182.476 Y38.534
X182.453 Y38.551
X182.41 Y38.573
X182.331 Y38.602
X182.203 Y38.635
X182.02 Y38.669
X181.78 Y38.704
X181.222 Y38.781
X181.152 Y38.792
X180.874 Y38.844
X180.779 Y38.865
X180.51 Y38.934
X180.381 Y38.973
X180.127 Y39.063
X180.045 Y39.094
X179.966 Y39.13
X179.733 Y39.244
X179.663 Y39.281
X179.594 Y39.322
X179.488 Y39.388
X179.389 Y39.456
X179.291 Y39.529
X179.187 Y39.615
X179.098 Y39.695
X178.999 Y39.792
X178.919 Y39.878
X178.822 Y39.994
X178.752 Y40.087
X178.705 Y40.154
X178.661 Y40.223
X178.602 Y40.323
X178.559 Y40.399
X178.521 Y40.478
X178.474 Y40.583
X178.441 Y40.663
X178.413 Y40.745
X178.378 Y40.856
X178.354 Y40.942
X178.335 Y41.029
X178.313 Y41.146
X178.299 Y41.236
X178.29 Y41.326
X178.282 Y41.449
X178.279 Y41.527
X178.28 Y41.605
X178.285 Y41.733
X178.291 Y41.815
X178.301 Y41.896
X178.321 Y42.03
X178.35 Y42.175
X178.385 Y42.314
X178.422 Y42.439
X178.472 Y42.583
X178.511 Y42.684
X178.575 Y42.833
X178.623 Y42.933
X178.703 Y43.086
X178.751 Y43.172
X178.847 Y43.33
X178.89 Y43.397
X179.001 Y43.559
X179.046 Y43.621
X179.173 Y43.788
X179.212 Y43.838
X179.354 Y44.009
X179.394 Y44.055
X179.552 Y44.231
X179.589 Y44.271
X179.763 Y44.45
X179.795 Y44.482
X179.984 Y44.666
X180.017 Y44.697
X180.222 Y44.885
X180.252 Y44.911
X180.473 Y45.103
X180.499 Y45.125
X180.735 Y45.321
X180.758 Y45.34
X181.009 Y45.54
X181.034 Y45.559
X181.1 Y45.61
X181.036 Y45.684
X180.962 Y45.776
X180.833 Y45.95
X180.756 Y46.065
X180.645 Y46.247
X180.578 Y46.37
X180.486 Y46.559
X180.44 Y46.663
X180.364 Y46.855
X180.336 Y46.933
X180.272 Y47.124
X180.255 Y47.178
X180.152 Y47.532
X180.051 Y47.841
X180.002 Y47.965
X179.931 Y48.123
X179.837 Y48.314
X179.72 Y48.536
X179.576 Y48.793
X179.411 Y49.083
X179.229 Y49.398
X179.227 Y49.402
X179.035 Y49.737
X179.028 Y49.749
X178.833 Y50.097
X178.819 Y50.121
X178.627 Y50.479
X178.609 Y50.513
X178.425 Y50.879
X178.402 Y50.927
X178.231 Y51.299
X178.203 Y51.364
X178.05 Y51.744
X178.019 Y51.829
X177.889 Y52.217
X177.858 Y52.32
X177.755 Y52.72
X177.731 Y52.831
X177.657 Y53.246
X177.641 Y53.368
X177.6 Y53.802
X177.594 Y53.897
X177.587 Y54.122
X177.586 Y54.175
X177.587 Y54.407
X177.589 Y54.469
X177.6 Y54.707
X177.603 Y54.76
X177.623 Y55.005
X177.628 Y55.054
X177.657 Y55.306
X177.664 Y55.357
X177.703 Y55.616
X177.71 Y55.659
X177.758 Y55.925
X177.766 Y55.97
X177.824 Y56.244
X177.833 Y56.281
X177.9 Y56.562
X177.908 Y56.597
X177.984 Y56.886
X177.993 Y56.918
X178.078 Y57.215
X178.087 Y57.245
X178.181 Y57.549
X178.19 Y57.577
X178.293 Y57.888
X178.301 Y57.912
X178.412 Y58.229
X178.424 Y58.263
X178.67 Y58.916
X178.685 Y58.954
X178.96 Y59.627
X178.975 Y59.662
X179.277 Y60.351
X179.29 Y60.379
X179.614 Y61.079
X179.627 Y61.107
X179.971 Y61.812
X179.983 Y61.836
X180.342 Y62.54
X180.354 Y62.563
X180.725 Y63.26
X180.737 Y63.283
X181.116 Y63.966
X181.129 Y63.988
X181.512 Y64.651
X181.526 Y64.675
X181.91 Y65.313
X181.926 Y65.338
X182.308 Y65.945
X182.323 Y65.97
X182.698 Y66.541
X182.714 Y66.564
X182.899 Y66.834
X182.91 Y66.851
X183.093 Y67.111
X183.104 Y67.126
X183.284 Y67.375
X183.297 Y67.392
X183.474 Y67.63
X183.491 Y67.653
X183.666 Y67.878
X183.68 Y67.896
X183.851 Y68.11
X183.867 Y68.13
X184.034 Y68.332
X184.059 Y68.361
X184.224 Y68.55
X184.243 Y68.572
X184.403 Y68.748
X184.434 Y68.782
X184.592 Y68.946
X184.618 Y68.973
X184.771 Y69.124
X184.805 Y69.156
X184.954 Y69.295
X184.998 Y69.334
X185.144 Y69.459
X185.19 Y69.497
X185.332 Y69.61
X185.386 Y69.651
X185.517 Y69.745
X185.512 Y69.807
X185.5 Y70.019
X185.498 Y70.104
Y70.315
X185.5 Y70.386
X185.51 Y70.597
X185.515 Y70.675
X185.536 Y70.885
X185.546 Y70.963
X185.578 Y71.171
X185.592 Y71.249
X185.635 Y71.456
X185.653 Y71.532
X185.707 Y71.737
X185.731 Y71.819
X185.797 Y72.023
X185.823 Y72.096
X185.9 Y72.298
X185.932 Y72.375
X186.021 Y72.574
X186.052 Y72.639
X186.151 Y72.834
X186.188 Y72.904
X186.298 Y73.096
X186.341 Y73.165
X186.462 Y73.351
X186.502 Y73.411
X186.632 Y73.591
X186.685 Y73.66
X186.826 Y73.834
X186.877 Y73.893
X187.027 Y74.06
X187.08 Y74.116
X187.238 Y74.274
X187.301 Y74.334
X187.468 Y74.483
X187.534 Y74.538
X187.709 Y74.677
X187.778 Y74.728
X187.96 Y74.856
X188.037 Y74.907
X188.227 Y75.024
X188.303 Y75.067
X188.499 Y75.173
X188.578 Y75.213
X188.78 Y75.306
X188.865 Y75.342
X189.074 Y75.424
X189.155 Y75.453
X189.369 Y75.523
X189.452 Y75.547
X189.672 Y75.605
X189.755 Y75.625
X189.981 Y75.671
X190.06 Y75.684
X190.291 Y75.719
X190.367 Y75.728
X190.603 Y75.751
X190.678 Y75.756
X190.919 Y75.767
X190.99 Y75.769
X191.234
X191.478
X191.549 Y75.767
X191.79 Y75.756
X191.865 Y75.751
X192.101 Y75.728
X192.177 Y75.719
X192.408 Y75.684
X192.488 Y75.67
X192.713 Y75.624
X192.795 Y75.605
X193.015 Y75.547
X193.096 Y75.524
X193.311 Y75.454
X193.396 Y75.423
X193.604 Y75.342
X193.684 Y75.308
X193.887 Y75.214
X193.969 Y75.173
X194.165 Y75.067
X194.244 Y75.022
X194.433 Y74.905
X194.507 Y74.856
X194.689 Y74.728
X194.758 Y74.677
X194.933 Y74.538
X194.999 Y74.483
X195.166 Y74.334
X195.225 Y74.278
X195.384 Y74.12
X195.441 Y74.06
X195.591 Y73.893
X195.646 Y73.83
X195.786 Y73.656
X195.831 Y73.596
X195.962 Y73.415
X196.006 Y73.351
X196.127 Y73.165
X196.17 Y73.096
X196.28 Y72.904
X196.317 Y72.834
X196.416 Y72.639
X196.45 Y72.568
X196.538 Y72.369
X196.567 Y72.298
X196.644 Y72.096
X196.67 Y72.023
X196.736 Y71.819
X196.76 Y71.737
X196.814 Y71.532
X196.83 Y71.463
X196.874 Y71.255
X196.89 Y71.171
X196.922 Y70.963
X196.932 Y70.885
X196.953 Y70.675
X196.958 Y70.597
X196.968 Y70.386
X196.97 Y70.308
X196.969 Y70.097
X196.967 Y70.026
X196.956 Y69.814
X196.951 Y69.743
X197.116 Y69.624
X197.198 Y69.561
X197.423 Y69.374
X197.486 Y69.318
X197.721 Y69.1
X197.775 Y69.047
X198.018 Y68.797
X198.058 Y68.755
X198.311 Y68.474
G2 X198.403 Y66.58 I-1.115 J-1.004
G1 X193.791 Y60.333
X194.559 Y59.699
X198.392 Y64.89
G2 X200.49 Y65.205 I1.207 J-0.891
X200.895 Y64.754 I-0.891 J-1.207
G1 X201.201 Y64.228
X201.211 Y64.211
X201.516 Y63.672
X201.531 Y63.645
X202.128 Y62.537
X202.147 Y62.499
X202.713 Y61.373
X202.729 Y61.341
X202.995 Y60.779
X203.004 Y60.759
X203.258 Y60.202
X203.269 Y60.176
X203.507 Y59.627
X203.519 Y59.6
X203.74 Y59.061
X203.752 Y59.031
X203.954 Y58.505
X203.967 Y58.471
X204.15 Y57.959
X204.164 Y57.918
X204.325 Y57.423
X204.338 Y57.381
X204.478 Y56.905
X204.493 Y56.85
X204.609 Y56.392
X204.623 Y56.332
X204.715 Y55.894
X204.727 Y55.829
X204.796 Y55.41
X204.807 Y55.33
X204.851 Y54.93
X204.858 Y54.848
X204.879 Y54.466
X204.881 Y54.371
X204.878 Y54.005
X204.874 Y53.907
X204.848 Y53.555
X204.838 Y53.464
X204.792 Y53.125
X204.776 Y53.027
X204.709 Y52.699
X204.687 Y52.608
X204.601 Y52.29
X204.577 Y52.209
X204.474 Y51.898
X204.45 Y51.833
X204.333 Y51.528
X204.308 Y51.465
X204.177 Y51.165
X204.158 Y51.123
X204.018 Y50.827
X203.991 Y50.775
X203.689 Y50.197
X203.668 Y50.157
X203.357 Y49.604
X203.349 Y49.59
X203.197 Y49.326
X203.053 Y49.076
X202.919 Y48.842
X202.799 Y48.629
X202.695 Y48.436
X202.605 Y48.265
X202.534 Y48.119
X202.477 Y47.993
X202.431 Y47.882
X202.395 Y47.783
X202.317 Y47.537
X202.237 Y47.258
X202.22 Y47.203
X202.118 Y46.896
X202.085 Y46.804
X202.023 Y46.651
X201.983 Y46.562
X201.91 Y46.41
X201.863 Y46.32
X201.779 Y46.172
X201.72 Y46.076
X201.624 Y45.934
X201.56 Y45.846
X201.453 Y45.71
X201.393 Y45.638
X201.368 Y45.609
X201.434 Y45.559
X201.459 Y45.54
X201.71 Y45.34
X201.733 Y45.321
X201.969 Y45.125
X201.995 Y45.103
X202.216 Y44.911
X202.246 Y44.885
X202.451 Y44.697
X202.484 Y44.666
X202.673 Y44.482
X202.705 Y44.45
X202.879 Y44.271
X202.916 Y44.231
X203.074 Y44.055
X203.114 Y44.009
X203.256 Y43.838
X203.295 Y43.788
X203.422 Y43.621
X203.467 Y43.559
X203.578 Y43.397
X203.625 Y43.324
X203.72 Y43.166
X203.764 Y43.086
X203.844 Y42.933
X203.888 Y42.84
X203.953 Y42.692
X203.996 Y42.583
X204.046 Y42.439
X204.086 Y42.304
X204.12 Y42.165
X204.146 Y42.03
X204.166 Y41.896
X204.181 Y41.744
X204.187 Y41.616
X204.189 Y41.526
X204.185 Y41.437
X204.176 Y41.314
X204.167 Y41.23
X204.154 Y41.146
X204.132 Y41.029
X204.115 Y40.948
X204.093 Y40.868
X204.059 Y40.757
X204.029 Y40.669
X203.994 Y40.583
X203.947 Y40.478
X203.909 Y40.399
X203.866 Y40.323
X203.807 Y40.223
X203.763 Y40.154
X203.716 Y40.087
X203.646 Y39.994
X203.549 Y39.878
X203.469 Y39.792
X203.364 Y39.689
X203.274 Y39.609
X203.176 Y39.529
X203.078 Y39.456
X202.979 Y39.388
X202.873 Y39.322
X202.805 Y39.282
X202.736 Y39.245
X202.504 Y39.131
X202.424 Y39.094
X202.341 Y39.063
X202.087 Y38.973
X201.958 Y38.934
X201.689 Y38.865
X201.593 Y38.844
X201.314 Y38.792
X201.245 Y38.781
X200.687 Y38.704
X200.447 Y38.669
X200.265 Y38.635
X200.137 Y38.602
X200.058 Y38.573
X200.014 Y38.55
X199.989 Y38.532
X199.968 Y38.512
X199.936 Y38.471
X199.913 Y38.432
X199.896 Y38.206
X199.871 Y37.713
X199.856 Y37.213
X199.851 Y36.707
X199.858 Y36.194
X199.875 Y35.672
X199.902 Y35.145
X199.941 Y34.611
X199.99 Y34.07
X200.051 Y33.523
X200.123 Y32.968
X200.205 Y32.408
X200.298 Y31.845
X200.402 Y31.276
X200.517 Y30.702
X200.642 Y30.126
X200.778 Y29.548
X200.922 Y28.975
X201.246 Y27.806
X201.418 Y27.238
X201.601 Y26.667
X201.79 Y26.104
X201.988 Y25.551
X202.192 Y25.007
X202.401 Y24.476
X202.614 Y23.963
X202.832 Y23.465
X203.052 Y22.985
X203.272 Y22.527
X203.493 Y22.092
X203.712 Y21.679
X203.928 Y21.291
X204.139 Y20.927
X204.345 Y20.589
X204.542 Y20.276
X204.733 Y19.984
X204.914 Y19.712
X205.084 Y19.46
X205.091 Y19.45
X205.244 Y19.218
X205.264 Y19.187
X205.395 Y18.978
X205.429 Y18.921
X205.536 Y18.732
X205.59 Y18.627
X205.67 Y18.456
X205.708 Y18.369
X205.74 Y18.279
X205.79 Y18.122
G2 X205.849 Y17.852 I-1.429 J-0.457
G1 X205.867 Y17.709
G2 X205.871 Y17.364 I-1.488 J-0.187
G1 X205.857 Y17.232
G2 X205.767 Y16.857 I-1.492 J0.157
G1 X205.72 Y16.733
G2 X205.553 Y16.415 I-1.402 J0.532
G1 X205.474 Y16.298
G2 X205.295 Y16.085 I-1.236 J0.851
G1 X205.185 Y15.976
X205.104 Y15.901
X205.018 Y15.832
X204.879 Y15.73
X204.814 Y15.684
X204.746 Y15.642
X204.582 Y15.546
X204.467 Y15.486
X204.28 Y15.397
X204.189 Y15.358
X203.984 Y15.277
X203.901 Y15.247
X203.68 Y15.174
X203.607 Y15.152
X203.373 Y15.088
X203.305 Y15.071
X203.061 Y15.017
X202.997 Y15.004
X202.745 Y14.959
X202.683 Y14.949
X202.476 Y14.922
X202.497 Y14.888
X202.686 Y14.631
X202.924 Y14.322
X202.93 Y14.314
X203.196 Y13.963
X203.216 Y13.937
X203.353 Y13.749
X203.365 Y13.732
X203.505 Y13.533
X203.526 Y13.503
X203.811 Y13.077
X203.835 Y13.039
X204.123 Y12.58
X204.144 Y12.545
X204.717 Y11.574
X204.728 Y11.555
X205.004 Y11.071
X205.269 Y10.605
X205.272 Y10.601
X205.52 Y10.163
X205.524 Y10.154
X205.752 Y9.745
X205.77 Y9.712
X205.971 Y9.329
X206.001 Y9.27
X206.172 Y8.906
X206.214 Y8.808
X206.35 Y8.455
X206.393 Y8.324
X206.492 Y7.974
X206.526 Y7.825
X206.588 Y7.473
X206.607 Y7.322
X206.633 Y6.964
X206.637 Y6.826
X206.63 Y6.464
X206.623 Y6.346
X206.587 Y5.98
X206.573 Y5.876
X206.511 Y5.51
X206.495 Y5.43
X206.457 Y5.26
G2 X206.702 Y5.062 I-0.816 J-1.259
G1 X207.302 Y4.462
G2 X207.741 Y3.401 I-1.061 J-1.06
G1 Y1.6
G2 X207.302 Y0.54 I-1.5 J0.
G1 X206.702 Y-0.06
G2 X205.641 Y-0.5 I-1.061 J1.06
G1 X176.827
G2 X175.767 Y-0.061 I0. J1.5
G1 X175.166 Y0.539
G2 X174.726 Y1.6 I1.06 J1.061
G1 Y3.401
G2 X175.166 Y4.462 I1.5 J0.
G1 X175.767 Y5.063
G2 X176.011 Y5.26 I1.06 J-1.061
G1 X175.973 Y5.426
X175.955 Y5.514
X175.894 Y5.88
X175.881 Y5.98
X175.845 Y6.346
X175.838 Y6.464
X175.831 Y6.826
X175.835 Y6.96
X175.86 Y7.318
X175.867 Y7.396
X175.879 Y7.473
X175.941 Y7.825
X175.975 Y7.974
X176.074 Y8.324
X176.119 Y8.458
X176.256 Y8.811
X176.295 Y8.903
X176.465 Y9.267
X176.497 Y9.331
X176.699 Y9.714
X176.714 Y9.742
X176.941 Y10.152
X176.949 Y10.165
X177.198 Y10.603
X177.461 Y11.068
X177.464 Y11.073
X177.741 Y11.557
X177.75 Y11.573
X178.322 Y12.544
X178.345 Y12.582
X178.634 Y13.041
X178.656 Y13.074
X178.94 Y13.501
X178.962 Y13.533
X179.102 Y13.732
X179.117 Y13.753
X179.255 Y13.942
X179.27 Y13.961
X179.535 Y14.312
X179.545 Y14.325
X179.782 Y14.631
X179.97 Y14.888
X179.992 Y14.922
X179.785 Y14.949
X179.724 Y14.959
X179.471 Y15.004
X179.406 Y15.017
X179.162 Y15.071
X179.094 Y15.088
X178.86 Y15.152
X178.785 Y15.175
X178.565 Y15.247
X178.487 Y15.276
X178.281 Y15.357
X178.184 Y15.399
X177.998 Y15.487
X177.886 Y15.546
X177.722 Y15.642
X177.654 Y15.684
X177.589 Y15.73
X177.45 Y15.832
X177.364 Y15.901
X177.283 Y15.976
X177.173 Y16.085
G2 X176.994 Y16.298 I1.057 J1.064
G1 X176.914 Y16.415
G2 X176.748 Y16.733 I1.236 J0.851
G1 X176.701 Y16.857
G2 X176.612 Y17.221 I1.402 J0.532
G1 X176.597 Y17.353
G2 X176.601 Y17.719 I1.491 J0.168
G1 X176.62 Y17.862
G2 X176.678 Y18.122 I1.487 J-0.197
G1 X176.728 Y18.279
X176.76 Y18.369
X176.798 Y18.456
X176.878 Y18.627
X176.932 Y18.732
X177.039 Y18.921
X177.073 Y18.978
X177.204 Y19.187
X177.224 Y19.218
X177.377 Y19.45
X177.384 Y19.46
X177.554 Y19.712
X177.734 Y19.983
X177.924 Y20.275
X178.123 Y20.59
X178.329 Y20.929
X178.54 Y21.291
X178.756 Y21.679
X178.975 Y22.091
X179.195 Y22.527
X179.417 Y22.986
X179.635 Y23.464
X179.853 Y23.962
X180.067 Y24.477
X180.276 Y25.007
X180.479 Y25.55
X180.677 Y26.105
X180.867 Y26.668
X181.05 Y27.238
X181.222 Y27.806
X181.545 Y28.974
X181.689 Y29.547
X181.825 Y30.127
X181.951 Y30.704
X182.066 Y31.275
X182.169 Y31.845
X182.193 Y31.989
G3 X182.141 Y32.213 I-0.296 J0.049
X181.946 Y32.334 I-0.244 J-0.175
G1 X181.65 Y32.384
X181.585 Y32.394 Z0.258
X181.522 Y32.405 Z0.28
X181.466 Y32.414 Z0.315
X181.419 Y32.422 Z0.363
X181.384 Y32.428 Z0.42
X181.362 Y32.431 Z0.483
X181.354 Y32.433 Z0.55
G0 Z21.007
X215.881 Y31.466
G1 Z17.007 F133.3
Z0.55
X215.888 Y31.464 Z0.483 F400
X215.91 Y31.46 Z0.42
X215.945 Y31.454 Z0.363
X215.992 Y31.445 Z0.315
X216.048 Y31.435 Z0.28
X216.11 Y31.424 Z0.258
X216.176 Y31.412 Z0.25
X216.471 Y31.358
G3 X216.695 Y31.407 I0.054 J0.295
X216.82 Y31.6 I-0.171 J0.247
G1 X216.874 Y31.896
X216.967 Y32.456
X217.048 Y33.009
X217.119 Y33.557
X217.178 Y34.099
X217.227 Y34.635
X217.265 Y35.163
X217.293 Y35.685
X217.309 Y36.2
X217.316 Y36.709
X217.312 Y37.208
X217.297 Y37.701
X217.272 Y38.186
X217.263 Y38.307
X217.241 Y38.315
X217.137 Y38.342
X216.971 Y38.373
X216.738 Y38.407
X216.181 Y38.484
X216.097 Y38.498
X215.819 Y38.549
X215.705 Y38.574
X215.436 Y38.643
X215.281 Y38.69
X215.027 Y38.78
X214.929 Y38.817
X214.834 Y38.86
X214.601 Y38.975
X214.517 Y39.019
X214.434 Y39.068
X214.328 Y39.134
X214.21 Y39.216
X214.112 Y39.289
X213.987 Y39.392
X213.898 Y39.471
X213.779 Y39.588
X213.699 Y39.674
X213.639 Y39.742
X213.583 Y39.813
X213.513 Y39.906
X213.456 Y39.987
X213.403 Y40.07
X213.344 Y40.169
X213.293 Y40.261
X213.247 Y40.356
X213.2 Y40.461
X213.161 Y40.557
X213.127 Y40.655
X213.092 Y40.766
X213.063 Y40.869
X213.04 Y40.974
X213.018 Y41.091
X213.001 Y41.198
X212.991 Y41.306
X212.983 Y41.429
X212.979 Y41.523
X212.98 Y41.616
X212.985 Y41.744
X212.992 Y41.843
X213.004 Y41.941
X213.024 Y42.074
X213.039 Y42.162
X213.059 Y42.248
X213.094 Y42.387
X213.139 Y42.538
X213.189 Y42.681
X213.236 Y42.803
X213.3 Y42.951
X213.357 Y43.071
X213.437 Y43.225
X213.495 Y43.327
X213.591 Y43.485
X213.642 Y43.566
X213.753 Y43.728
X213.807 Y43.803
X213.934 Y43.97
X213.981 Y44.029
X214.123 Y44.2
X214.171 Y44.256
X214.329 Y44.431
X214.374 Y44.479
X214.548 Y44.659
X214.586 Y44.697
X214.775 Y44.881
X214.814 Y44.918
X215.019 Y45.106
X215.055 Y45.138
X215.276 Y45.33
X215.307 Y45.356
X215.543 Y45.552
X215.571 Y45.575
X215.676 Y45.658
X215.592 Y45.772
X215.499 Y45.909
X215.388 Y46.092
X215.308 Y46.239
X215.216 Y46.428
X215.161 Y46.553
X215.085 Y46.745
X215.051 Y46.838
X214.987 Y47.03
X214.968 Y47.093
X214.865 Y47.444
X214.769 Y47.739
X214.726 Y47.848
X214.659 Y47.996
X214.57 Y48.177
X214.456 Y48.393
X214.315 Y48.645
X214.151 Y48.933
X213.969 Y49.249
X213.966 Y49.253
X213.774 Y49.588
X213.766 Y49.603
X213.571 Y49.95
X213.555 Y49.979
X213.363 Y50.337
X213.342 Y50.378
X213.158 Y50.744
X213.13 Y50.802
X212.959 Y51.174
X212.925 Y51.252
X212.772 Y51.632
X212.734 Y51.734
X212.604 Y52.122
X212.568 Y52.245
X212.465 Y52.645
X212.436 Y52.778
X212.362 Y53.193
X212.342 Y53.34
X212.301 Y53.774
X212.294 Y53.888
X212.287 Y54.113
X212.286 Y54.176
X212.287 Y54.408
X212.289 Y54.483
X212.3 Y54.721
X212.304 Y54.784
X212.324 Y55.029
X212.33 Y55.088
X212.359 Y55.34
X212.367 Y55.402
X212.406 Y55.661
X212.415 Y55.712
X212.463 Y55.979
X212.473 Y56.032
X212.531 Y56.306
X212.541 Y56.35
X212.608 Y56.632
X212.618 Y56.673
X212.694 Y56.962
X212.705 Y57.
X212.79 Y57.297
X212.8 Y57.333
X212.894 Y57.637
X212.905 Y57.672
X213.008 Y57.982
X213.018 Y58.011
X213.129 Y58.328
X213.144 Y58.369
X213.39 Y59.021
X213.408 Y59.067
X213.683 Y59.741
X213.7 Y59.782
X214.002 Y60.472
X214.017 Y60.505
X214.341 Y61.205
X214.357 Y61.239
X214.701 Y61.944
X214.715 Y61.972
X215.075 Y62.676
X215.089 Y62.704
X215.46 Y63.401
X215.475 Y63.428
X215.854 Y64.111
X215.869 Y64.138
X216.252 Y64.801
X216.269 Y64.83
X216.653 Y65.468
X216.672 Y65.498
X217.054 Y66.105
X217.073 Y66.135
X217.448 Y66.705
X217.466 Y66.733
X217.651 Y67.003
X217.665 Y67.023
X217.848 Y67.283
X217.861 Y67.302
X218.041 Y67.551
X218.057 Y67.572
X218.234 Y67.809
X218.254 Y67.836
X218.429 Y68.062
X218.446 Y68.083
X218.617 Y68.297
X218.636 Y68.321
X218.803 Y68.523
X218.832 Y68.558
X218.997 Y68.747
X219.02 Y68.773
X219.18 Y68.95
X219.218 Y68.99
X219.376 Y69.154
X219.407 Y69.186
X219.56 Y69.337
X219.601 Y69.376
X219.75 Y69.515
X219.802 Y69.561
X219.948 Y69.687
X220.004 Y69.733
X220.146 Y69.845
X220.207 Y69.891
X220.201 Y70.002
X220.198 Y70.104
Y70.315
X220.2 Y70.4
X220.21 Y70.611
X220.217 Y70.705
X220.238 Y70.915
X220.25 Y71.008
X220.282 Y71.217
X220.299 Y71.31
X220.342 Y71.517
X220.363 Y71.608
X220.417 Y71.814
X220.445 Y71.911
X220.511 Y72.115
X220.542 Y72.203
X220.619 Y72.405
X220.658 Y72.497
X220.747 Y72.696
X220.784 Y72.774
X220.883 Y72.97
X220.928 Y73.054
X221.038 Y73.245
X221.089 Y73.328
X221.21 Y73.514
X221.259 Y73.586
X221.389 Y73.766
X221.452 Y73.849
X221.593 Y74.023
X221.654 Y74.094
X221.804 Y74.261
X221.868 Y74.329
X222.026 Y74.487
X222.102 Y74.558
X222.269 Y74.707
X222.347 Y74.773
X222.522 Y74.912
X222.605 Y74.973
X222.787 Y75.101
X222.88 Y75.163
X223.07 Y75.279
X223.16 Y75.332
X223.356 Y75.437
X223.452 Y75.485
X223.654 Y75.579
X223.756 Y75.622
X223.965 Y75.704
X224.063 Y75.739
X224.277 Y75.808
X224.376 Y75.838
X224.596 Y75.895
X224.695 Y75.919
X224.921 Y75.965
X225.016 Y75.981
X225.247 Y76.015
X225.339 Y76.027
X225.575 Y76.049
X225.664 Y76.056
X225.905 Y76.067
X225.99 Y76.069
X226.234
X226.478
X226.563 Y76.067
X226.804 Y76.056
X226.893 Y76.049
X227.129 Y76.027
X227.221 Y76.015
X227.452 Y75.981
X227.549 Y75.964
X227.774 Y75.918
X227.871 Y75.895
X228.091 Y75.838
X228.188 Y75.809
X228.403 Y75.739
X228.506 Y75.702
X228.714 Y75.621
X228.81 Y75.58
X229.013 Y75.486
X229.112 Y75.437
X229.308 Y75.332
X229.402 Y75.277
X229.591 Y75.16
X229.68 Y75.101
X229.862 Y74.973
X229.945 Y74.912
X230.12 Y74.773
X230.198 Y74.707
X230.365 Y74.558
X230.437 Y74.491
X230.596 Y74.333
X230.664 Y74.261
X230.814 Y74.094
X230.879 Y74.018
X231.019 Y73.844
X231.074 Y73.772
X231.205 Y73.591
X231.258 Y73.514
X231.379 Y73.328
X231.43 Y73.245
X231.54 Y73.054
X231.585 Y72.97
X231.684 Y72.774
X231.724 Y72.689
X231.812 Y72.491
X231.848 Y72.405
X231.925 Y72.203
X231.956 Y72.115
X232.022 Y71.911
X232.05 Y71.814
X232.104 Y71.608
X232.124 Y71.525
X232.168 Y71.318
X232.186 Y71.217
X232.218 Y71.008
X232.23 Y70.915
X232.251 Y70.705
X232.258 Y70.611
X232.268 Y70.4
X232.27 Y70.307
X232.269 Y70.095
X232.267 Y70.011
X232.26 Y69.89
X232.292 Y69.867
X232.389 Y69.792
X232.614 Y69.605
X232.69 Y69.538
X232.925 Y69.32
X232.99 Y69.256
X233.233 Y69.006
X233.28 Y68.956
X233.533 Y68.675
G2 X233.644 Y66.401 I-1.337 J-1.205
G1 X229.201 Y60.384
X229.506 Y60.132
X233.151 Y65.068
G2 X235.668 Y65.447 I1.448 J-1.069
X236.155 Y64.904 I-1.069 J-1.448
G1 X236.461 Y64.379
X236.472 Y64.359
X236.777 Y63.82
X236.795 Y63.787
X237.392 Y62.679
X237.415 Y62.634
X237.981 Y61.507
X238. Y61.469
X238.266 Y60.907
X238.277 Y60.884
X238.531 Y60.327
X238.545 Y60.296
X238.783 Y59.746
X238.796 Y59.713
X239.017 Y59.174
X239.031 Y59.139
X239.234 Y58.613
X239.25 Y58.572
X239.433 Y58.06
X239.45 Y58.011
X239.611 Y57.516
X239.626 Y57.466
X239.766 Y56.989
X239.784 Y56.924
X239.9 Y56.466
X239.917 Y56.394
X240.009 Y55.955
X240.023 Y55.878
X240.092 Y55.459
X240.105 Y55.363
X240.149 Y54.963
X240.157 Y54.865
X240.178 Y54.482
X240.181 Y54.369
X240.178 Y54.003
X240.173 Y53.885
X240.147 Y53.533
X240.136 Y53.423
X240.09 Y53.085
X240.07 Y52.967
X240.003 Y52.639
X239.977 Y52.53
X239.891 Y52.212
X239.862 Y52.115
X239.759 Y51.804
X239.731 Y51.725
X239.614 Y51.42
X239.583 Y51.345
X239.451 Y51.045
X239.429 Y50.995
X239.289 Y50.699
X239.257 Y50.636
X238.955 Y50.058
X238.929 Y50.01
X238.618 Y49.457
X238.609 Y49.44
X238.457 Y49.176
X238.313 Y48.927
X238.18 Y48.694
X238.062 Y48.484
X237.96 Y48.295
X237.873 Y48.13
X237.806 Y47.992
X237.753 Y47.874
X237.711 Y47.773
X237.679 Y47.685
X237.604 Y47.45
X237.525 Y47.175
X237.504 Y47.109
X237.403 Y46.802
X237.363 Y46.692
X237.301 Y46.538
X237.254 Y46.431
X237.181 Y46.28
X237.124 Y46.172
X237.04 Y46.024
X236.968 Y45.909
X236.872 Y45.766
X236.796 Y45.661
X236.793 Y45.657
X236.897 Y45.575
X236.925 Y45.552
X237.161 Y45.356
X237.192 Y45.33
X237.413 Y45.138
X237.449 Y45.106
X237.654 Y44.918
X237.693 Y44.881
X237.882 Y44.697
X237.92 Y44.659
X238.094 Y44.479
X238.139 Y44.431
X238.297 Y44.256
X238.345 Y44.2
X238.487 Y44.029
X238.534 Y43.97
X238.661 Y43.803
X238.715 Y43.728
X238.826 Y43.566
X238.882 Y43.478
X238.977 Y43.32
X239.03 Y43.225
X239.11 Y43.071
X239.163 Y42.961
X239.228 Y42.812
X239.279 Y42.681
X239.329 Y42.538
X239.377 Y42.375
X239.411 Y42.236
X239.443 Y42.074
X239.463 Y41.941
X239.474 Y41.85
X239.481 Y41.758
X239.487 Y41.63
X239.489 Y41.522
X239.484 Y41.415
X239.475 Y41.292
X239.465 Y41.191
X239.449 Y41.091
X239.427 Y40.974
X239.406 Y40.877
X239.38 Y40.781
X239.346 Y40.669
X239.31 Y40.564
X239.268 Y40.461
X239.221 Y40.356
X239.175 Y40.261
X239.124 Y40.169
X239.065 Y40.07
X239.012 Y39.987
X238.955 Y39.906
X238.885 Y39.813
X238.829 Y39.742
X238.769 Y39.674
X238.689 Y39.588
X238.627 Y39.525
X238.563 Y39.465
X238.473 Y39.385
X238.355 Y39.289
X238.257 Y39.216
X238.139 Y39.134
X238.033 Y39.068
X237.952 Y39.02
X237.868 Y38.976
X237.636 Y38.862
X237.54 Y38.818
X237.441 Y38.78
X237.187 Y38.69
X237.032 Y38.643
X236.763 Y38.574
X236.648 Y38.549
X236.369 Y38.497
X236.286 Y38.484
X235.729 Y38.407
X235.496 Y38.373
X235.331 Y38.342
X235.227 Y38.315
X235.204 Y38.307
X235.196 Y38.188
X235.171 Y37.701
X235.156 Y37.207
X235.151 Y36.707
X235.158 Y36.2
X235.174 Y35.685
X235.202 Y35.163
X235.24 Y34.635
X235.289 Y34.1
X235.349 Y33.559
X235.42 Y33.009
X235.502 Y32.454
X235.593 Y31.896
X235.697 Y31.333
X235.811 Y30.764
X235.935 Y30.192
X236.069 Y29.619
X236.212 Y29.051
X236.534 Y27.89
X236.704 Y27.327
X236.886 Y26.76
X237.074 Y26.202
X237.269 Y25.655
X237.472 Y25.115
X237.679 Y24.589
X237.89 Y24.081
X238.106 Y23.587
X238.323 Y23.112
X238.541 Y22.66
X238.759 Y22.23
X238.975 Y21.822
X239.188 Y21.439
X239.397 Y21.081
X239.6 Y20.747
X239.794 Y20.438
X239.984 Y20.149
X240.164 Y19.879
X240.333 Y19.628
X240.341 Y19.615
X240.494 Y19.384
X240.518 Y19.347
X240.649 Y19.138
X240.69 Y19.069
X240.797 Y18.88
X240.862 Y18.754
X240.942 Y18.583
X240.987 Y18.478
X241.025 Y18.37
X241.075 Y18.214
G2 X241.147 Y17.889 I-1.714 J-0.549
G1 X241.165 Y17.746
G2 X241.169 Y17.333 I-1.786 J-0.224
G1 X241.155 Y17.2
G2 X241.048 Y16.751 I-1.79 J0.189
G1 X241.001 Y16.627
G2 X240.801 Y16.244 I-1.683 J0.638
G1 X240.721 Y16.128
G2 X240.507 Y15.872 I-1.483 J1.021
G1 X240.397 Y15.763
G2 X240.196 Y15.591 I-1.269 J1.277
G1 X240.057 Y15.488
X239.979 Y15.434
X239.897 Y15.383
X239.733 Y15.287
X239.596 Y15.215
X239.409 Y15.126
X239.299 Y15.078
X239.094 Y14.998
X238.995 Y14.962
X238.774 Y14.889
X238.686 Y14.863
X238.452 Y14.799
X238.37 Y14.779
X238.126 Y14.724
X238.05 Y14.709
X238.01 Y14.702
X238.162 Y14.505
X238.169 Y14.495
X238.435 Y14.145
X238.459 Y14.114
X238.596 Y13.925
X238.61 Y13.905
X238.75 Y13.706
X238.775 Y13.669
X239.06 Y13.243
X239.089 Y13.199
X239.377 Y12.739
X239.402 Y12.698
X239.975 Y11.726
X239.989 Y11.703
X240.265 Y11.22
Y11.219
X240.53 Y10.753
X240.533 Y10.749
X240.781 Y10.31
X240.786 Y10.3
X241.014 Y9.891
X241.036 Y9.851
X241.237 Y9.468
X241.272 Y9.397
X241.443 Y9.034
X241.493 Y8.916
X241.629 Y8.563
X241.682 Y8.406
X241.781 Y8.056
X241.804 Y7.967
X241.822 Y7.877
X241.884 Y7.525
X241.897 Y7.435
X241.906 Y7.344
X241.932 Y6.986
X241.937 Y6.821
X241.93 Y6.458
X241.921 Y6.316
X241.885 Y5.95
X241.869 Y5.826
X241.807 Y5.46
X241.792 Y5.385
X241.914 Y5.274
X242.514 Y4.674
G2 X243.041 Y3.401 I-1.273 J-1.272
G1 Y1.6
G2 X242.514 Y0.328 I-1.8 J0.
G1 X241.914 Y-0.272
G2 X240.641 Y-0.8 I-1.273 J1.272
G1 X211.827
G2 X210.555 Y-0.274 I0. J1.8
G1 X209.954 Y0.327
G2 X209.426 Y1.6 I1.272 J1.274
G1 Y3.401
G2 X209.954 Y4.675 I1.8 J0.
G1 X210.555 Y5.275
X210.675 Y5.384
X210.66 Y5.465
X210.598 Y5.831
X210.583 Y5.95
X210.547 Y6.316
X210.538 Y6.458
X210.531 Y6.821
X210.535 Y6.981
X210.56 Y7.339
X210.569 Y7.432
X210.583 Y7.525
X210.645 Y7.877
X210.663 Y7.967
X210.686 Y8.056
X210.785 Y8.406
X210.81 Y8.487
X210.839 Y8.567
X210.976 Y8.92
X211.023 Y9.03
X211.193 Y9.394
X211.232 Y9.471
X211.434 Y9.854
X211.452 Y9.888
X211.679 Y10.297
X211.688 Y10.313
X211.937 Y10.751
X212.2 Y11.216
X212.204 Y11.222
X212.481 Y11.706
X212.492 Y11.725
X213.064 Y12.696
X213.091 Y12.742
X213.38 Y13.201
X213.406 Y13.241
X213.69 Y13.667
X213.717 Y13.706
X213.857 Y13.905
X213.875 Y13.93
X214.013 Y14.119
X214.031 Y14.142
X214.296 Y14.493
X214.308 Y14.508
X214.457 Y14.702
X214.418 Y14.709
X214.341 Y14.724
X214.097 Y14.779
X214.015 Y14.799
X213.781 Y14.863
X213.691 Y14.89
X213.471 Y14.963
X213.377 Y14.996
X213.171 Y15.077
X213.055 Y15.128
X212.869 Y15.216
X212.735 Y15.287
X212.571 Y15.383
X212.489 Y15.434
X212.411 Y15.488
X212.272 Y15.591
G2 X212.071 Y15.763 I1.068 J1.449
G1 X211.961 Y15.872
G2 X211.747 Y16.128 I1.269 J1.277
G1 X211.667 Y16.244
G2 X211.467 Y16.627 I1.483 J1.021
G1 X211.42 Y16.751
G2 X211.314 Y17.187 I1.683 J0.638
G1 X211.299 Y17.32
G2 X211.304 Y17.758 I1.789 J0.202
G1 X211.323 Y17.902
G2 X211.393 Y18.214 I1.784 J-0.236
G1 X211.443 Y18.37
X211.481 Y18.478
X211.526 Y18.583
X211.606 Y18.754
X211.671 Y18.88
X211.778 Y19.069
X211.819 Y19.138
X211.95 Y19.347
X211.974 Y19.384
X212.127 Y19.615
X212.135 Y19.628
X212.304 Y19.879
X212.483 Y20.148
X212.671 Y20.437
X212.868 Y20.748
X213.072 Y21.082
X213.28 Y21.439
X213.493 Y21.822
X213.708 Y22.229
X213.926 Y22.66
X214.145 Y23.114
X214.362 Y23.586
X214.577 Y24.079
X214.789 Y24.59
X214.996 Y25.115
X215.197 Y25.653
X215.394 Y26.203
X215.582 Y26.762
X215.764 Y27.327
X215.934 Y27.89
X216.255 Y29.05
X216.398 Y29.618
X216.532 Y30.193
X216.657 Y30.765
X216.771 Y31.332
X216.82 Y31.6
G2 X217.007 Y31.794 I0.239 J-0.043
G3 X217.193 Y31.989 I-0.051 J0.235
G1 X217.263 Y32.41
X217.345 Y32.968
X217.417 Y33.521
X217.476 Y34.069
X217.526 Y34.611
X217.565 Y35.145
X217.592 Y35.672
X217.609 Y36.194
X217.616 Y36.708
X217.612 Y37.214
X217.597 Y37.713
X217.572 Y38.205
X217.555 Y38.432
X217.533 Y38.469
X217.499 Y38.512
X217.476 Y38.534
X217.453 Y38.551
X217.41 Y38.573
X217.331 Y38.602
X217.203 Y38.635
X217.02 Y38.669
X216.78 Y38.704
X216.222 Y38.781
X216.152 Y38.792
X215.874 Y38.844
X215.779 Y38.865
X215.51 Y38.934
X215.381 Y38.973
X215.127 Y39.063
X215.045 Y39.094
X214.966 Y39.13
X214.733 Y39.244
X214.663 Y39.281
X214.594 Y39.322
X214.488 Y39.388
X214.389 Y39.456
X214.291 Y39.529
X214.187 Y39.615
X214.098 Y39.695
X213.999 Y39.792
X213.919 Y39.878
X213.822 Y39.994
X213.752 Y40.087
X213.705 Y40.154
X213.661 Y40.223
X213.602 Y40.323
X213.559 Y40.399
X213.521 Y40.478
X213.474 Y40.583
X213.441 Y40.663
X213.413 Y40.745
X213.378 Y40.856
X213.354 Y40.942
X213.335 Y41.029
X213.313 Y41.146
X213.299 Y41.236
X213.29 Y41.326
X213.282 Y41.449
X213.279 Y41.527
X213.28 Y41.605
X213.285 Y41.733
X213.291 Y41.815
X213.301 Y41.896
X213.321 Y42.03
X213.35 Y42.175
X213.385 Y42.314
X213.422 Y42.439
X213.472 Y42.583
X213.511 Y42.684
X213.575 Y42.833
X213.623 Y42.933
X213.703 Y43.086
X213.751 Y43.172
X213.847 Y43.33
X213.89 Y43.397
