(Resterende tarne)
(Machine)
(  vendor: Autodesk)
(  model: Generic 3-axis)
(  description: This machine has XYZ axis on the Head)
(T2  D=3. CR=0. - ZMIN=0. - flat end mill)
G90

(2D Contour2)
T2 M6 (flat end mill D=3.)
S15000 M3
G64
G54
M8
G43 H2
G0 Z30.
G0 X40.691 Y31.669
Z31.007
Z21.007
G1 Z17.007 F133.3
Z0.55
X40.698 Y31.668 Z0.483 F400
X40.72 Y31.664 Z0.42
X40.755 Y31.657 Z0.363
X40.802 Y31.649 Z0.315
X40.858 Y31.638 Z0.28
X40.92 Y31.627 Z0.258
X40.986 Y31.615 Z0.25
X41.281 Y31.561
G3 X41.506 Y31.609 I0.054 J0.295
X41.63 Y31.802 I-0.171 J0.247
G1 X41.647 Y31.896
X41.74 Y32.456
X41.821 Y33.009
X41.892 Y33.557
X41.952 Y34.1
X42.001 Y34.635
X42.039 Y35.163
X42.067 Y35.685
X42.083 Y36.2
X42.09 Y36.707
X42.085 Y37.208
X42.071 Y37.701
X42.046 Y38.187
X42.037 Y38.31
X42.028 Y38.312
X41.971 Y38.33
X41.725 Y38.386
X41.419 Y38.439
X41.072 Y38.495
X41.008 Y38.507
X40.675 Y38.574
X40.566 Y38.599
X40.413 Y38.64
X40.305 Y38.673
X40.163 Y38.72
X40.024 Y38.773
X39.895 Y38.829
X39.81 Y38.868
X39.727 Y38.911
X39.611 Y38.976
X39.515 Y39.034
X39.422 Y39.098
X39.322 Y39.172
G2 X39.125 Y39.34 I1.068 J1.449
G1 X39.039 Y39.424
G2 X38.854 Y39.639 I1.265 J1.281
G1 X38.784 Y39.734
G2 X38.632 Y39.981 I1.45 J1.066
G1 X38.578 Y40.086
G2 X38.47 Y40.346 I1.603 J0.82
G1 X38.432 Y40.462
G2 X38.37 Y40.71 I1.711 J0.56
G1 X38.347 Y40.837
X38.331 Y40.951
X38.322 Y41.065
X38.316 Y41.202
X38.314 Y41.3
X38.317 Y41.398
X38.326 Y41.546
G2 X38.569 Y42.344 I1.797 J-0.111
G1 X38.825 Y42.781
X39.008 Y43.092
X38.966 Y43.124
X38.94 Y43.144
X38.627 Y43.391
X38.611 Y43.403
X38.315 Y43.642
X38.295 Y43.658
X38.021 Y43.886
X37.954 Y43.944
X37.709 Y44.169
X37.599 Y44.279
X37.489 Y44.399
X37.383 Y44.525
X37.282 Y44.658
X37.226 Y44.737
X37.173 Y44.818
X37.082 Y44.97
X37.031 Y45.059
X36.986 Y45.15
X36.905 Y45.328
X36.868 Y45.413
X36.836 Y45.501
X36.765 Y45.711
X36.73 Y45.826
X36.699 Y45.945
X36.682 Y46.014
X36.653 Y46.144
X36.641 Y46.204
X36.614 Y46.344
X36.605 Y46.397
X36.581 Y46.548
X36.575 Y46.595
X36.554 Y46.757
X36.549 Y46.799
X36.53 Y46.973
X36.527 Y47.007
X36.51 Y47.192
X36.508 Y47.224
X36.494 Y47.421
X36.493 Y47.446
X36.481 Y47.654
X36.48 Y47.677
X36.47 Y47.895
X36.469 Y47.923
X36.457 Y48.388
X36.456 Y48.418
X36.451 Y48.917
Y48.939
Y49.464
Y49.481
X36.457 Y50.023
X36.458 Y50.04
X36.481 Y51.14
Y51.153
X36.496 Y51.692
Y51.697
X36.512 Y52.216
Y52.221
X36.529 Y52.712
Y52.716
X36.545 Y53.171
Y53.176
X36.553 Y53.388
Y53.389
X36.561 Y53.591
Y53.594
X36.568 Y53.784
X36.569 Y53.788
X36.576 Y53.966
Y53.971
X36.584 Y54.138
Y54.143
X36.591 Y54.297
X36.592 Y54.305
X36.599 Y54.447
X36.6 Y54.46
X36.608 Y54.59
X36.609 Y54.603
X36.617 Y54.723
X36.618 Y54.744
X36.627 Y54.853
X36.631 Y54.896
X36.65 Y55.084
X36.662 Y55.171
X36.686 Y55.328
X36.709 Y55.453
X36.74 Y55.587
X36.781 Y55.739
X36.82 Y55.86
X36.874 Y56.007
X36.923 Y56.123
X36.979 Y56.243
X37.039 Y56.361
X37.087 Y56.45
X37.16 Y56.575
X37.199 Y56.639
X37.286 Y56.774
X37.321 Y56.827
X37.421 Y56.972
X37.455 Y57.02
X37.57 Y57.176
X37.606 Y57.223
X37.736 Y57.386
X37.777 Y57.436
X37.921 Y57.605
X37.968 Y57.658
X38.126 Y57.83
X38.179 Y57.885
X38.351 Y58.056
X38.41 Y58.112
X38.596 Y58.282
X38.659 Y58.337
X38.859 Y58.503
X38.926 Y58.556
X39.14 Y58.716
X39.21 Y58.766
X39.437 Y58.92
X39.507 Y58.966
X39.748 Y59.113
X39.819 Y59.155
X40.073 Y59.295
X40.144 Y59.332
X40.411 Y59.464
X40.479 Y59.496
X40.759 Y59.621
X40.824 Y59.649
X41.118 Y59.766
G2 X41.785 Y59.894 I0.667 J-1.672
G1 X60.229
G2 X60.896 Y59.766 I0. J-1.8
G1 X61.19 Y59.649
X61.255 Y59.621
X61.536 Y59.496
X61.604 Y59.464
X61.871 Y59.332
X61.941 Y59.295
X62.195 Y59.155
X62.267 Y59.113
X62.507 Y58.966
X62.578 Y58.92
X62.805 Y58.766
X62.875 Y58.716
X63.088 Y58.556
X63.156 Y58.503
X63.356 Y58.337
X63.419 Y58.282
X63.605 Y58.112
X63.663 Y58.057
X63.836 Y57.885
X63.889 Y57.83
X64.047 Y57.658
X64.094 Y57.605
X64.238 Y57.436
X64.279 Y57.386
X64.408 Y57.223
X64.445 Y57.176
X64.56 Y57.02
X64.594 Y56.972
X64.694 Y56.827
X64.729 Y56.774
X64.815 Y56.639
X64.855 Y56.575
X64.928 Y56.45
X64.976 Y56.361
X65.036 Y56.243
X65.092 Y56.123
X65.14 Y56.007
X65.195 Y55.858
X65.234 Y55.738
X65.275 Y55.587
X65.305 Y55.453
X65.329 Y55.329
X65.353 Y55.172
X65.364 Y55.083
X65.384 Y54.895
X65.388 Y54.853
X65.396 Y54.744
X65.398 Y54.724
X65.406 Y54.605
X65.407 Y54.589
X65.415 Y54.459
Y54.449
X65.423 Y54.307
Y54.297
X65.431 Y54.143
Y54.137
X65.438 Y53.97
X65.439 Y53.966
X65.446 Y53.788
Y53.785
X65.454 Y53.595
Y53.591
X65.462 Y53.389
Y53.387
X65.47 Y53.175
Y53.172
X65.486 Y52.716
Y52.712
X65.502 Y52.221
X65.503 Y52.216
X65.519 Y51.697
Y51.691
X65.534 Y51.153
Y51.14
X65.557 Y50.041
Y50.023
X65.563 Y49.481
Y49.464
X65.564 Y48.939
Y48.916
X65.559 Y48.418
X65.558 Y48.389
X65.545 Y47.923
X65.544 Y47.895
X65.535 Y47.677
X65.534 Y47.654
X65.522 Y47.446
X65.521 Y47.42
X65.507 Y47.223
X65.504 Y47.193
X65.488 Y47.008
X65.485 Y46.972
X65.466 Y46.798
X65.461 Y46.759
X65.44 Y46.596
X65.433 Y46.548
X65.409 Y46.397
X65.4 Y46.344
X65.374 Y46.204
X65.361 Y46.142
X65.332 Y46.013
X65.316 Y45.945
X65.284 Y45.826
X65.25 Y45.712
X65.179 Y45.502
X65.146 Y45.414
X65.11 Y45.328
X65.028 Y45.15
X64.983 Y45.059
X64.933 Y44.97
X64.842 Y44.818
X64.789 Y44.736
X64.732 Y44.657
X64.631 Y44.524
X64.527 Y44.4
X64.416 Y44.28
X64.306 Y44.169
X64.06 Y43.944
X63.993 Y43.885
X63.719 Y43.658
X63.699 Y43.642
X63.403 Y43.403
X63.388 Y43.391
X63.075 Y43.145
X63.049 Y43.124
X63.007 Y43.092
X63.189 Y42.781
X63.445 Y42.344
G2 X63.688 Y41.546 I-1.553 J-0.909
G1 X63.698 Y41.398
X63.701 Y41.299
X63.699 Y41.201
X63.692 Y41.064
X63.684 Y40.951
X63.668 Y40.838
X63.645 Y40.711
G2 X63.583 Y40.462 I-1.773 J0.31
G1 X63.545 Y40.346
G2 X63.436 Y40.085 I-1.711 J0.56
G1 X63.382 Y39.979
G2 X63.231 Y39.734 I-1.602 J0.821
G1 X63.161 Y39.639
G2 X62.976 Y39.425 I-1.45 J1.066
G1 X62.891 Y39.341
G2 X62.693 Y39.172 I-1.265 J1.28
G1 X62.592 Y39.098
X62.5 Y39.034
X62.403 Y38.976
X62.288 Y38.911
X62.205 Y38.868
X62.12 Y38.829
X61.991 Y38.773
X61.852 Y38.72
X61.71 Y38.673
X61.602 Y38.64
X61.449 Y38.599
X61.339 Y38.574
X61.007 Y38.507
X60.942 Y38.495
X60.595 Y38.439
X60.29 Y38.386
X60.044 Y38.33
X59.986 Y38.312
X59.978 Y38.31
X59.969 Y38.187
X59.944 Y37.701
X59.929 Y37.208
X59.925 Y36.707
X59.931 Y36.2
X59.948 Y35.685
X59.976 Y35.163
X60.014 Y34.635
X60.063 Y34.099
X60.123 Y33.558
X60.193 Y33.009
X60.275 Y32.455
X60.367 Y31.896
X60.47 Y31.332
X60.584 Y30.764
X60.708 Y30.192
X60.843 Y29.619
X60.986 Y29.051
X61.308 Y27.889
X61.478 Y27.326
X61.659 Y26.761
X61.848 Y26.203
X62.043 Y25.653
X62.245 Y25.115
X62.453 Y24.59
X62.664 Y24.08
X62.879 Y23.587
X63.097 Y23.113
X63.315 Y22.66
X63.533 Y22.229
X63.749 Y21.822
X63.962 Y21.439
X64.17 Y21.081
X64.373 Y20.748
X64.569 Y20.438
X64.757 Y20.149
X64.938 Y19.878
X65.107 Y19.626
X65.114 Y19.615
X65.267 Y19.384
X65.29 Y19.349
X65.421 Y19.14
X65.464 Y19.068
X65.571 Y18.879
X65.636 Y18.752
X65.716 Y18.581
X65.761 Y18.477
X65.798 Y18.37
X65.848 Y18.214
G2 X65.919 Y17.897 I-1.714 J-0.549
G1 X65.938 Y17.753
G2 X65.942 Y17.33 I-1.785 J-0.232
G1 X65.928 Y17.198
G2 X65.82 Y16.747 I-1.79 J0.192
G1 X65.773 Y16.623
G2 X65.576 Y16.248 I-1.682 J0.642
G1 X65.497 Y16.132
G2 X65.278 Y15.87 I-1.485 J1.017
G1 X65.168 Y15.761
G2 X64.971 Y15.592 I-1.266 J1.279
G1 X64.832 Y15.49
X64.752 Y15.434
X64.67 Y15.382
X64.505 Y15.287
X64.371 Y15.216
X64.185 Y15.127
X64.072 Y15.078
X63.867 Y14.997
X63.768 Y14.962
X63.547 Y14.889
X63.46 Y14.863
X63.227 Y14.799
X63.144 Y14.779
X62.9 Y14.724
X62.823 Y14.709
X62.784 Y14.702
X62.934 Y14.507
X62.944 Y14.494
X63.21 Y14.144
X63.23 Y14.116
X63.368 Y13.928
X63.385 Y13.904
X63.525 Y13.705
X63.549 Y13.669
X63.834 Y13.243
X63.862 Y13.2
X64.151 Y12.74
X64.177 Y12.697
X64.749 Y11.725
X64.761 Y11.705
X65.038 Y11.221
X65.039 Y11.218
X65.304 Y10.753
X65.305 Y10.75
X65.554 Y10.312
X65.561 Y10.299
X65.789 Y9.889
X65.809 Y9.852
X66.01 Y9.469
X66.046 Y9.396
X66.217 Y9.033
X66.267 Y8.916
X66.403 Y8.564
X66.455 Y8.407
X66.555 Y8.057
X66.578 Y7.967
X66.596 Y7.876
X66.658 Y7.523
X66.671 Y7.433
X66.68 Y7.343
X66.706 Y6.985
X66.71 Y6.82
X66.703 Y6.457
X66.695 Y6.315
X66.658 Y5.949
X66.642 Y5.829
X66.581 Y5.463
X66.566 Y5.385
X66.687 Y5.274
X67.287 Y4.674
G2 X67.815 Y3.401 I-1.273 J-1.273
G1 Y1.6
G2 X67.287 Y0.328 I-1.8 J0.
G1 X66.687 Y-0.273
G2 X65.414 Y-0.8 I-1.273 J1.273
G1 X36.6
G2 X35.328 Y-0.273 I0. J1.8
G1 X34.727 Y0.328
G2 X34.2 Y1.6 I1.273 J1.273
G1 Y3.401
G2 X34.727 Y4.674 I1.8 J0.
G1 X35.328 Y5.274
X35.448 Y5.385
X35.433 Y5.464
X35.372 Y5.83
X35.356 Y5.949
X35.32 Y6.315
X35.312 Y6.457
X35.304 Y6.82
X35.309 Y6.985
X35.335 Y7.343
X35.343 Y7.434
X35.357 Y7.524
X35.419 Y7.876
X35.437 Y7.967
X35.46 Y8.057
X35.559 Y8.407
X35.612 Y8.564
X35.748 Y8.916
X35.798 Y9.033
X35.968 Y9.396
X36.005 Y9.469
X36.206 Y9.852
X36.226 Y9.889
X36.453 Y10.298
X36.461 Y10.312
X36.709 Y10.75
X36.711 Y10.753
X36.975 Y11.218
X36.977 Y11.221
X37.254 Y11.705
X37.266 Y11.725
X37.838 Y12.697
X37.864 Y12.74
X38.152 Y13.2
X38.18 Y13.243
X38.465 Y13.669
X38.49 Y13.705
X38.63 Y13.904
X38.647 Y13.928
X38.784 Y14.116
X38.805 Y14.144
X39.071 Y14.494
X39.08 Y14.506
X39.231 Y14.702
X39.192 Y14.709
X39.115 Y14.724
X38.871 Y14.779
X38.788 Y14.799
X38.554 Y14.863
X38.467 Y14.889
X38.246 Y14.962
X38.148 Y14.997
X37.943 Y15.078
X37.83 Y15.127
X37.644 Y15.216
X37.509 Y15.287
X37.345 Y15.382
X37.263 Y15.434
X37.183 Y15.489
X37.044 Y15.592
G2 X36.846 Y15.761 I1.069 J1.448
G1 X36.736 Y15.87
G2 X36.518 Y16.132 I1.267 J1.279
G1 X36.439 Y16.248
G2 X36.242 Y16.623 I1.485 J1.017
G1 X36.195 Y16.747
G2 X36.086 Y17.198 I1.682 J0.642
G1 X36.072 Y17.33
G2 X36.077 Y17.752 I1.79 J0.192
G1 X36.095 Y17.896
G2 X36.167 Y18.215 I1.785 J-0.23
G1 X36.217 Y18.371
X36.254 Y18.477
X36.299 Y18.581
X36.378 Y18.752
X36.444 Y18.879
X36.551 Y19.068
X36.593 Y19.14
X36.725 Y19.349
X36.747 Y19.384
X36.9 Y19.615
X36.908 Y19.626
X37.077 Y19.878
X37.258 Y20.149
X37.446 Y20.438
X37.642 Y20.748
X37.845 Y21.081
X38.053 Y21.439
X38.266 Y21.822
X38.482 Y22.229
X38.7 Y22.66
X38.918 Y23.113
X39.135 Y23.587
X39.351 Y24.08
X39.562 Y24.59
X39.769 Y25.115
X39.971 Y25.653
X40.167 Y26.203
X40.356 Y26.761
X40.537 Y27.326
X40.707 Y27.889
X41.029 Y29.051
X41.172 Y29.619
X41.306 Y30.192
X41.43 Y30.764
X41.544 Y31.332
X41.63 Y31.802
G2 X41.816 Y31.996 I0.24 J-0.044
G3 X42. Y32.192 I-0.054 J0.235
G1 X42.036 Y32.409
X42.118 Y32.968
X42.19 Y33.522
X42.25 Y34.069
X42.3 Y34.61
X42.338 Y35.145
X42.366 Y35.672
X42.383 Y36.193
X42.39 Y36.707
X42.385 Y37.214
X42.37 Y37.713
X42.345 Y38.206
X42.324 Y38.484
Y38.485
X42.315 Y38.498
X42.309 Y38.506
X42.302 Y38.512
X42.292 Y38.52
X42.273 Y38.533
X42.241 Y38.55
X42.192 Y38.572
X42.123 Y38.597
X42.047 Y38.62
X41.784 Y38.68
X41.469 Y38.735
X41.121 Y38.791
X41.067 Y38.801
X40.734 Y38.868
X40.643 Y38.889
X40.49 Y38.93
X40.4 Y38.957
X40.258 Y39.005
X40.142 Y39.049
X40.013 Y39.104
X39.942 Y39.137
X39.873 Y39.173
X39.758 Y39.238
X39.677 Y39.286
X39.6 Y39.339
X39.5 Y39.413
X39.415 Y39.48
X39.336 Y39.553
X39.25 Y39.638
X39.169 Y39.724
X39.095 Y39.817
X39.026 Y39.912
X38.958 Y40.012
X38.899 Y40.117
X38.845 Y40.223
X38.796 Y40.329
X38.755 Y40.439
X38.717 Y40.555
X38.687 Y40.658
X38.665 Y40.762
X38.643 Y40.889
X38.629 Y40.984
X38.622 Y41.079
X38.615 Y41.216
X38.614 Y41.298
X38.617 Y41.379
X38.626 Y41.527
G2 X38.828 Y42.192 I1.497 J-0.093
G1 X39.084 Y42.629
X39.34 Y43.067
X39.401 Y43.171
X39.147 Y43.363
X39.125 Y43.38
X38.813 Y43.626
X38.8 Y43.637
X38.504 Y43.875
X38.487 Y43.889
X38.213 Y44.116
X38.157 Y44.165
X37.912 Y44.39
X37.82 Y44.482
X37.71 Y44.602
X37.622 Y44.707
X37.521 Y44.84
X37.474 Y44.905
X37.43 Y44.973
X37.338 Y45.125
X37.297 Y45.199
X37.259 Y45.275
X37.178 Y45.453
X37.147 Y45.524
X37.12 Y45.597
X37.049 Y45.807
X37.02 Y45.903
X36.989 Y46.022
X36.975 Y46.08
X36.946 Y46.209
X36.935 Y46.26
X36.909 Y46.4
X36.902 Y46.443
X36.878 Y46.594
X36.872 Y46.634
X36.851 Y46.796
X36.847 Y46.831
X36.828 Y47.005
X36.826 Y47.033
X36.809 Y47.218
X36.807 Y47.245
X36.793 Y47.442
X36.792 Y47.463
X36.78 Y47.671
X36.779 Y47.69
X36.77 Y47.908
X36.769 Y47.931
X36.756 Y48.396
Y48.421
X36.751 Y48.92
Y48.939
Y49.463
Y49.477
X36.757 Y50.02
X36.758 Y50.034
X36.781 Y51.134
Y51.145
X36.796 Y51.683
Y51.688
X36.812 Y52.207
Y52.211
X36.828 Y52.702
X36.829 Y52.705
X36.845 Y53.161
Y53.164
X36.853 Y53.377
X36.86 Y53.579
X36.861 Y53.582
X36.868 Y53.772
Y53.775
X36.876 Y53.953
Y53.958
X36.884 Y54.124
Y54.128
X36.891 Y54.282
Y54.29
X36.899 Y54.432
X36.9 Y54.442
X36.907 Y54.572
X36.908 Y54.583
X36.916 Y54.702
X36.917 Y54.721
X36.926 Y54.829
X36.929 Y54.865
X36.949 Y55.053
X36.958 Y55.125
X36.982 Y55.282
X37.002 Y55.387
X37.032 Y55.521
X37.067 Y55.647
X37.106 Y55.768
X37.151 Y55.891
X37.2 Y56.007
X37.246 Y56.107
X37.306 Y56.225
X37.346 Y56.299
X37.419 Y56.424
X37.452 Y56.477
X37.539 Y56.613
X37.567 Y56.656
X37.668 Y56.802
X37.696 Y56.842
X37.811 Y56.997
X37.841 Y57.037
X37.971 Y57.2
X38.005 Y57.242
X38.149 Y57.411
X38.188 Y57.455
X38.346 Y57.626
X38.39 Y57.672
X38.562 Y57.844
X38.612 Y57.891
X38.798 Y58.06
X38.851 Y58.106
X39.051 Y58.272
X39.106 Y58.316
X39.32 Y58.476
X39.378 Y58.518
X39.606 Y58.672
X39.664 Y58.71
X39.905 Y58.858
X39.964 Y58.892
X40.218 Y59.032
X40.277 Y59.063
X40.544 Y59.196
X40.601 Y59.222
X40.881 Y59.347
X40.936 Y59.37
X41.229 Y59.487
G2 X41.785 Y59.594 I0.556 J-1.393
G1 X60.229
G2 X60.785 Y59.487 I0. J-1.5
G1 X61.079 Y59.37
X61.133 Y59.347
X61.414 Y59.222
X61.471 Y59.196
X61.738 Y59.063
X61.796 Y59.032
X62.05 Y58.892
X62.11 Y58.858
X62.351 Y58.71
X62.409 Y58.672
X62.636 Y58.518
X62.695 Y58.476
X62.908 Y58.316
X62.964 Y58.272
X63.164 Y58.106
X63.217 Y58.06
X63.403 Y57.89
X63.452 Y57.844
X63.624 Y57.673
X63.668 Y57.626
X63.827 Y57.455
X63.866 Y57.411
X64.01 Y57.242
X64.044 Y57.2
X64.173 Y57.037
X64.203 Y56.997
X64.318 Y56.842
X64.347 Y56.802
X64.447 Y56.656
X64.476 Y56.613
X64.563 Y56.477
X64.595 Y56.424
X64.668 Y56.299
X64.708 Y56.225
X64.769 Y56.107
X64.815 Y56.007
X64.864 Y55.891
X64.91 Y55.767
X64.948 Y55.646
X64.982 Y55.521
X65.013 Y55.387
X65.032 Y55.283
X65.056 Y55.126
X65.066 Y55.052
X65.085 Y54.864
X65.089 Y54.829
X65.097 Y54.721
X65.098 Y54.704
X65.107 Y54.585
Y54.571
X65.115 Y54.441
X65.116 Y54.433
X65.123 Y54.291
X65.124 Y54.282
X65.131 Y54.128
Y54.123
X65.139 Y53.957
Y53.953
X65.146 Y53.775
Y53.773
X65.154 Y53.583
Y53.579
X65.162 Y53.378
Y53.376
X65.17 Y53.164
Y53.161
X65.186 Y52.705
Y52.702
X65.203 Y52.211
Y52.207
X65.219 Y51.688
Y51.683
X65.234 Y51.144
Y51.134
X65.257 Y50.034
Y50.02
X65.263 Y49.477
Y49.463
X65.264 Y48.939
Y48.92
X65.259 Y48.421
X65.258 Y48.397
X65.245 Y47.932
Y47.908
X65.235 Y47.69
X65.234 Y47.671
X65.223 Y47.463
X65.221 Y47.441
X65.207 Y47.244
X65.205 Y47.219
X65.189 Y47.034
X65.186 Y47.004
X65.168 Y46.83
X65.164 Y46.797
X65.143 Y46.635
X65.137 Y46.594
X65.113 Y46.443
X65.106 Y46.4
X65.079 Y46.26
X65.069 Y46.208
X65.04 Y46.079
X65.026 Y46.022
X64.994 Y45.903
X64.965 Y45.808
X64.894 Y45.598
X64.868 Y45.524
X64.837 Y45.453
X64.756 Y45.275
X64.718 Y45.199
X64.676 Y45.125
X64.585 Y44.973
X64.541 Y44.905
X64.493 Y44.839
X64.392 Y44.706
X64.305 Y44.603
X64.195 Y44.482
X64.103 Y44.39
X63.858 Y44.165
X63.802 Y44.116
X63.528 Y43.889
X63.511 Y43.875
X63.215 Y43.637
X63.202 Y43.627
X62.89 Y43.38
X62.867 Y43.363
X62.614 Y43.171
X62.674 Y43.067
X62.93 Y42.629
X63.186 Y42.192
G2 X63.389 Y41.527 I-1.294 J-0.758
G1 X63.398 Y41.379
X63.401 Y41.297
X63.399 Y41.215
X63.393 Y41.078
X63.385 Y40.984
X63.372 Y40.89
X63.35 Y40.763
X63.328 Y40.658
X63.298 Y40.555
X63.26 Y40.439
X63.219 Y40.328
X63.169 Y40.222
X63.115 Y40.116
X63.056 Y40.011
X62.989 Y39.912
X62.919 Y39.817
X62.846 Y39.725
X62.765 Y39.638
X62.68 Y39.554
X62.6 Y39.481
X62.515 Y39.413
X62.414 Y39.339
X62.337 Y39.286
X62.257 Y39.238
X62.142 Y39.173
X62.072 Y39.137
X62.001 Y39.104
X61.872 Y39.049
X61.757 Y39.005
X61.615 Y38.957
X61.525 Y38.93
X61.372 Y38.889
X61.28 Y38.868
X60.948 Y38.801
X60.894 Y38.791
X60.546 Y38.735
X60.231 Y38.68
X59.967 Y38.62
X59.891 Y38.597
X59.823 Y38.572
X59.773 Y38.55
X59.742 Y38.533
X59.723 Y38.52
X59.712 Y38.512
X59.706 Y38.506
X59.7 Y38.498
X59.691 Y38.485
X59.69 Y38.484
X59.67 Y38.206
X59.644 Y37.713
X59.629 Y37.213
X59.625 Y36.707
X59.631 Y36.193
X59.648 Y35.672
X59.676 Y35.145
X59.715 Y34.61
X59.764 Y34.069
X59.825 Y33.522
X59.896 Y32.968
X59.979 Y32.409
X60.072 Y31.845
X60.176 Y31.276
X60.291 Y30.703
X60.416 Y30.126
X60.552 Y29.548
X60.696 Y28.974
X61.019 Y27.806
X61.192 Y27.237
X61.374 Y26.667
X61.564 Y26.104
X61.761 Y25.55
X61.965 Y25.007
X62.174 Y24.477
X62.388 Y23.962
X62.605 Y23.464
X62.825 Y22.985
X63.046 Y22.527
X63.266 Y22.091
X63.485 Y21.679
X63.701 Y21.291
X63.912 Y20.928
X64.118 Y20.59
X64.316 Y20.276
X64.507 Y19.984
X64.688 Y19.711
X64.858 Y19.458
X64.864 Y19.45
X65.017 Y19.218
X65.036 Y19.189
X65.167 Y18.98
X65.203 Y18.92
X65.31 Y18.731
X65.364 Y18.625
X65.444 Y18.454
X65.481 Y18.368
X65.513 Y18.279
X65.563 Y18.122
G2 X65.622 Y17.858 I-1.429 J-0.457
G1 X65.64 Y17.715
G2 X65.644 Y17.362 I-1.488 J-0.193
G1 X65.63 Y17.229
G2 X65.54 Y16.854 I-1.491 J0.16
G1 X65.493 Y16.73
G2 X65.329 Y16.417 I-1.401 J0.535
G1 X65.249 Y16.301
G2 X65.067 Y16.083 I-1.237 J0.848
G1 X64.957 Y15.974
X64.877 Y15.901
X64.793 Y15.833
X64.654 Y15.731
X64.587 Y15.684
X64.518 Y15.642
X64.354 Y15.546
X64.242 Y15.487
X64.056 Y15.398
X63.962 Y15.357
X63.757 Y15.276
X63.675 Y15.247
X63.454 Y15.174
X63.381 Y15.152
X63.148 Y15.089
X63.079 Y15.071
X62.834 Y15.017
X62.77 Y15.004
X62.518 Y14.959
X62.456 Y14.95
X62.25 Y14.922
X62.271 Y14.888
X62.459 Y14.631
X62.697 Y14.323
X62.705 Y14.313
X62.971 Y13.963
X62.988 Y13.94
X63.125 Y13.751
X63.14 Y13.731
X63.279 Y13.532
X63.3 Y13.502
X63.585 Y13.076
X63.608 Y13.04
X63.896 Y12.581
X63.918 Y12.545
X64.491 Y11.573
X64.501 Y11.556
X64.777 Y11.072
X64.778 Y11.07
X65.043 Y10.604
X65.044 Y10.602
X65.293 Y10.164
X65.299 Y10.153
X65.526 Y9.744
X65.543 Y9.713
X65.745 Y9.33
X65.775 Y9.269
X65.945 Y8.905
X65.987 Y8.808
X66.123 Y8.456
X66.167 Y8.325
X66.266 Y7.975
X66.285 Y7.9
X66.301 Y7.824
X66.362 Y7.472
X66.381 Y7.321
X66.407 Y6.963
X66.41 Y6.826
X66.403 Y6.463
X66.396 Y6.345
X66.36 Y5.979
X66.347 Y5.879
X66.285 Y5.513
X66.268 Y5.428
X66.23 Y5.26
G2 X66.475 Y5.062 I-0.816 J-1.259
G1 X67.075 Y4.462
G2 X67.515 Y3.401 I-1.061 J-1.061
G1 Y1.6
G2 X67.075 Y0.54 I-1.5 J0.
G1 X66.475 Y-0.061
G2 X65.414 Y-0.5 I-1.061 J1.061
G1 X36.6
G2 X35.54 Y-0.061 I0. J1.5
G1 X34.939 Y0.54
G2 X34.5 Y1.6 I1.061 J1.061
G1 Y3.401
G2 X34.939 Y4.462 I1.5 J0.
G1 X35.54 Y5.062
G2 X35.784 Y5.26 I1.061 J-1.061
G1 X35.746 Y5.427
X35.729 Y5.513
X35.668 Y5.879
X35.655 Y5.979
X35.619 Y6.345
X35.612 Y6.463
X35.604 Y6.826
X35.608 Y6.963
X35.634 Y7.321
X35.652 Y7.472
X35.714 Y7.825
X35.749 Y7.975
X35.848 Y8.325
X35.892 Y8.456
X36.028 Y8.808
X36.069 Y8.905
X36.24 Y9.269
X36.27 Y9.33
X36.472 Y9.713
X36.488 Y9.743
X36.716 Y10.153
X36.722 Y10.164
X36.97 Y10.602
X36.972 Y10.604
X37.236 Y11.07
X37.238 Y11.072
X37.514 Y11.556
X37.524 Y11.573
X38.096 Y12.545
X38.118 Y12.581
X38.407 Y13.04
X38.43 Y13.076
X38.715 Y13.502
X38.735 Y13.532
X38.875 Y13.731
X38.889 Y13.751
X39.027 Y13.94
X39.044 Y13.963
X39.31 Y14.313
X39.318 Y14.323
X39.556 Y14.631
X39.744 Y14.888
X39.765 Y14.922
X39.559 Y14.95
X39.497 Y14.959
X39.244 Y15.004
X39.18 Y15.017
X38.936 Y15.071
X38.867 Y15.088
X38.634 Y15.152
X38.561 Y15.174
X38.34 Y15.247
X38.258 Y15.276
X38.053 Y15.357
X37.959 Y15.398
X37.772 Y15.487
X37.66 Y15.546
X37.496 Y15.642
X37.428 Y15.684
X37.361 Y15.731
X37.222 Y15.833
X37.137 Y15.901
X37.058 Y15.974
X36.947 Y16.084
G2 X36.766 Y16.301 I1.056 J1.065
G1 X36.686 Y16.417
G2 X36.522 Y16.73 I1.237 J0.848
G1 X36.475 Y16.854
G2 X36.385 Y17.229 I1.401 J0.535
G1 X36.371 Y17.362
G2 X36.374 Y17.714 I1.491 J0.16
G1 X36.393 Y17.857
G2 X36.452 Y18.123 I1.488 J-0.192
G1 X36.502 Y18.28
X36.534 Y18.368
X36.571 Y18.454
X36.65 Y18.625
X36.705 Y18.731
X36.812 Y18.92
X36.847 Y18.98
X36.979 Y19.189
X36.997 Y19.218
X37.15 Y19.449
X37.157 Y19.459
X37.327 Y19.711
X37.508 Y19.984
X37.698 Y20.276
X37.897 Y20.59
X38.102 Y20.928
X38.314 Y21.291
X38.53 Y21.679
X38.748 Y22.091
X38.969 Y22.527
X39.19 Y22.985
X39.409 Y23.464
X39.627 Y23.962
X39.84 Y24.477
X40.049 Y25.007
X40.253 Y25.55
X40.45 Y26.105
X40.641 Y26.667
X40.823 Y27.237
X40.995 Y27.806
X41.319 Y28.974
X41.463 Y29.548
X41.599 Y30.126
X41.724 Y30.702
X41.839 Y31.275
X41.943 Y31.845
X42. Y32.192
G3 X41.753 Y32.537 I-0.296 J0.049
G1 X41.457 Y32.586
X41.391 Y32.597 Z0.258
X41.329 Y32.607 Z0.28
X41.273 Y32.616 Z0.315
X41.226 Y32.624 Z0.363
X41.19 Y32.63 Z0.42
X41.169 Y32.634 Z0.483
X41.161 Y32.635 Z0.55
G0 Z21.007
X28.692 Y38.857
G1 Z17.007 F133.3
Z0.55
X28.686 Y38.863 Z0.483 F400
X28.671 Y38.879 Z0.42
X28.647 Y38.905 Z0.363
X28.614 Y38.94 Z0.315
X28.575 Y38.981 Z0.28
X28.532 Y39.027 Z0.258
X28.486 Y39.076 Z0.25
X28.281 Y39.295
G3 X27.857 Y39.308 I-0.219 J-0.205
G1 X27.777 Y39.238
X27.693 Y39.172
X27.592 Y39.098
X27.5 Y39.034
X27.403 Y38.976
X27.288 Y38.911
X27.205 Y38.868
X27.12 Y38.829
X26.991 Y38.773
X26.852 Y38.72
X26.71 Y38.673
X26.602 Y38.64
X26.449 Y38.599
X26.339 Y38.574
X26.007 Y38.507
X25.942 Y38.495
X25.595 Y38.439
X25.29 Y38.386
X25.044 Y38.33
X24.986 Y38.312
X24.978 Y38.31
X24.969 Y38.187
X24.944 Y37.701
X24.929 Y37.208
X24.925 Y36.707
X24.931 Y36.2
X24.948 Y35.685
X24.976 Y35.163
X25.014 Y34.635
X25.063 Y34.099
X25.123 Y33.558
X25.193 Y33.009
X25.275 Y32.455
X25.367 Y31.896
X25.47 Y31.332
X25.584 Y30.764
X25.708 Y30.192
X25.843 Y29.619
X25.986 Y29.051
X26.308 Y27.889
X26.478 Y27.326
X26.659 Y26.761
X26.848 Y26.203
X27.043 Y25.653
X27.245 Y25.115
X27.453 Y24.59
X27.664 Y24.08
X27.879 Y23.587
X28.097 Y23.113
X28.315 Y22.66
X28.533 Y22.229
X28.749 Y21.822
X28.962 Y21.439
X29.17 Y21.081
X29.373 Y20.748
X29.569 Y20.438
X29.757 Y20.149
X29.938 Y19.878
X30.107 Y19.626
X30.114 Y19.615
X30.267 Y19.384
X30.29 Y19.349
X30.421 Y19.14
X30.464 Y19.068
X30.571 Y18.879
X30.636 Y18.752
X30.716 Y18.581
X30.761 Y18.477
X30.798 Y18.37
X30.848 Y18.214
G2 X30.919 Y17.897 I-1.714 J-0.549
G1 X30.938 Y17.753
G2 X30.942 Y17.33 I-1.785 J-0.232
G1 X30.928 Y17.198
G2 X30.82 Y16.747 I-1.79 J0.192
G1 X30.773 Y16.623
G2 X30.576 Y16.248 I-1.682 J0.642
G1 X30.497 Y16.132
G2 X30.278 Y15.87 I-1.485 J1.017
G1 X30.168 Y15.761
G2 X29.971 Y15.592 I-1.266 J1.279
G1 X29.832 Y15.49
X29.752 Y15.434
X29.67 Y15.382
X29.505 Y15.287
X29.371 Y15.216
X29.185 Y15.127
X29.072 Y15.078
X28.867 Y14.997
X28.768 Y14.962
X28.547 Y14.889
X28.46 Y14.863
X28.227 Y14.799
X28.144 Y14.779
X27.9 Y14.724
X27.823 Y14.709
X27.784 Y14.702
X27.934 Y14.507
X27.944 Y14.494
X28.21 Y14.144
X28.23 Y14.116
X28.368 Y13.928
X28.385 Y13.904
X28.525 Y13.705
X28.549 Y13.669
X28.834 Y13.243
X28.862 Y13.2
X29.151 Y12.74
X29.177 Y12.697
X29.749 Y11.725
X29.761 Y11.705
X30.038 Y11.221
X30.039 Y11.218
X30.304 Y10.753
X30.305 Y10.75
X30.554 Y10.312
X30.561 Y10.299
X30.789 Y9.889
X30.809 Y9.852
X31.01 Y9.469
X31.046 Y9.396
X31.217 Y9.033
X31.267 Y8.916
X31.403 Y8.564
X31.455 Y8.407
X31.555 Y8.057
X31.578 Y7.967
X31.596 Y7.876
X31.658 Y7.523
X31.671 Y7.433
X31.68 Y7.343
X31.706 Y6.985
X31.71 Y6.82
X31.703 Y6.457
X31.695 Y6.315
X31.658 Y5.949
X31.642 Y5.829
X31.581 Y5.463
X31.566 Y5.385
X31.687 Y5.274
X32.287 Y4.674
G2 X32.815 Y3.401 I-1.273 J-1.273
G1 Y1.6
G2 X32.287 Y0.328 I-1.8 J0.
G1 X31.687 Y-0.273
G2 X30.414 Y-0.8 I-1.273 J1.273
G1 X1.6
G2 X0.328 Y-0.273 I0. J1.8
G1 X-0.273 Y0.328
G2 X-0.8 Y1.6 I1.273 J1.273
G1 Y3.401
G2 X-0.273 Y4.674 I1.8 J0.
G1 X0.327 Y5.274
X0.448 Y5.385
X0.433 Y5.464
X0.372 Y5.83
X0.356 Y5.949
X0.32 Y6.315
X0.312 Y6.457
X0.304 Y6.82
X0.309 Y6.985
X0.335 Y7.343
X0.343 Y7.434
X0.357 Y7.524
X0.419 Y7.876
X0.437 Y7.967
X0.46 Y8.057
X0.559 Y8.407
X0.612 Y8.564
X0.748 Y8.916
X0.798 Y9.033
X0.968 Y9.396
X1.005 Y9.469
X1.206 Y9.852
X1.226 Y9.889
X1.453 Y10.299
X1.461 Y10.312
X1.709 Y10.75
X1.711 Y10.753
X1.976 Y11.218
X1.977 Y11.221
X2.254 Y11.705
X2.266 Y11.725
X2.838 Y12.697
X2.864 Y12.74
X3.152 Y13.2
X3.18 Y13.243
X3.465 Y13.669
X3.49 Y13.705
X3.63 Y13.904
X3.647 Y13.927
X3.784 Y14.116
X3.805 Y14.144
X4.071 Y14.494
X4.08 Y14.507
X4.231 Y14.702
X4.192 Y14.709
X4.115 Y14.724
X3.871 Y14.779
X3.788 Y14.799
X3.554 Y14.863
X3.467 Y14.889
X3.246 Y14.962
X3.148 Y14.997
X2.943 Y15.078
X2.83 Y15.127
X2.644 Y15.216
X2.509 Y15.287
X2.345 Y15.382
X2.262 Y15.434
X2.183 Y15.489
X2.044 Y15.592
G2 X1.847 Y15.761 I1.07 J1.448
G1 X1.736 Y15.87
G2 X1.518 Y16.132 I1.267 J1.279
G1 X1.439 Y16.248
G2 X1.242 Y16.624 I1.485 J1.017
G1 X1.194 Y16.748
G2 X1.086 Y17.198 I1.682 J0.641
G1 X1.072 Y17.33
G2 X1.077 Y17.752 I1.79 J0.191
G1 X1.095 Y17.896
G2 X1.166 Y18.214 I1.785 J-0.231
G1 X1.216 Y18.371
X1.254 Y18.477
X1.299 Y18.581
X1.378 Y18.752
X1.444 Y18.879
X1.551 Y19.068
X1.593 Y19.14
X1.725 Y19.349
X1.747 Y19.384
X1.9 Y19.615
X1.908 Y19.626
X2.077 Y19.878
X2.258 Y20.149
X2.446 Y20.438
X2.642 Y20.748
X2.844 Y21.081
X3.053 Y21.439
X3.266 Y21.822
X3.482 Y22.229
X3.7 Y22.66
X3.918 Y23.113
X4.135 Y23.587
X4.35 Y24.08
X4.562 Y24.59
X4.769 Y25.115
X4.971 Y25.653
X5.167 Y26.203
X5.356 Y26.761
X5.537 Y27.326
X5.707 Y27.889
X6.029 Y29.051
X6.172 Y29.619
X6.306 Y30.192
X6.43 Y30.764
X6.544 Y31.332
X6.647 Y31.896
X6.74 Y32.455
X6.821 Y33.009
X6.892 Y33.558
X6.952 Y34.099
X7.001 Y34.635
X7.039 Y35.164
X7.067 Y35.685
X7.083 Y36.2
X7.09 Y36.707
X7.085 Y37.208
X7.071 Y37.701
X7.046 Y38.187
X7.037 Y38.31
X7.028 Y38.312
X6.971 Y38.33
X6.725 Y38.386
X6.419 Y38.439
X6.072 Y38.495
X6.008 Y38.507
X5.675 Y38.574
X5.566 Y38.599
X5.413 Y38.64
X5.305 Y38.673
X5.163 Y38.72
X5.024 Y38.773
X4.895 Y38.829
X4.81 Y38.868
X4.727 Y38.911
X4.611 Y38.976
X4.515 Y39.034
X4.423 Y39.098
X4.322 Y39.172
G2 X4.124 Y39.34 I1.067 J1.449
G1 X4.039 Y39.425
G2 X3.854 Y39.639 I1.265 J1.281
G1 X3.784 Y39.734
G2 X3.632 Y39.98 I1.45 J1.066
G1 X3.578 Y40.086
G2 X3.47 Y40.345 I1.602 J0.82
G1 X3.432 Y40.461
G2 X3.369 Y40.711 I1.71 J0.561
G1 X3.347 Y40.838
X3.331 Y40.951
X3.322 Y41.064
X3.316 Y41.202
X3.314 Y41.3
X3.317 Y41.398
X3.326 Y41.546
G2 X3.569 Y42.344 I1.797 J-0.112
G1 X3.825 Y42.781
X4.008 Y43.092
X3.966 Y43.124
X3.94 Y43.145
X3.627 Y43.391
X3.611 Y43.403
X3.315 Y43.642
X3.295 Y43.658
X3.021 Y43.885
X2.954 Y43.944
X2.709 Y44.169
X2.599 Y44.279
X2.489 Y44.4
X2.384 Y44.525
X2.283 Y44.657
X2.226 Y44.736
X2.173 Y44.818
X2.082 Y44.97
X2.031 Y45.059
X1.986 Y45.15
X1.905 Y45.328
X1.868 Y45.414
X1.836 Y45.501
X1.765 Y45.711
X1.73 Y45.827
X1.699 Y45.946
X1.682 Y46.014
X1.653 Y46.143
X1.641 Y46.204
X1.614 Y46.344
X1.605 Y46.397
X1.581 Y46.549
X1.575 Y46.595
X1.554 Y46.758
X1.549 Y46.798
X1.53 Y46.972
X1.527 Y47.007
X1.51 Y47.193
X1.508 Y47.223
X1.494 Y47.42
X1.492 Y47.446
X1.481 Y47.654
X1.48 Y47.677
X1.47 Y47.895
X1.469 Y47.923
X1.457 Y48.388
X1.456 Y48.418
X1.451 Y48.917
Y48.939
Y49.464
Y49.481
X1.457 Y50.023
X1.458 Y50.04
X1.481 Y51.14
Y51.153
X1.496 Y51.692
Y51.697
X1.512 Y52.217
Y52.221
X1.529 Y52.712
Y52.716
X1.545 Y53.172
Y53.175
X1.553 Y53.387
Y53.39
X1.561 Y53.591
Y53.594
X1.568 Y53.784
X1.569 Y53.788
X1.576 Y53.966
Y53.971
X1.584 Y54.137
Y54.143
X1.592 Y54.297
Y54.306
X1.599 Y54.448
X1.6 Y54.459
X1.608 Y54.589
X1.609 Y54.604
X1.617 Y54.724
X1.618 Y54.744
X1.627 Y54.852
X1.631 Y54.896
X1.65 Y55.084
X1.662 Y55.171
X1.686 Y55.328
X1.709 Y55.453
X1.74 Y55.587
X1.781 Y55.738
X1.819 Y55.859
X1.874 Y56.008
X1.923 Y56.123
X1.979 Y56.243
X2.039 Y56.361
X2.087 Y56.45
X2.16 Y56.575
X2.199 Y56.639
X2.286 Y56.774
X2.321 Y56.827
X2.421 Y56.972
X2.455 Y57.02
X2.57 Y57.175
X2.606 Y57.223
X2.736 Y57.387
X2.776 Y57.436
X2.92 Y57.605
X2.968 Y57.658
X3.126 Y57.83
X3.179 Y57.885
X3.351 Y58.056
X3.41 Y58.112
X3.596 Y58.282
X3.659 Y58.337
X3.859 Y58.503
X3.926 Y58.556
X4.14 Y58.716
X4.21 Y58.766
X4.437 Y58.92
X4.507 Y58.966
X4.748 Y59.113
X4.819 Y59.155
X5.073 Y59.295
X5.143 Y59.332
X5.411 Y59.464
X5.479 Y59.496
X5.759 Y59.621
X5.825 Y59.649
X6.119 Y59.766
G2 X6.785 Y59.894 I0.667 J-1.672
G1 X25.229
G2 X25.896 Y59.766 I0. J-1.8
G1 X26.19 Y59.649
X26.255 Y59.621
X26.536 Y59.496
X26.604 Y59.464
X26.871 Y59.332
X26.941 Y59.295
X27.195 Y59.155
X27.267 Y59.113
X27.507 Y58.966
X27.578 Y58.92
X27.805 Y58.766
X27.875 Y58.716
X28.088 Y58.556
X28.156 Y58.503
X28.356 Y58.337
X28.419 Y58.282
X28.605 Y58.112
X28.663 Y58.057
X28.836 Y57.885
X28.889 Y57.83
X29.047 Y57.658
X29.094 Y57.605
X29.238 Y57.436
X29.279 Y57.386
X29.408 Y57.223
X29.445 Y57.176
X29.56 Y57.02
X29.594 Y56.972
X29.694 Y56.827
X29.729 Y56.774
X29.815 Y56.639
X29.855 Y56.575
X29.928 Y56.45
X29.976 Y56.361
X30.036 Y56.243
X30.092 Y56.123
X30.14 Y56.007
X30.195 Y55.858
X30.234 Y55.738
X30.275 Y55.587
X30.305 Y55.453
X30.329 Y55.329
X30.353 Y55.172
X30.364 Y55.083
X30.384 Y54.895
X30.388 Y54.853
X30.396 Y54.744
X30.398 Y54.724
X30.406 Y54.605
X30.407 Y54.589
X30.415 Y54.459
Y54.449
X30.423 Y54.307
Y54.297
X30.431 Y54.143
Y54.137
X30.438 Y53.97
X30.439 Y53.966
X30.446 Y53.788
Y53.785
X30.454 Y53.595
Y53.591
X30.462 Y53.389
Y53.387
X30.47 Y53.175
Y53.172
X30.486 Y52.716
Y52.712
X30.502 Y52.221
X30.503 Y52.216
X30.519 Y51.697
Y51.691
X30.534 Y51.153
Y51.14
X30.557 Y50.041
Y50.023
X30.563 Y49.481
Y49.464
X30.564 Y48.939
Y48.916
X30.559 Y48.418
X30.558 Y48.389
X30.545 Y47.923
X30.544 Y47.895
X30.535 Y47.677
X30.534 Y47.654
X30.522 Y47.446
X30.521 Y47.42
X30.507 Y47.223
X30.504 Y47.193
X30.488 Y47.008
X30.485 Y46.972
X30.466 Y46.798
X30.461 Y46.759
X30.44 Y46.596
X30.433 Y46.548
X30.409 Y46.397
X30.4 Y46.344
X30.374 Y46.204
X30.361 Y46.142
X30.332 Y46.013
X30.316 Y45.945
X30.284 Y45.826
X30.25 Y45.712
X30.179 Y45.502
X30.146 Y45.414
X30.11 Y45.328
X30.028 Y45.15
X29.983 Y45.059
X29.933 Y44.97
X29.842 Y44.818
X29.789 Y44.736
X29.732 Y44.657
X29.631 Y44.524
X29.527 Y44.4
X29.416 Y44.28
X29.306 Y44.169
X29.06 Y43.944
X28.993 Y43.885
X28.719 Y43.658
X28.699 Y43.642
X28.403 Y43.403
X28.388 Y43.391
X28.075 Y43.145
X28.049 Y43.124
X28.007 Y43.092
X28.189 Y42.781
X28.445 Y42.344
G2 X28.688 Y41.546 I-1.553 J-0.909
G1 X28.698 Y41.398
X28.701 Y41.299
X28.699 Y41.201
X28.692 Y41.064
X28.684 Y40.951
X28.668 Y40.838
X28.645 Y40.711
G2 X28.583 Y40.462 I-1.773 J0.31
G1 X28.545 Y40.346
G2 X28.436 Y40.085 I-1.711 J0.56
G1 X28.382 Y39.979
G2 X28.231 Y39.734 I-1.602 J0.821
G1 X28.161 Y39.639
G2 X27.976 Y39.425 I-1.45 J1.066
G1 X27.891 Y39.341
X27.857 Y39.308
G2 X27.576 Y39.268 I-0.17 J0.181
G3 X27.292 Y39.258 I-0.133 J-0.264
G1 X27.257 Y39.238
X27.142 Y39.173
X27.072 Y39.137
X27.001 Y39.104
X26.872 Y39.049
X26.757 Y39.005
X26.615 Y38.957
X26.525 Y38.93
X26.372 Y38.889
X26.28 Y38.868
X25.948 Y38.801
X25.894 Y38.791
X25.546 Y38.735
X25.231 Y38.68
X24.967 Y38.62
X24.891 Y38.597
X24.823 Y38.572
X24.773 Y38.55
X24.742 Y38.533
X24.723 Y38.52
X24.712 Y38.512
X24.706 Y38.506
X24.7 Y38.498
X24.691 Y38.485
X24.69 Y38.484
X24.67 Y38.206
X24.644 Y37.713
X24.629 Y37.213
X24.625 Y36.707
X24.631 Y36.193
X24.648 Y35.672
X24.676 Y35.145
X24.715 Y34.61
X24.764 Y34.069
X24.825 Y33.522
X24.896 Y32.968
X24.979 Y32.409
X25.072 Y31.845
X25.176 Y31.276
X25.291 Y30.703
X25.416 Y30.126
X25.552 Y29.548
X25.696 Y28.974
X26.019 Y27.806
X26.192 Y27.237
X26.374 Y26.667
X26.564 Y26.104
X26.761 Y25.55
X26.965 Y25.007
X27.174 Y24.477
X27.388 Y23.962
X27.605 Y23.464
X27.825 Y22.985
X28.046 Y22.527
X28.266 Y22.091
X28.485 Y21.679
X28.701 Y21.291
X28.912 Y20.928
X29.118 Y20.59
X29.316 Y20.276
X29.507 Y19.984
X29.688 Y19.711
X29.858 Y19.458
X29.864 Y19.45
X30.017 Y19.218
X30.036 Y19.189
X30.167 Y18.98
X30.203 Y18.92
X30.31 Y18.731
X30.364 Y18.625
X30.444 Y18.454
X30.481 Y18.368
X30.513 Y18.279
X30.563 Y18.122
G2 X30.622 Y17.858 I-1.429 J-0.457
G1 X30.64 Y17.715
G2 X30.644 Y17.362 I-1.488 J-0.193
G1 X30.63 Y17.229
G2 X30.54 Y16.854 I-1.491 J0.16
G1 X30.493 Y16.73
G2 X30.329 Y16.417 I-1.401 J0.535
G1 X30.249 Y16.301
G2 X30.067 Y16.083 I-1.237 J0.848
G1 X29.957 Y15.974
X29.877 Y15.901
X29.793 Y15.833
X29.654 Y15.731
X29.587 Y15.684
X29.518 Y15.642
X29.354 Y15.546
X29.242 Y15.487
X29.056 Y15.398
X28.962 Y15.357
X28.757 Y15.276
X28.675 Y15.247
X28.454 Y15.174
X28.381 Y15.152
X28.148 Y15.089
X28.079 Y15.071
X27.834 Y15.017
X27.77 Y15.004
X27.518 Y14.959
X27.456 Y14.95
X27.25 Y14.922
X27.271 Y14.888
X27.459 Y14.631
X27.697 Y14.323
X27.705 Y14.313
X27.971 Y13.963
X27.988 Y13.94
X28.125 Y13.751
X28.14 Y13.731
X28.279 Y13.532
X28.3 Y13.502
X28.585 Y13.076
X28.608 Y13.04
X28.896 Y12.581
X28.918 Y12.545
X29.491 Y11.573
X29.501 Y11.556
X29.777 Y11.072
X29.778 Y11.07
X30.043 Y10.604
X30.044 Y10.602
X30.293 Y10.164
X30.299 Y10.153
X30.526 Y9.744
X30.543 Y9.713
X30.745 Y9.33
X30.775 Y9.269
X30.945 Y8.905
X30.987 Y8.808
X31.123 Y8.456
X31.167 Y8.325
X31.266 Y7.975
X31.285 Y7.9
X31.301 Y7.824
X31.362 Y7.472
X31.381 Y7.321
X31.407 Y6.963
X31.41 Y6.826
X31.403 Y6.463
X31.396 Y6.345
X31.36 Y5.979
X31.347 Y5.879
X31.285 Y5.513
X31.268 Y5.428
X31.23 Y5.26
G2 X31.475 Y5.062 I-0.816 J-1.259
G1 X32.075 Y4.462
G2 X32.515 Y3.401 I-1.061 J-1.061
G1 Y1.6
G2 X32.075 Y0.54 I-1.5 J0.
G1 X31.475 Y-0.061
G2 X30.414 Y-0.5 I-1.061 J1.061
G1 X1.6
G2 X0.54 Y-0.061 I0. J1.5
G1 X-0.061 Y0.54
G2 X-0.5 Y1.6 I1.061 J1.061
G1 Y3.401
G2 X-0.061 Y4.462 I1.5 J0.
G1 X0.54 Y5.062
G2 X0.784 Y5.26 I1.061 J-1.061
G1 X0.746 Y5.427
X0.729 Y5.513
X0.668 Y5.879
X0.655 Y5.979
X0.619 Y6.345
X0.612 Y6.463
X0.604 Y6.826
X0.608 Y6.963
X0.634 Y7.321
X0.652 Y7.472
X0.714 Y7.825
X0.749 Y7.975
X0.848 Y8.325
X0.892 Y8.456
X1.028 Y8.808
X1.069 Y8.905
X1.24 Y9.269
X1.27 Y9.33
X1.472 Y9.713
X1.488 Y9.744
X1.716 Y10.153
X1.722 Y10.164
X1.97 Y10.602
X1.972 Y10.604
X2.236 Y11.07
X2.238 Y11.072
X2.514 Y11.556
X2.524 Y11.573
X3.096 Y12.545
X3.118 Y12.581
X3.407 Y13.04
X3.43 Y13.076
X3.715 Y13.502
X3.735 Y13.532
X3.875 Y13.731
X3.889 Y13.751
X4.027 Y13.939
X4.044 Y13.963
X4.31 Y14.313
X4.318 Y14.323
X4.555 Y14.631
X4.744 Y14.888
X4.765 Y14.922
X4.559 Y14.95
X4.497 Y14.959
X4.244 Y15.004
X4.18 Y15.017
X3.936 Y15.071
X3.867 Y15.088
X3.633 Y15.152
X3.561 Y15.174
X3.34 Y15.247
X3.258 Y15.276
X3.053 Y15.357
X2.959 Y15.398
X2.772 Y15.487
X2.66 Y15.546
X2.496 Y15.642
X2.427 Y15.684
X2.361 Y15.731
X2.222 Y15.833
X2.137 Y15.901
X2.058 Y15.974
X1.947 Y16.083
G2 X1.766 Y16.301 I1.056 J1.066
G1 X1.686 Y16.417
G2 X1.522 Y16.731 I1.237 J0.848
G1 X1.475 Y16.855
G2 X1.385 Y17.23 I1.402 J0.534
G1 X1.371 Y17.362
G2 X1.374 Y17.714 I1.491 J0.159
G1 X1.393 Y17.857
G2 X1.452 Y18.123 I1.488 J-0.192
G1 X1.502 Y18.279
X1.534 Y18.368
X1.571 Y18.454
X1.65 Y18.625
X1.705 Y18.732
X1.812 Y18.92
X1.847 Y18.98
X1.979 Y19.189
X1.998 Y19.218
X2.151 Y19.449
X2.157 Y19.458
X2.327 Y19.711
X2.508 Y19.984
X2.698 Y20.276
X2.897 Y20.59
X3.102 Y20.928
X3.314 Y21.291
X3.53 Y21.679
X3.748 Y22.091
X3.969 Y22.527
X4.19 Y22.985
X4.409 Y23.464
X4.627 Y23.962
X4.84 Y24.477
X5.049 Y25.007
X5.253 Y25.55
X5.451 Y26.104
X5.641 Y26.667
X5.823 Y27.237
X5.995 Y27.806
X6.319 Y28.974
X6.463 Y29.548
X6.599 Y30.126
X6.724 Y30.703
X6.839 Y31.276
X6.943 Y31.845
X7.036 Y32.409
X7.118 Y32.968
X7.19 Y33.522
X7.25 Y34.069
X7.3 Y34.61
X7.338 Y35.145
X7.366 Y35.672
X7.383 Y36.193
X7.39 Y36.707
X7.385 Y37.213
X7.37 Y37.713
X7.345 Y38.206
X7.324 Y38.484
Y38.485
X7.315 Y38.498
X7.309 Y38.506
X7.302 Y38.512
X7.292 Y38.52
X7.273 Y38.533
X7.241 Y38.55
X7.192 Y38.572
X7.123 Y38.597
X7.047 Y38.62
X6.784 Y38.68
X6.469 Y38.735
X6.121 Y38.791
X6.067 Y38.801
X5.734 Y38.868
X5.643 Y38.889
X5.49 Y38.93
X5.4 Y38.957
X5.258 Y39.005
X5.142 Y39.049
X5.013 Y39.104
X4.942 Y39.137
X4.873 Y39.173
X4.758 Y39.238
X4.678 Y39.286
X4.6 Y39.339
X4.5 Y39.413
X4.415 Y39.481
X4.335 Y39.554
X4.25 Y39.638
X4.169 Y39.724
X4.096 Y39.817
X4.026 Y39.911
X3.958 Y40.012
X3.899 Y40.117
X3.845 Y40.222
X3.796 Y40.329
X3.755 Y40.438
X3.717 Y40.554
X3.687 Y40.658
X3.665 Y40.763
X3.643 Y40.89
X3.629 Y40.984
X3.622 Y41.078
X3.615 Y41.216
X3.614 Y41.298
X3.617 Y41.379
X3.626 Y41.528
G2 X3.828 Y42.192 I1.497 J-0.093
G1 X4.084 Y42.629
X4.34 Y43.067
X4.401 Y43.171
X4.147 Y43.363
X4.125 Y43.38
X3.813 Y43.626
X3.8 Y43.637
X3.504 Y43.875
X3.487 Y43.889
X3.213 Y44.116
X3.157 Y44.165
X2.912 Y44.39
X2.82 Y44.482
X2.71 Y44.602
X2.622 Y44.707
X2.521 Y44.839
X2.474 Y44.905
X2.43 Y44.973
X2.338 Y45.125
X2.297 Y45.199
X2.259 Y45.275
X2.178 Y45.453
X2.147 Y45.524
X2.12 Y45.597
X2.049 Y45.807
X2.02 Y45.903
X1.989 Y46.023
X1.975 Y46.079
X1.946 Y46.209
X1.936 Y46.259
X1.909 Y46.399
X1.901 Y46.444
X1.878 Y46.595
X1.872 Y46.634
X1.851 Y46.796
X1.847 Y46.83
X1.828 Y47.004
X1.825 Y47.034
X1.809 Y47.219
X1.807 Y47.244
X1.793 Y47.441
X1.792 Y47.463
X1.78 Y47.671
X1.779 Y47.69
X1.77 Y47.908
X1.769 Y47.931
X1.757 Y48.397
X1.756 Y48.421
X1.751 Y48.92
Y48.939
Y49.463
Y49.477
X1.757 Y50.019
X1.758 Y50.034
X1.781 Y51.134
Y51.144
X1.796 Y51.683
Y51.688
X1.812 Y52.207
Y52.211
X1.828 Y52.702
X1.829 Y52.705
X1.845 Y53.161
Y53.164
X1.853 Y53.376
Y53.378
X1.861 Y53.58
Y53.582
X1.868 Y53.772
Y53.775
X1.876 Y53.953
Y53.957
X1.883 Y54.124
X1.884 Y54.129
X1.891 Y54.283
X1.892 Y54.29
X1.899 Y54.432
X1.9 Y54.441
X1.907 Y54.572
X1.908 Y54.584
X1.916 Y54.703
X1.917 Y54.72
X1.926 Y54.829
X1.929 Y54.865
X1.949 Y55.053
X1.958 Y55.126
X1.982 Y55.282
X2.002 Y55.387
X2.032 Y55.521
X2.067 Y55.647
X2.105 Y55.767
X2.151 Y55.891
X2.2 Y56.007
X2.246 Y56.107
X2.306 Y56.225
X2.346 Y56.299
X2.419 Y56.424
X2.452 Y56.477
X2.539 Y56.613
X2.567 Y56.656
X2.668 Y56.802
X2.696 Y56.842
X2.811 Y56.997
X2.842 Y57.037
X2.971 Y57.2
X3.005 Y57.242
X3.149 Y57.411
X3.188 Y57.455
X3.346 Y57.626
X3.39 Y57.672
X3.563 Y57.844
X3.611 Y57.89
X3.798 Y58.06
X3.85 Y58.106
X4.05 Y58.272
X4.106 Y58.316
X4.32 Y58.476
X4.378 Y58.518
X4.606 Y58.672
X4.664 Y58.71
X4.905 Y58.858
X4.964 Y58.892
X5.218 Y59.032
X5.277 Y59.063
X5.544 Y59.196
X5.601 Y59.222
X5.881 Y59.347
X5.936 Y59.37
X6.23 Y59.487
G2 X6.785 Y59.594 I0.555 J-1.393
G1 X25.229
G2 X25.785 Y59.487 I0. J-1.5
G1 X26.079 Y59.37
X26.133 Y59.347
X26.414 Y59.222
X26.471 Y59.196
X26.738 Y59.063
X26.796 Y59.032
X27.05 Y58.892
X27.11 Y58.858
X27.351 Y58.71
X27.409 Y58.672
X27.636 Y58.518
X27.695 Y58.476
X27.908 Y58.316
X27.964 Y58.272
X28.164 Y58.106
X28.217 Y58.06
X28.403 Y57.89
X28.452 Y57.844
X28.624 Y57.673
X28.668 Y57.626
X28.827 Y57.455
X28.866 Y57.411
X29.01 Y57.242
X29.044 Y57.2
X29.173 Y57.037
X29.203 Y56.997
X29.318 Y56.842
X29.347 Y56.802
X29.447 Y56.656
X29.476 Y56.613
X29.563 Y56.477
X29.595 Y56.424
X29.668 Y56.299
X29.708 Y56.225
X29.769 Y56.107
X29.815 Y56.007
X29.864 Y55.891
X29.91 Y55.767
X29.948 Y55.646
X29.982 Y55.521
X30.013 Y55.387
X30.032 Y55.283
X30.056 Y55.126
X30.066 Y55.052
X30.085 Y54.864
X30.089 Y54.829
X30.097 Y54.721
X30.098 Y54.704
X30.107 Y54.585
Y54.571
X30.115 Y54.441
X30.116 Y54.433
X30.123 Y54.291
X30.124 Y54.282
X30.131 Y54.128
Y54.123
X30.139 Y53.957
Y53.953
X30.146 Y53.775
Y53.773
X30.154 Y53.583
Y53.579
X30.162 Y53.378
Y53.376
X30.17 Y53.164
Y53.161
X30.186 Y52.705
Y52.702
X30.203 Y52.211
Y52.207
X30.219 Y51.688
Y51.683
X30.234 Y51.144
Y51.134
X30.257 Y50.034
Y50.02
X30.263 Y49.477
Y49.463
X30.264 Y48.939
Y48.92
X30.259 Y48.421
X30.258 Y48.397
X30.245 Y47.932
Y47.908
X30.235 Y47.69
X30.234 Y47.671
X30.223 Y47.463
X30.221 Y47.441
X30.207 Y47.244
X30.205 Y47.219
X30.189 Y47.034
X30.186 Y47.004
X30.168 Y46.83
X30.164 Y46.797
X30.143 Y46.635
X30.137 Y46.594
X30.113 Y46.443
X30.106 Y46.4
X30.079 Y46.26
X30.069 Y46.208
X30.04 Y46.079
X30.026 Y46.022
X29.994 Y45.903
X29.965 Y45.808
X29.894 Y45.598
X29.868 Y45.524
X29.837 Y45.453
X29.756 Y45.275
X29.718 Y45.199
X29.676 Y45.125
X29.585 Y44.973
X29.541 Y44.905
X29.493 Y44.839
X29.392 Y44.706
X29.305 Y44.603
X29.195 Y44.482
X29.103 Y44.39
X28.858 Y44.165
X28.802 Y44.116
X28.528 Y43.889
X28.511 Y43.875
X28.215 Y43.637
X28.202 Y43.627
X27.89 Y43.38
X27.867 Y43.363
X27.614 Y43.171
X27.674 Y43.067
X27.93 Y42.629
X28.186 Y42.192
G2 X28.389 Y41.527 I-1.294 J-0.758
G1 X28.398 Y41.379
X28.401 Y41.297
X28.399 Y41.215
X28.393 Y41.078
X28.385 Y40.984
X28.372 Y40.89
X28.35 Y40.763
X28.328 Y40.658
X28.298 Y40.555
X28.26 Y40.439
X28.219 Y40.328
X28.169 Y40.222
X28.115 Y40.116
X28.056 Y40.011
X27.989 Y39.912
X27.919 Y39.817
X27.846 Y39.725
X27.765 Y39.638
X27.68 Y39.554
X27.6 Y39.481
X27.515 Y39.413
X27.414 Y39.339
X27.292 Y39.258
G3 X27.188 Y38.847 I0.153 J-0.258
G1 X27.341 Y38.589
X27.375 Y38.532 Z0.258
X27.408 Y38.477 Z0.28
X27.437 Y38.428 Z0.315
X27.461 Y38.387 Z0.363
X27.479 Y38.357 Z0.42
X27.491 Y38.338 Z0.483
X27.494 Y38.331 Z0.55
G0 Z31.007
M9

(Parallel1)
G64
X67.073 Y0.244
Z31.007
Z8.27
G1 Z0.55 F266.7
X67.065 Z0.484 F800
X67.043 Z0.42
X67.007 Z0.363
X66.96 Z0.316
X66.903 Z0.28
X66.84 Z0.258
X66.773 Z0.25
X66.758 Z0.781
X66.696 Z1.555
X66.595 Z2.314
X66.455 Z3.069
X66.276 Z3.812
X66.059 Z4.547
X65.803 Z5.271
X65.514 Z5.973
X65.185 Z6.666
X64.825 Z7.337
X64.426 Z7.994
X63.992 Z8.633
X63.528 Z9.247
X63.029 Z9.841
X62.494 Z10.415
X61.932 Z10.959
X61.333 Z11.482
X60.711 Z11.972
X60.054 Z12.436
X59.371 Z12.867
X58.667 Z13.264
X57.94 Z13.623
X57.231 Z13.928
X56.509 Z14.196
X55.769 Z14.428
X55.022 Z14.621
X54.265 Z14.776
X53.511 Z14.89
X52.739 Z14.966
X51.996 Z15.002
X49.91 Z14.999
X49.133 Z14.955
X48.368 Z14.872
X47.608 Z14.75
X46.848 Z14.587
X46.101 Z14.386
X45.368 Z14.148
X44.644 Z13.871
X43.94 Z13.56
X43.244 Z13.207
X42.568 Z12.822
X41.892 Z12.39
X41.249 Z11.93
X40.629 Z11.438
X40.04 Z10.919
X39.479 Z10.371
X38.953 Z9.802
X38.453 Z9.204
X37.988 Z8.584
X37.557 Z7.944
X37.16 Z7.284
X36.799 Z6.604
X36.475 Z5.913
X36.184 Z5.197
X35.932 Z4.474
X35.719 Z3.739
X35.544 Z2.996
X35.411 Z2.261
X35.313 Z1.505
X35.255 Z0.745
X35.242 Z0.25
X35.195 Z0.257
X35.154 Z0.279
X35.12 Z0.312
X35.099 Z0.354
X35.092 Z0.4
X35.084 Z0.447
X35.063 Z0.488
X35.03 Z0.522
X34.988 Z0.543
X34.942 Z0.55
X32.073
X32.027 Z0.543
X31.985 Z0.522
X31.952 Z0.488
X31.93 Z0.447
X31.923 Z0.4
X31.916 Z0.354
X31.894 Z0.312
X31.861 Z0.279
X31.819 Z0.258
X31.773 Z0.25
X31.758 Z0.781
X31.696 Z1.555
X31.595 Z2.314
X31.455 Z3.069
X31.276 Z3.812
X31.059 Z4.547
X30.803 Z5.271
X30.514 Z5.973
X30.185 Z6.666
X29.825 Z7.337
X29.426 Z7.994
X28.992 Z8.633
X28.528 Z9.247
X28.029 Z9.841
X27.494 Z10.415
X26.932 Z10.959
X26.333 Z11.482
X25.711 Z11.972
X25.054 Z12.436
X24.371 Z12.867
X23.667 Z13.264
X22.94 Z13.623
X22.231 Z13.928
X21.509 Z14.196
X20.769 Z14.428
X20.022 Z14.621
X19.265 Z14.776
X18.511 Z14.89
X17.739 Z14.966
X16.996 Z15.002
X14.91 Z14.999
X14.134 Z14.955
X13.368 Z14.872
X12.608 Z14.75
X11.848 Z14.587
X11.101 Z14.386
X10.368 Z14.148
X9.644 Z13.871
X8.94 Z13.56
X8.244 Z13.207
X7.568 Z12.822
X6.892 Z12.39
X6.249 Z11.93
X5.629 Z11.438
X5.04 Z10.919
X4.479 Z10.371
X3.953 Z9.802
X3.453 Z9.204
X2.988 Z8.584
X2.557 Z7.944
X2.16 Z7.284
X1.799 Z6.604
X1.475 Z5.913
X1.184 Z5.197
X0.932 Z4.474
X0.719 Z3.739
X0.544 Z2.996
X0.411 Z2.261
X0.313 Z1.506
X0.255 Z0.745
X0.242 Z0.25
X0.07 Y0.415
X-0.1 Y0.588
X-0.248 Y0.778
X-0.311 Y0.883
X-0.365 Y0.994
X-0.353 Z0.726
X-0.297 Z1.481
X-0.203 Z2.236
X-0.067 Z3.002
X0.106 Z3.751
X0.319 Z4.494
X0.569 Z5.224
X0.857 Z5.942
X1.18 Z6.643
X1.541 Z7.328
X1.934 Z7.99
X2.363 Z8.634
X2.822 Z9.253
X3.316 Z9.85
X3.838 Z10.42
X4.387 Z10.961
X4.965 Z11.474
X5.57 Z11.957
X6.197 Z12.408
X6.846 Z12.826
X7.518 Z13.21
X8.208 Z13.559
X8.912 Z13.871
X9.635 Z14.148
X10.369 Z14.386
X11.116 Z14.587
X11.875 Z14.75
X12.636 Z14.872
X13.411 Z14.956
X14.175 Z14.999
X17.733 Z15.002
X18.476 Z14.966
X19.233 Z14.891
X20.002 Z14.775
X20.752 Z14.622
X21.503 Z14.428
X22.239 Z14.197
X22.964 Z13.928
X23.673 Z13.622
X24.367 Z13.279
X25.041 Z12.902
X25.695 Z12.49
X26.326 Z12.046
X26.934 Z11.57
X27.517 Z11.063
X28.073 Z10.526
X28.601 Z9.962
X29.099 Z9.371
X29.566 Z8.755
X29.999 Z8.118
X30.402 Z7.455
X30.768 Z6.776
X31.1 Z6.076
X31.394 Z5.362
X31.651 Z4.634
X31.871 Z3.895
X32.052 Z3.142
X32.194 Z2.384
X32.298 Z1.612
X32.359 Z0.865
X32.38 Z0.251
X32.426 Z0.258
X32.468 Z0.279
X32.501 Z0.312
X32.523 Z0.354
X32.53 Z0.401
Z0.411
X32.537 Z0.457
X32.559 Z0.499
X32.592 Z0.532
X32.634 Z0.553
X32.68 Z0.561
X34.335
X34.381 Z0.553
X34.423 Z0.532
X34.456 Z0.499
X34.478 Z0.457
X34.485 Z0.411
X34.492 Z0.364
X34.514 Z0.323
X34.547 Z0.289
X34.589 Z0.268
X34.635 Z0.261
X34.646 Z0.706
X34.702 Z1.474
X34.798 Z2.244
X34.933 Z2.999
X35.106 Z3.749
X35.318 Z4.492
X35.568 Z5.222
X35.856 Z5.941
X36.18 Z6.642
X36.54 Z7.326
X36.935 Z7.991
X37.362 Z8.633
X37.823 Z9.254
X38.315 Z9.849
X38.837 Z10.419
X39.388 Z10.962
X39.966 Z11.475
X40.568 Z11.956
X41.198 Z12.409
X41.848 Z12.827
X42.517 Z13.209
X43.207 Z13.559
X43.914 Z13.872
X44.634 Z14.148
X45.372 Z14.387
X46.114 Z14.587
X46.871 Z14.749
X47.641 Z14.873
X48.411 Z14.956
X49.183 Z14.999
X52.72 Z15.002
X53.462 Z14.966
X54.234 Z14.891
X54.998 Z14.775
X55.753 Z14.621
X56.504 Z14.428
X57.239 Z14.197
X57.965 Z13.927
X58.673 Z13.622
X59.364 Z13.281
X60.039 Z12.903
X60.693 Z12.492
X61.327 Z12.046
X61.935 Z11.569
X62.517 Z11.063
X63.074 Z10.525
X63.601 Z9.961
X64.099 Z9.37
X64.566 Z8.755
X65. Z8.117
X65.401 Z7.457
X65.768 Z6.775
X66.099 Z6.078
X66.393 Z5.365
X66.652 Z4.632
X66.871 Z3.892
X67.053 Z3.139
X67.195 Z2.38
X67.297 Z1.618
X67.361 Z0.85
X67.38 Z0.251
X67.447 Y1.175
X67.489 Y1.361
X67.507 Y1.551
X67.508 Y1.743
X67.493 Z0.789
X67.432 Z1.571
X67.331 Z2.338
X67.19 Z3.1
X67.009 Z3.86
X66.791 Z4.6
X66.536 Z5.329
X66.243 Z6.043
X65.912 Z6.746
X65.548 Z7.424
X65.146 Z8.09
X64.713 Z8.729
X64.249 Z9.344
X63.754 Z9.935
X63.228 Z10.5
X62.671 Z11.041
X62.09 Z11.548
X61.482 Z12.027
X60.85 Z12.473
X60.201 Z12.884
X59.524 Z13.265
X58.837 Z13.606
X58.129 Z13.914
X57.399 Z14.187
X56.67 Z14.418
X55.925 Z14.612
X55.173 Z14.768
X54.4 Z14.887
X53.656 Z14.963
X52.857 Z15.002
X49.058 Z14.999
X48.332 Z14.961
X47.546 Z14.878
X46.788 Z14.758
X46.021 Z14.596
X45.277 Z14.398
X44.539 Z14.16
X43.819 Z13.886
X43.111 Z13.575
X42.418 Z13.226
X41.747 Z12.844
X41.098 Z12.429
X40.467 Z11.978
X39.863 Z11.497
X39.286 Z10.987
X38.732 Z10.444
X38.208 Z9.875
X37.716 Z9.282
X37.254 Z8.663
X36.826 Z8.023
X36.429 Z7.358
X36.067 Z6.674
X35.743 Z5.977
X35.451 Z5.255
X35.2 Z4.525
X34.986 Z3.783
X34.811 Z3.034
X34.674 Z2.27
X34.579 Z1.533
X34.52 Z0.775
X34.506 Z0.25
X34.46 Z0.257
X34.418 Z0.279
X34.385 Z0.312
X34.364 Z0.354
X34.356 Z0.4
Z0.401
X34.349 Z0.447
X34.328 Z0.489
X34.295 Z0.522
X34.253 Z0.543
X34.206 Z0.551
X32.808
X32.762 Z0.543
X32.72 Z0.522
X32.687 Z0.489
X32.666 Z0.447
X32.658 Z0.401
X32.651 Z0.354
X32.63 Z0.312
X32.596 Z0.279
X32.555 Z0.258
X32.508 Z0.251
X32.494 Z0.789
X32.432 Z1.571
X32.331 Z2.338
X32.19 Z3.1
X32.009 Z3.86
X31.791 Z4.6
X31.536 Z5.329
X31.243 Z6.042
X30.912 Z6.746
X30.548 Z7.424
X30.146 Z8.09
X29.713 Z8.729
X29.249 Z9.344
X28.754 Z9.935
X28.228 Z10.5
X27.671 Z11.041
X27.09 Z11.548
X26.482 Z12.027
X25.85 Z12.473
X25.201 Z12.884
X24.524 Z13.265
X23.837 Z13.606
X23.129 Z13.914
X22.399 Z14.187
X21.67 Z14.418
X20.925 Z14.612
X20.173 Z14.768
X19.4 Z14.887
X18.656 Z14.963
X17.857 Z15.002
X14.058 Z14.999
X13.332 Z14.961
X12.546 Z14.878
X11.788 Z14.758
X11.021 Z14.596
X10.277 Z14.398
X9.539 Z14.16
X8.819 Z13.886
X8.111 Z13.575
X7.418 Z13.226
X6.747 Z12.844
X6.098 Z12.429
X5.467 Z11.978
X4.863 Z11.497
X4.286 Z10.987
X3.732 Z10.444
X3.208 Z9.875
X2.716 Z9.282
X2.254 Z8.663
X1.826 Z8.023
X1.429 Z7.359
X1.067 Z6.674
X0.743 Z5.977
X0.451 Z5.255
X0.2 Z4.525
X-0.014 Z3.783
X-0.189 Z3.034
X-0.326 Z2.27
X-0.421 Z1.533
X-0.48 Z0.775
X-0.494 Z0.25
Y2.493
X-0.48 Z0.775
X-0.421 Z1.533
X-0.326 Z2.27
X-0.189 Z3.034
X-0.014 Z3.783
X0.2 Z4.525
X0.451 Z5.255
X0.743 Z5.977
X1.067 Z6.674
X1.429 Z7.359
X1.826 Z8.023
X2.254 Z8.663
X2.716 Z9.282
X3.208 Z9.875
X3.732 Z10.444
X4.286 Z10.987
X4.863 Z11.497
X5.467 Z11.978
X6.098 Z12.429
X6.747 Z12.844
X7.418 Z13.226
X8.111 Z13.575
X8.819 Z13.886
X9.539 Z14.16
X10.277 Z14.398
X11.021 Z14.596
X11.788 Z14.758
X12.546 Z14.878
X13.332 Z14.961
X14.058 Z14.999
X17.857 Z15.002
X18.656 Z14.963
X19.4 Z14.887
X20.173 Z14.768
X20.925 Z14.612
X21.67 Z14.418
X22.399 Z14.187
X23.129 Z13.914
X23.837 Z13.606
X24.524 Z13.265
X25.201 Z12.884
X25.85 Z12.473
X26.482 Z12.027
X27.09 Z11.548
X27.671 Z11.041
X28.228 Z10.5
X28.754 Z9.935
X29.249 Z9.344
X29.713 Z8.729
X30.146 Z8.09
X30.548 Z7.424
X30.912 Z6.746
X31.243 Z6.042
X31.536 Z5.329
X31.791 Z4.6
X32.009 Z3.86
X32.19 Z3.1
X32.331 Z2.338
X32.432 Z1.571
X32.494 Z0.789
X32.508 Z0.251
X32.555 Z0.258
X32.596 Z0.279
X32.63 Z0.312
X32.651 Z0.354
X32.658 Z0.401
X32.666 Z0.447
X32.687 Z0.489
X32.72 Z0.522
X32.762 Z0.543
X32.808 Z0.551
X34.206
X34.253 Z0.543
X34.295 Z0.522
X34.328 Z0.489
X34.349 Z0.447
X34.356 Z0.401
Z0.4
X34.364 Z0.354
X34.385 Z0.312
X34.418 Z0.279
X34.46 Z0.257
X34.506 Z0.25
X34.52 Z0.775
X34.579 Z1.533
X34.674 Z2.27
X34.811 Z3.034
X34.986 Z3.783
X35.2 Z4.525
X35.451 Z5.255
X35.743 Z5.977
X36.067 Z6.674
X36.429 Z7.358
X36.826 Z8.023
X37.254 Z8.663
X37.716 Z9.282
X38.208 Z9.875
X38.732 Z10.444
X39.286 Z10.987
X39.863 Z11.497
X40.467 Z11.978
X41.098 Z12.429
X41.747 Z12.844
X42.418 Z13.226
X43.111 Z13.575
X43.819 Z13.886
X44.539 Z14.16
X45.277 Z14.398
X46.021 Z14.596
X46.788 Z14.758
X47.546 Z14.878
X48.332 Z14.961
X49.058 Z14.999
X52.857 Z15.002
X53.656 Z14.963
X54.4 Z14.887
X55.173 Z14.768
X55.925 Z14.612
X56.67 Z14.418
X57.399 Z14.187
X58.129 Z13.914
X58.837 Z13.606
X59.524 Z13.265
X60.201 Z12.884
X60.85 Z12.473
X61.482 Z12.027
X62.09 Z11.548
X62.671 Z11.041
X63.228 Z10.5
X63.754 Z9.935
X64.249 Z9.344
X64.713 Z8.729
X65.146 Z8.09
X65.548 Z7.424
X65.912 Z6.746
X66.243 Z6.043
X66.536 Z5.329
X66.791 Z4.6
X67.009 Z3.86
X67.19 Z3.1
X67.331 Z2.338
X67.432 Z1.571
X67.493 Z0.789
X67.508 Z0.251
Y3.243
X67.493 Z0.789
X67.432 Z1.571
X67.331 Z2.338
X67.19 Z3.1
X67.009 Z3.86
X66.791 Z4.6
X66.536 Z5.329
X66.243 Z6.043
X65.912 Z6.746
X65.548 Z7.424
X65.146 Z8.09
X64.713 Z8.729
X64.249 Z9.344
X63.754 Z9.935
X63.228 Z10.5
X62.671 Z11.041
X62.09 Z11.548
X61.482 Z12.027
X60.85 Z12.473
X60.201 Z12.884
X59.524 Z13.265
X58.837 Z13.606
X58.129 Z13.914
X57.399 Z14.187
X56.67 Z14.418
X55.925 Z14.612
X55.173 Z14.768
X54.4 Z14.887
X53.656 Z14.963
X52.857 Z15.002
X49.058 Z14.999
X48.332 Z14.961
X47.546 Z14.878
X46.788 Z14.758
X46.021 Z14.596
X45.277 Z14.398
X44.539 Z14.16
X43.819 Z13.886
X43.111 Z13.575
X42.418 Z13.226
X41.747 Z12.844
X41.098 Z12.429
X40.467 Z11.978
X39.863 Z11.497
X39.286 Z10.987
X38.732 Z10.444
X38.208 Z9.875
X37.716 Z9.282
X37.254 Z8.663
X36.826 Z8.023
X36.429 Z7.358
X36.067 Z6.674
X35.743 Z5.977
X35.451 Z5.255
X35.2 Z4.525
X34.986 Z3.783
X34.811 Z3.034
X34.674 Z2.27
X34.579 Z1.533
X34.52 Z0.775
X34.506 Z0.25
X34.46 Z0.257
X34.418 Z0.279
X34.385 Z0.312
X34.364 Z0.354
X34.356 Z0.4
Z0.401
X34.349 Z0.447
X34.328 Z0.489
X34.295 Z0.522
X34.253 Z0.543
X34.206 Z0.551
X32.808
X32.762 Z0.543
X32.72 Z0.522
X32.687 Z0.489
X32.666 Z0.447
X32.658 Z0.401
X32.651 Z0.354
X32.63 Z0.312
X32.596 Z0.279
X32.555 Z0.258
X32.508 Z0.251
X32.494 Z0.789
X32.432 Z1.571
X32.331 Z2.338
X32.19 Z3.1
X32.009 Z3.86
X31.791 Z4.6
X31.536 Z5.329
X31.243 Z6.042
X30.912 Z6.746
X30.548 Z7.424
X30.146 Z8.09
X29.713 Z8.729
X29.249 Z9.344
X28.754 Z9.935
X28.228 Z10.5
X27.671 Z11.041
X27.09 Z11.548
X26.482 Z12.027
X25.85 Z12.473
X25.201 Z12.884
X24.524 Z13.265
X23.837 Z13.606
X23.129 Z13.914
X22.399 Z14.187
X21.67 Z14.418
X20.925 Z14.612
X20.173 Z14.768
X19.4 Z14.887
X18.656 Z14.963
X17.857 Z15.002
X14.058 Z14.999
X13.332 Z14.961
X12.546 Z14.878
X11.788 Z14.758
X11.021 Z14.596
X10.277 Z14.398
X9.539 Z14.16
X8.819 Z13.886
X8.111 Z13.575
X7.418 Z13.226
X6.747 Z12.844
X6.098 Z12.429
X5.467 Z11.978
X4.863 Z11.497
X4.286 Z10.987
X3.732 Z10.444
X3.208 Z9.875
X2.716 Z9.282
X2.254 Z8.663
X1.826 Z8.023
X1.429 Z7.359
X1.067 Z6.674
X0.743 Z5.977
X0.451 Z5.255
X0.2 Z4.525
X-0.014 Z3.783
X-0.189 Z3.034
X-0.326 Z2.27
X-0.421 Z1.533
X-0.48 Z0.775
X-0.494 Z0.25
X-0.493 Y3.436
X-0.477 Y3.625
X-0.436 Y3.811
X-0.372 Y3.993
X-0.36 Z0.704
X-0.304 Z1.474
X-0.208 Z2.243
X-0.074 Z2.998
X0.099 Z3.749
X0.312 Z4.492
X0.562 Z5.222
X0.85 Z5.941
X1.173 Z6.641
X1.534 Z7.326
X1.928 Z7.991
X2.355 Z8.633
X2.817 Z9.254
X3.308 Z9.849
X3.831 Z10.419
X4.382 Z10.962
X4.959 Z11.475
X5.562 Z11.956
X6.192 Z12.409
X6.841 Z12.826
X7.51 Z13.209
X8.2 Z13.559
X8.908 Z13.872
X9.628 Z14.148
X10.365 Z14.387
X11.112 Z14.588
X11.866 Z14.749
X12.636 Z14.873
X13.406 Z14.956
X14.169 Z14.999
X17.726 Z15.002
X18.469 Z14.966
X19.241 Z14.891
X20.005 Z14.775
X20.759 Z14.621
X21.511 Z14.428
X22.246 Z14.197
X22.971 Z13.927
X23.68 Z13.622
X24.371 Z13.281
X25.045 Z12.903
X25.7 Z12.492
X26.331 Z12.048
X26.942 Z11.569
X27.524 Z11.063
X28.081 Z10.525
X28.608 Z9.961
X29.106 Z9.37
X29.573 Z8.755
X30.007 Z8.117
X30.407 Z7.457
X30.775 Z6.775
X31.105 Z6.078
X31.399 Z5.365
X31.658 Z4.632
X31.878 Z3.892
X32.059 Z3.139
X32.201 Z2.38
X32.304 Z1.618
X32.367 Z0.849
X32.386 Z0.25
X32.433 Z0.257
X32.475 Z0.279
X32.508 Z0.312
X32.529 Z0.354
X32.536 Z0.4
X32.544 Z0.446
X32.565 Z0.488
X32.598 Z0.521
X32.64 Z0.543
X32.686 Z0.55
X34.328
X34.375 Z0.543
X34.416 Z0.521
X34.45 Z0.488
X34.471 Z0.446
X34.478 Z0.4
X34.486 Z0.354
X34.507 Z0.312
X34.54 Z0.279
X34.582 Z0.257
X34.628 Z0.25
X34.641 Z0.732
X34.697 Z1.483
X34.791 Z2.237
X34.927 Z3.002
X35.1 Z3.752
X35.312 Z4.494
X35.562 Z5.224
X35.85 Z5.943
X36.174 Z6.643
X36.534 Z7.328
X36.927 Z7.989
X37.356 Z8.634
X37.818 Z9.255
X38.309 Z9.85
X38.832 Z10.42
X39.38 Z10.961
X39.96 Z11.475
X40.563 Z11.957
X41.19 Z12.408
X41.84 Z12.825
X42.511 Z13.21
X43.201 Z13.559
X43.909 Z13.873
X44.629 Z14.148
X45.362 Z14.386
X46.11 Z14.587
X46.868 Z14.749
X47.63 Z14.872
X48.401 Z14.955
X49.168 Z14.999
X52.727 Z15.002
X53.47 Z14.966
X54.241 Z14.89
X55.006 Z14.775
X55.76 Z14.621
X56.511 Z14.427
X57.247 Z14.196
X57.968 Z13.928
X58.681 Z13.621
X59.372 Z13.28
X60.046 Z12.903
X60.7 Z12.491
X61.332 Z12.047
X61.94 Z11.571
X62.524 Z11.062
X63.079 Z10.527
X63.608 Z9.961
X64.106 Z9.37
X64.573 Z8.754
X65.007 Z8.116
X65.408 Z7.456
X65.775 Z6.774
X66.105 Z6.077
X66.4 Z5.364
X66.657 Z4.636
X66.878 Z3.891
X67.059 Z3.138
X67.201 Z2.379
X67.304 Z1.616
X67.367 Z0.846
X67.386 Z0.25
X67.272 Y4.209
X67.127 Y4.4
X66.958 Y4.572
X66.788 Y4.743
X66.773 Z0.781
X66.711 Z1.555
X66.61 Z2.316
X66.47 Z3.071
X66.291 Z3.814
X66.073 Z4.549
X65.818 Z5.274
X65.528 Z5.976
X65.2 Z6.67
X64.836 Z7.346
X64.441 Z7.999
X64.007 Z8.637
X63.539 Z9.256
X63.04 Z9.85
X62.506 Z10.424
X61.939 Z10.972
X61.345 Z11.491
X60.717 Z11.985
X60.066 Z12.446
X59.381 Z12.879
X58.665 Z13.28
X57.971 Z13.622
X57.262 Z13.928
X56.54 Z14.196
X55.8 Z14.428
X55.053 Z14.621
X54.296 Z14.775
X53.541 Z14.89
X52.769 Z14.966
X52.027 Z15.002
X49.89 Z14.999
X49.107 Z14.955
X48.342 Z14.872
X47.574 Z14.749
X46.822 Z14.588
X46.073 Z14.387
X45.335 Z14.147
X44.615 Z13.872
X43.908 Z13.559
X43.218 Z13.209
X42.553 Z12.83
X41.879 Z12.399
X41.235 Z11.938
X40.616 Z11.446
X40.027 Z10.927
X39.466 Z10.379
X38.936 Z9.806
X38.441 Z9.212
X37.973 Z8.588
X37.542 Z7.948
X37.146 Z7.287
X36.784 Z6.608
X36.457 Z5.909
X36.169 Z5.201
X35.918 Z4.477
X35.704 Z3.741
X35.53 Z2.998
X35.396 Z2.262
X35.298 Z1.506
X35.24 Z0.746
X35.227 Z0.25
X35.309 Y4.825 Z0.253
X35.39 Y4.906 Z0.256
X35.472 Y4.988 Z0.259
X35.554 Y5.069 Z0.262
X35.64 Y5.148 Z0.265
X35.734 Y5.221 Z0.268
X35.774 Y5.331 Z0.271
X35.738 Y5.493 Z0.274
X35.741 Z0.402
X35.768 Z0.96
X35.817 Z1.501
X35.888 Z2.048
X35.981 Z2.597
X36.098 Z3.146
X36.241 Z3.702
X36.408 Z4.257
X36.599 Z4.807
X36.817 Z5.358
X37.058 Z5.898
X37.326 Z6.434
X37.618 Z6.961
X37.935 Z7.478
X38.276 Z7.982
X38.638 Z8.47
X39.024 Z8.945
X39.431 Z9.403
X39.86 Z9.843
X40.336 Z10.291
X40.805 Z10.693
X41.292 Z11.073
X41.788 Z11.427
X42.3 Z11.758
X42.827 Z12.068
X43.364 Z12.353
X43.737 Z12.532
X44.244 Z12.802
X44.923 Z13.13
X45.617 Z13.422
X46.325 Z13.677
X47.048 Z13.895
X47.781 Z14.075
X48.529 Z14.217
X49.314 Z14.324
X50.134 Z14.391
X50.962 Z14.415
X51.795 Z14.395
X52.622 Z14.333
X53.351 Z14.239
X54.088 Z14.106
X54.828 Z13.932
X55.549 Z13.723
X56.259 Z13.475
X56.959 Z13.189
X57.635 Z12.871
X58.11 Z12.618
X58.521 Z12.418
X58.883 Z12.233
X59.245 Z12.036
X59.6 Z11.828
X59.944 Z11.614
X60.283 Z11.388
X60.618 Z11.15
X60.944 Z10.904
X61.264 Z10.648
X61.568 Z10.39
X61.818 Z10.164
X62.233 Z9.768
X62.634 Z9.349
X62.95 Z8.992
X63.305 Z8.563
X63.657 Z8.097
X63.935 Z7.698
X64.246 Z7.216
X64.535 Z6.719
X64.767 Z6.285
X65.03 Z5.742
X65.238 Z5.261
X65.436 Z4.757
X65.625 Z4.202
X65.773 Z3.71
X65.924 Z3.115
X66.034 Z2.597
X66.134 Z2.004
X66.205 Z1.446
X66.255 Z0.841
X66.276 Z0.25
X66.307 Y5.68
X66.337 Y5.867
X66.362 Y6.054
X66.381 Y6.243
X66.368 Z0.729
X66.339 Z1.154
X66.301 Z1.543
X66.256 Z1.897
X66.2 Z2.267
X66.135 Z2.633
X66.06 Z2.995
X65.972 Z3.367
X65.875 Z3.734
X65.768 Z4.099
X65.648 Z4.469
X65.517 Z4.838
X65.378 Z5.195
X65.225 Z5.559
X65.061 Z5.921
X64.884 Z6.282
X64.699 Z6.635
X64.503 Z6.983
X64.294 Z7.33
X64.074 Z7.673
X63.846 Z8.006
X63.607 Z8.335
X63.354 Z8.661
X63.091 Z8.981
X62.822 Z9.289
X62.546 Z9.587
X62.258 Z9.88
X61.96 Z10.165
X61.654 Z10.442
X61.341 Z10.709
X61.022 Z10.965
X60.695 Z11.211
X60.36 Z11.449
X60.021 Z11.675
X59.671 Z11.893
X59.323 Z12.097
X58.967 Z12.291
X58.604 Z12.476
X58.138 Z12.693
X57.638 Z12.905
X57.088 Z13.111
X56.606 Z13.27
X55.997 Z13.444
X55.491 Z13.567
X54.941 Z13.677
X54.546 Z13.742
X54.158 Z13.795
X53.757 Z13.839
X53.394 Z13.869
X53.037 Z13.889
X52.233 Z13.904
X49.474 Z13.901
X48.783 Z13.88
X48.384 Z13.851
X48.003 Z13.812
X47.629 Z13.765
X47.26 Z13.709
X46.895 Z13.644
X46.464 Z13.552
X45.975 Z13.432
X45.425 Z13.275
X44.875 Z13.092
X44.325 Z12.883
X43.781 Z12.65
X43.271 Z12.406
X42.751 Z12.13
X42.224 Z11.82
X41.712 Z11.488
X41.21 Z11.13
X40.729 Z10.754
X40.259 Z10.352
X39.808 Z9.93
X39.376 Z9.489
X38.966 Z9.031
X38.576 Z8.554
X38.209 Z8.063
X37.864 Z7.557
X37.547 Z7.043
X37.251 Z6.514
X36.981 Z5.979
X36.733 Z5.429
X36.515 Z4.883
X36.319 Z4.327
X36.151 Z3.773
X36.005 Z3.215
X35.885 Z2.66
X35.79 Z2.118
X35.717 Z1.569
X35.667 Z1.04
X35.638 Z0.539
X35.632 Z0.269
X35.618 Y6.43 Z0.268
X35.612 Y6.618
X35.609 Y6.805
X35.614 Y6.993 Z0.267
X35.618 Z0.475
X35.646 Z1.009
X35.699 Z1.578
X35.77 Z2.106
X35.868 Z2.668
X35.988 Z3.222
X36.133 Z3.78
X36.302 Z4.332
X36.498 Z4.889
X36.716 Z5.434
X36.964 Z5.984
X37.234 Z6.519
X37.529 Z7.048
X37.85 Z7.567
X38.192 Z8.069
X38.562 Z8.564
X38.953 Z9.042
X39.363 Z9.5
X39.794 Z9.94
X40.242 Z10.359
X40.711 Z10.76
X41.194 Z11.137
X41.694 Z11.494
X42.208 Z11.827
X42.729 Z12.133
X43.261 Z12.416
X43.801 Z12.673
X44.349 Z12.906
X44.901 Z13.113
X45.456 Z13.295
X46.006 Z13.451
X46.548 Z13.58
X46.896 Z13.652
X47.263 Z13.718
X47.636 Z13.774
X48.175 Z13.837
X48.716 Z13.88
X49.391 Z13.901
X52.379 Z13.904
X53.128 Z13.888
X53.652 Z13.854
X54.18 Z13.8
X54.555 Z13.748
X54.917 Z13.689
X55.291 Z13.618
X55.674 Z13.534
X56.051 Z13.44
X56.421 Z13.336
X56.789 Z13.223
X57.162 Z13.096
X57.533 Z12.958
X57.901 Z12.809
X58.267 Z12.649
X58.631 Z12.476
X58.987 Z12.295
X59.342 Z12.101
X59.692 Z11.897
X60.041 Z11.679
X60.375 Z11.457
X60.71 Z11.219
X61.037 Z10.973
X61.356 Z10.717
X61.669 Z10.45
X61.976 Z10.173
X62.273 Z9.889
X62.561 Z9.596
X62.841 Z9.293
X63.111 Z8.984
X63.373 Z8.665
X63.622 Z8.344
X63.862 Z8.014
X64.09 Z7.681
X64.309 Z7.339
X64.519 Z6.991
X64.714 Z6.643
X64.903 Z6.284
X65.077 Z5.93
X65.241 Z5.567
X65.394 Z5.204
X65.536 Z4.838
X65.667 Z4.47
X65.787 Z4.098
X65.894 Z3.733
X65.991 Z3.366
X66.079 Z2.994
X66.154 Z2.63
X66.219 Z2.264
X66.275 Z1.893
X66.32 Z1.536
X66.355 Z1.177
X66.384 Z0.766
X66.399 Z0.263
X66.386 Y7.181 Z0.26
X66.37 Y7.37 Z0.256
X66.343 Y7.556 Z0.253
X66.31 Y7.743 Z0.25
X66.295 Z0.78
X66.269 Z1.153
X66.233 Z1.518
X66.186 Z1.899
X66.133 Z2.25
X66.067 Z2.618
X65.992 Z2.981
X65.903 Z3.36
X65.769 Z3.856
X65.589 Z4.432
X65.41 Z4.926
X65.196 Z5.46
X64.957 Z5.982
X64.735 Z6.425
X64.428 Z6.981
X64.168 Z7.408
X63.89 Z7.831
X63.522 Z8.341
X63.217 Z8.73
X62.892 Z9.116
X62.464 Z9.583
X62.117 Z9.932
X61.761 Z10.266
X61.546 Z10.456
X61.283 Z10.679
X60.963 Z10.936
X60.636 Z11.182
X60.306 Z11.417
X59.961 Z11.646
X59.612 Z11.864
X59.262 Z12.068
X58.9 Z12.266
X58.538 Z12.45
X58.167 Z12.625
X57.794 Z12.789
X57.422 Z12.94
X56.943 Z13.115
X56.398 Z13.292
X55.851 Z13.443
X55.292 Z13.576
X54.81 Z13.67
X54.376 Z13.741
X53.98 Z13.795
X53.435 Z13.851
X52.909 Z13.884
X52.008 Z13.904
X49.733 Z13.9
X48.93 Z13.875
X48.34 Z13.829
X47.803 Z13.764
X47.4 Z13.703
X47.019 Z13.635
X46.639 Z13.556
X46.065 Z13.417
X45.51 Z13.258
X44.96 Z13.075
X44.441 Z12.879
X43.902 Z12.65
X43.35 Z12.387
X42.811 Z12.101
X42.285 Z11.792
X41.767 Z11.456
X41.267 Z11.1
X40.781 Z10.72
X40.313 Z10.32
X39.835 Z9.87
X39.404 Z9.428
X38.997 Z8.97
X38.609 Z8.492
X38.245 Z8.001
X37.905 Z7.498
X37.587 Z6.981
X37.293 Z6.451
X37.026 Z5.915
X36.783 Z5.371
X36.565 Z4.82
X36.374 Z4.271
X36.205 Z3.71
X36.073 Z3.202
X35.956 Z2.663
X35.858 Z2.102
X35.787 Z1.575
X35.734 Z1.006
X35.706 Z0.474
X35.703 Z0.276
X35.722 Y7.838 Z0.274
X35.743 Y7.933 Z0.271
X35.767 Y8.028 Z0.268
X35.794 Y8.121 Z0.266
X35.82 Y8.215 Z0.263
X35.847 Y8.308 Z0.26
X35.877 Y8.401 Z0.258
X35.91 Y8.493 Z0.255
X35.915 Z0.512
X35.944 Z1.019
X35.994 Z1.551
X36.065 Z2.077
X36.16 Z2.622
X36.28 Z3.176
X36.422 Z3.722
X36.588 Z4.265
X36.78 Z4.813
X36.999 Z5.359
X37.24 Z5.894
X37.509 Z6.43
X37.802 Z6.953
X38.12 Z7.467
X38.461 Z7.967
X38.827 Z8.458
X39.206 Z8.921
X39.592 Z9.353
X40.016 Z9.789
X40.46 Z10.207
X40.921 Z10.604
X41.435 Z11.008
X41.943 Z11.37
X42.46 Z11.705
X42.996 Z12.02
X43.545 Z12.312
X44.082 Z12.568
X44.607 Z12.792
X45.196 Z13.015
X45.774 Z13.205
X46.384 Z13.377
X46.864 Z13.493
X47.186 Z13.564
X47.711 Z13.661
X48.115 Z13.722
X48.578 Z13.779
X49.038 Z13.825
X49.543 Z13.861
X50.488 Z13.889
X51.168 Z13.896
X52.147 Z13.873
X52.667 Z13.849
X53.064 Z13.817
X53.516 Z13.77
X53.954 Z13.714
X54.324 Z13.658
X54.839 Z13.562
X55.26 Z13.469
X55.672 Z13.366
X56.088 Z13.251
X56.486 Z13.128
X56.952 Z12.969
X57.488 Z12.76
X57.962 Z12.555
X58.342 Z12.375
X58.712 Z12.187
X59.079 Z11.986
X59.434 Z11.779
X59.788 Z11.557
X60.133 Z11.328
X60.468 Z11.09
X60.785 Z10.851
X61.038 Z10.65
X61.439 Z10.311
X61.884 Z9.902
X62.227 Z9.559
X62.576 Z9.187
X62.845 Z8.878
X63.104 Z8.564
X63.353 Z8.242
X63.592 Z7.913
X63.82 Z7.581
X64.037 Z7.243
X64.246 Z6.896
X64.441 Z6.549
X64.624 Z6.201
X64.797 Z5.848
X64.958 Z5.492
X65.111 Z5.129
X65.253 Z4.763
X65.381 Z4.403
X65.498 Z4.041
X65.605 Z3.677
X65.699 Z3.322
X65.786 Z2.951
X65.861 Z2.589
X65.924 Z2.239
X65.98 Z1.869
X66.025 Z1.512
X66.06 Z1.153
X66.089 Z0.734
X66.103 Z0.264
X66.03 Y8.683 Z0.261
X65.954 Y8.872 Z0.258
X65.868 Y9.058 Z0.254
X65.781 Y9.243 Z0.251
X65.767 Z0.734
X65.737 Z1.147
X65.705 Z1.479
X65.66 Z1.836
X65.607 Z2.19
X65.541 Z2.554
X65.469 Z2.902
X65.385 Z3.26
X65.291 Z3.616
X65.184 Z3.979
X65.069 Z4.331
X64.942 Z4.69
X64.806 Z5.04
X64.657 Z5.395
X64.495 Z5.75
X64.325 Z6.097
X64.143 Z6.444
X63.951 Z6.785
X63.748 Z7.121
X63.473 Z7.545
X63.176 Z7.967
X62.847 Z8.397
X62.581 Z8.721
X62.316 Z9.025
X62.039 Z9.323
X61.755 Z9.612
X61.458 Z9.897
X61.155 Z10.17
X60.843 Z10.436
X60.523 Z10.692
X60.192 Z10.942
X59.857 Z11.18
X59.512 Z11.409
X59.078 Z11.677
X58.8 Z11.838
X58.468 Z12.018
X58.098 Z12.206
X57.721 Z12.385
X57.334 Z12.555
X56.942 Z12.714
X56.539 Z12.864
X56.053 Z13.026
X55.743 Z13.12
X55.369 Z13.224
X54.945 Z13.329
X54.522 Z13.422
X54.089 Z13.506
X53.64 Z13.58
X53.225 Z13.636
X52.791 Z13.683
X52.342 Z13.72
X51.842 Z13.749
X51.047 Z13.768
X50.12 Z13.747
X49.498 Z13.708
X48.989 Z13.659
X48.557 Z13.606
X48.083 Z13.533
X47.681 Z13.46
X47.288 Z13.378
X46.692 Z13.236
X46.075 Z13.062
X45.493 Z12.869
X44.939 Z12.661
X44.358 Z12.415
X43.789 Z12.143
X43.237 Z11.85
X42.683 Z11.523
X42.198 Z11.207
X41.709 Z10.858
X41.224 Z10.479
X40.755 Z10.078
X40.309 Z9.661
X39.882 Z9.224
X39.476 Z8.771
X39.093 Z8.303
X38.711 Z7.788
X38.379 Z7.297
X38.086 Z6.822
X37.803 Z6.316
X37.541 Z5.795
X37.3 Z5.26
X37.088 Z4.731
X36.898 Z4.191
X36.733 Z3.648
X36.594 Z3.113
X36.477 Z2.572
X36.385 Z2.045
X36.314 Z1.515
X36.264 Z0.978
X36.238 Z0.523
X36.232 Z0.271
X36.279 Y9.338 Z0.269
X36.328 Y9.432 Z0.266
X36.378 Y9.526 Z0.263
X36.427 Y9.62 Z0.261
X36.477 Y9.714 Z0.258
X36.528 Y9.807 Z0.255
X36.631 Y9.992 Z0.25
X36.635 Z0.463
X36.661 Z0.947
X36.711 Z1.486
X36.779 Z1.988
X36.868 Z2.5
X36.982 Z3.026
X37.118 Z3.551
X37.277 Z4.073
X37.464 Z4.605
X37.669 Z5.118
X37.901 Z5.633
X38.16 Z6.148
X38.443 Z6.653
X38.747 Z7.145
X39.066 Z7.614
X39.422 Z8.091
X39.797 Z8.549
X40.194 Z8.993
X40.612 Z9.42
X41.049 Z9.83
X41.508 Z10.223
X41.988 Z10.598
X42.481 Z10.949
X42.992 Z11.28
X43.512 Z11.586
X44.053 Z11.873
X44.616 Z12.142
X45.188 Z12.385
X45.732 Z12.589
X46.347 Z12.793
X46.951 Z12.964
X47.535 Z13.103
X47.931 Z13.185
X48.339 Z13.258
X48.758 Z13.322
X49.171 Z13.374
X49.61 Z13.417
X50.119 Z13.453
X50.953 Z13.477
X51.757 Z13.46
X52.15 Z13.437
X52.573 Z13.402
X53. Z13.356
X53.434 Z13.297
X53.849 Z13.229
X54.269 Z13.148
X54.693 Z13.055
X55.106 Z12.953
X55.5 Z12.843
X55.894 Z12.722
X56.29 Z12.587
X56.687 Z12.44
X57.071 Z12.284
X57.458 Z12.115
X57.828 Z11.939
X58.198 Z11.752
X58.56 Z11.554
X58.904 Z11.353
X59.242 Z11.142
X59.581 Z10.917
X59.916 Z10.679
X60.239 Z10.436
X60.554 Z10.184
X60.862 Z9.922
X61.155 Z9.657
X61.444 Z9.38
X61.725 Z9.095
X61.993 Z8.805
X62.255 Z8.506
X62.506 Z8.201
X62.74 Z7.899
X62.972 Z7.582
X63.19 Z7.263
X63.4 Z6.936
X63.599 Z6.606
X63.788 Z6.271
X63.964 Z5.937
X64.13 Z5.597
X64.288 Z5.25
X64.432 Z4.91
X64.567 Z4.56
X64.689 Z4.219
X64.803 Z3.868
X64.904 Z3.525
X64.998 Z3.17
X65.076 Z2.837
X65.148 Z2.492
X65.211 Z2.144
X65.264 Z1.795
X65.306 Z1.464
X65.341 Z1.106
X65.37 Z0.692
X65.382 Z0.25
X65.277 Y10.18
X65.171 Y10.368
X65.065 Y10.555
X64.958 Y10.742
X64.944 Z0.717
X64.917 Z1.085
X64.882 Z1.438
X64.84 Z1.764
X64.793 Z2.073
X64.733 Z2.405
X64.661 Z2.75
X64.583 Z3.082
X64.495 Z3.413
X64.394 Z3.756
X64.286 Z4.088
X64.167 Z4.419
X64.035 Z4.76
X63.895 Z5.093
X63.746 Z5.419
X63.586 Z5.746
X63.413 Z6.074
X63.231 Z6.397
X63.039 Z6.716
X62.836 Z7.031
X62.623 Z7.342
X62.398 Z7.651
X62.167 Z7.949
X61.924 Z8.244
X61.67 Z8.534
X61.409 Z8.815
X61.137 Z9.092
X60.856 Z9.36
X60.567 Z9.621
X60.268 Z9.875
X59.967 Z10.116
X59.65 Z10.355
X59.33 Z10.582
X59.001 Z10.801
X58.662 Z11.012
X58.318 Z11.213
X57.968 Z11.404
X57.612 Z11.585
X57.24 Z11.76
X56.874 Z11.92
X56.498 Z12.073
X56.119 Z12.213
X55.727 Z12.346
X55.33 Z12.469
X54.936 Z12.578
X54.534 Z12.678
X54.137 Z12.765
X53.733 Z12.843
X53.337 Z12.908
X52.927 Z12.964
X52.5 Z13.01
X52.07 Z13.045
X51.727 Z13.065
X51.035 Z13.082
X50.166 Z13.06
X49.709 Z13.028
X49.264 Z12.984
X48.849 Z12.932
X48.448 Z12.871
X48.057 Z12.801
X47.673 Z12.722
X47.114 Z12.588
X46.529 Z12.423
X45.944 Z12.231
X45.374 Z12.016
X44.816 Z11.779
X44.274 Z11.521
X43.741 Z11.237
X43.228 Z10.936
X42.734 Z10.615
X42.25 Z10.271
X41.785 Z9.907
X41.339 Z9.525
X40.915 Z9.128
X40.509 Z8.714
X40.124 Z8.283
X39.761 Z7.839
X39.42 Z7.383
X39.101 Z6.913
X38.805 Z6.433
X38.536 Z5.952
X38.286 Z5.455
X38.061 Z4.956
X37.859 Z4.451
X37.682 Z3.946
X37.525 Z3.433
X37.395 Z2.931
X37.284 Z2.417
X37.198 Z1.922
X37.13 Z1.409
X37.086 Z0.943
X37.06 Z0.493
X37.055 Z0.25
X37.268 Y11.118
X37.375 Y11.305
X37.483 Y11.492
X37.486 Z0.424
X37.512 Z0.901
X37.556 Z1.374
X37.621 Z1.859
X37.704 Z2.336
X37.812 Z2.835
X37.939 Z3.324
X38.089 Z3.815
X38.26 Z4.302
X38.453 Z4.785
X38.672 Z5.272
X38.912 Z5.748
X39.177 Z6.223
X39.46 Z6.681
X39.769 Z7.135
X40.098 Z7.576
X40.45 Z8.006
X40.82 Z8.42
X41.213 Z8.822
X41.628 Z9.211
X42.056 Z9.577
X42.506 Z9.929
X42.97 Z10.26
X43.453 Z10.573
X43.952 Z10.867
X44.468 Z11.141
X44.995 Z11.393
X45.531 Z11.62
X46.091 Z11.831
X46.649 Z12.014
X47.222 Z12.177
X47.766 Z12.307
X48.134 Z12.383
X48.526 Z12.454
X48.907 Z12.512
X49.324 Z12.564
X49.71 Z12.602
X50.174 Z12.635
X50.956 Z12.658
X51.718 Z12.641
X52.055 Z12.621
X52.446 Z12.589
X52.85 Z12.546
X53.261 Z12.49
X53.641 Z12.428
X54.033 Z12.353
X54.429 Z12.266
X54.818 Z12.17
X55.202 Z12.063
X55.591 Z11.943
X55.965 Z11.816
X56.336 Z11.678
X56.704 Z11.53
X57.062 Z11.373
X57.413 Z11.207
X57.758 Z11.032
X58.101 Z10.845
X58.434 Z10.651
X58.756 Z10.451
X59.078 Z10.237
X59.391 Z10.016
X59.694 Z9.788
X59.991 Z9.55
X60.281 Z9.304
X60.562 Z9.051
X60.834 Z8.791
X61.093 Z8.527
X61.35 Z8.251
X61.592 Z7.974
X61.828 Z7.688
X62.055 Z7.396
X62.27 Z7.101
X62.476 Z6.8
X62.672 Z6.496
X62.857 Z6.19
X63.033 Z5.879
X63.199 Z5.564
X63.356 Z5.243
X63.501 Z4.925
X63.638 Z4.601
X63.761 Z4.284
X63.879 Z3.953
X63.984 Z3.63
X64.079 Z3.31
X64.164 Z2.991
X64.242 Z2.662
X64.311 Z2.331
X64.368 Z2.018
X64.418 Z1.688
X64.46 Z1.358
X64.492 Z1.028
X64.519 Z0.654
X64.53 Z0.25
X64.422 Y11.68
X64.312 Y11.868
X64.202 Y12.055
X64.092 Y12.242
X64.081 Z0.651
X64.055 Z1.02
X64.022 Z1.343
X63.984 Z1.645
X63.936 Z1.953
X63.878 Z2.271
X63.812 Z2.585
X63.74 Z2.89
X63.658 Z3.197
X63.563 Z3.517
X63.461 Z3.829
X63.349 Z4.142
X63.229 Z4.45
X63.098 Z4.759
X62.955 Z5.071
X62.808 Z5.371
X62.649 Z5.673
X62.477 Z5.977
X62.298 Z6.273
X62.106 Z6.572
X61.906 Z6.862
X61.699 Z7.145
X61.484 Z7.423
X61.255 Z7.7
X61.017 Z7.972
X60.772 Z8.235
X60.52 Z8.49
X60.257 Z8.742
X59.985 Z8.987
X59.708 Z9.222
X59.421 Z9.452
X59.123 Z9.676
X58.822 Z9.889
X58.514 Z10.093
X58.192 Z10.293
X57.871 Z10.48
X57.54 Z10.66
X57.202 Z10.832
X56.864 Z10.991
X56.513 Z11.144
X56.167 Z11.284
X55.813 Z11.415
X55.438 Z11.542
X55.068 Z11.656
X54.695 Z11.759
X54.316 Z11.853
X53.945 Z11.934
X53.554 Z12.008
X53.172 Z12.07
X52.777 Z12.123
X52.398 Z12.164
X52.007 Z12.196
X51.642 Z12.215
X50.962 Z12.23
X50.215 Z12.209
X49.747 Z12.176
X49.366 Z12.138
X48.974 Z12.089
X48.576 Z12.028
X48.202 Z11.96
X47.853 Z11.887
X47.331 Z11.762
X46.778 Z11.605
X46.231 Z11.426
X45.702 Z11.227
X45.183 Z11.006
X44.669 Z10.761
X44.173 Z10.497
X43.69 Z10.213
X43.224 Z9.91
X42.771 Z9.587
X42.335 Z9.245
X41.921 Z8.892
X41.522 Z8.518
X41.142 Z8.128
X40.784 Z7.729
X40.443 Z7.312
X40.125 Z6.886
X39.827 Z6.447
X39.552 Z6.001
X39.299 Z5.549
X39.066 Z5.086
X38.857 Z4.621
X38.667 Z4.146
X38.502 Z3.676
X38.358 Z3.202
X38.234 Z2.724
X38.132 Z2.251
X38.052 Z1.79
X37.99 Z1.325
X37.946 Z0.851
X37.923 Z0.42
X37.921 Z0.277
X37.977 Y12.337 Z0.273
X38.033 Y12.431 Z0.27
X38.205 Y12.713 Z0.26
X38.264 Y12.806 Z0.257
X38.322 Y12.899 Z0.253
X38.381 Y12.992 Z0.25
X38.386 Z0.452
X38.409 Z0.851
X38.45 Z1.287
X38.509 Z1.725
X38.586 Z2.167
X38.685 Z2.627
X38.803 Z3.082
X38.944 Z3.545
X39.102 Z3.996
X39.282 Z4.448
X39.485 Z4.898
X39.708 Z5.343
X39.953 Z5.783
X40.212 Z6.202
X40.477 Z6.594
X40.806 Z7.039
X41.136 Z7.442
X41.481 Z7.828
X41.85 Z8.205
X42.231 Z8.562
X42.635 Z8.908
X43.053 Z9.235
X43.489 Z9.547
X43.945 Z9.843
X44.411 Z10.117
X44.888 Z10.371
X45.387 Z10.609
X45.892 Z10.824
X46.411 Z11.019
X46.94 Z11.193
X47.472 Z11.344
X47.966 Z11.463
X48.287 Z11.53
X48.656 Z11.598
X49.017 Z11.653
X49.381 Z11.7
X49.784 Z11.74
X50.227 Z11.772
X50.953 Z11.793
X51.612 Z11.779
X51.934 Z11.763
X52.335 Z11.731
X52.719 Z11.69
X53.07 Z11.643
X53.439 Z11.584
X53.817 Z11.512
X54.189 Z11.431
X54.544 Z11.343
X54.906 Z11.243
X55.266 Z11.133
X55.614 Z11.015
X55.97 Z10.884
X56.316 Z10.745
X56.647 Z10.6
X56.984 Z10.441
X57.308 Z10.277
X57.628 Z10.103
X57.938 Z9.923
X58.25 Z9.729
X58.547 Z9.532
X58.838 Z9.327
X59.121 Z9.114
X59.399 Z8.892
X59.672 Z8.661
X59.931 Z8.428
X60.186 Z8.184
X60.434 Z7.933
X60.67 Z7.679
X60.908 Z7.407
X61.189 Z7.064
X61.438 Z6.735
X61.712 Z6.341
X61.893 Z6.06
X62.069 Z5.77
X62.234 Z5.478
X62.39 Z5.182
X62.534 Z4.89
X62.669 Z4.594
X62.797 Z4.292
X62.914 Z3.994
X63.02 Z3.698
X63.115 Z3.406
X63.204 Z3.108
X63.286 Z2.804
X63.359 Z2.501
X63.422 Z2.202
X63.497 Z1.785
X63.556 Z1.359
X63.592 Z1.018
X63.619 Z0.648
X63.632 Z0.25
X63.509 Y13.182
X63.383 Y13.37
X63.256 Y13.557
X63.125 Y13.742
X63.113 Z0.613
X63.09 Z0.937
X63.058 Z1.255
X63.019 Z1.552
X62.972 Z1.851
X62.915 Z2.156
X62.849 Z2.462
X62.764 Z2.803
X62.646 Z3.217
X62.541 Z3.539
X62.428 Z3.851
X62.318 Z4.133
X62.197 Z4.419
X62.066 Z4.704
X61.833 Z5.167
X61.632 Z5.525
X61.46 Z5.809
X61.282 Z6.085
X61.096 Z6.354
X60.903 Z6.618
X60.702 Z6.876
X60.489 Z7.134
X60.27 Z7.384
X60.041 Z7.629
X59.806 Z7.868
X59.559 Z8.103
X59.309 Z8.328
X59.045 Z8.552
X58.776 Z8.766
X58.502 Z8.971
X58.219 Z9.171
X57.935 Z9.359
X57.65 Z9.535
X57.352 Z9.709
X57.038 Z9.879
X56.726 Z10.037
X56.408 Z10.186
X56.077 Z10.33
X55.746 Z10.463
X55.407 Z10.588
X55.076 Z10.7
X54.736 Z10.804
X54.372 Z10.904
X54.054 Z10.983
X53.696 Z11.06
X53.333 Z11.129
X52.963 Z11.188
X52.608 Z11.235
X52.245 Z11.273
X51.874 Z11.302
X51.626 Z11.315
X50.948 Z11.329
X50.266 Z11.31
X49.858 Z11.281
X49.454 Z11.24
X49.053 Z11.188
X48.651 Z11.124
X48.189 Z11.034
X47.624 Z10.9
X47.116 Z10.756
X46.606 Z10.588
X46.112 Z10.402
X45.622 Z10.193
X45.143 Z9.965
X44.678 Z9.717
X44.231 Z9.454
X43.806 Z9.178
X43.388 Z8.88
X42.981 Z8.561
X42.594 Z8.229
X42.222 Z7.88
X41.87 Z7.52
X41.536 Z7.147
X41.222 Z6.762
X40.926 Z6.365
X40.649 Z5.958
X40.394 Z5.544
X40.159 Z5.123
X39.926 Z4.654
X39.749 Z4.259
X39.578 Z3.831
X39.426 Z3.397
X39.291 Z2.952
X39.179 Z2.52
X39.084 Z2.075
X39.01 Z1.648
X38.954 Z1.231
X38.913 Z0.787
X38.892 Z0.434
X38.888 Z0.25
X39.026 Y13.932
X39.167 Y14.119
X39.309 Y14.306
X39.452 Y14.492
X39.455 Z0.382
X39.475 Z0.749
X39.513 Z1.159
X39.566 Z1.559
X39.638 Z1.972
X39.728 Z2.39
X39.836 Z2.811
X39.962 Z3.225
X40.108 Z3.641
X40.275 Z4.06
X40.458 Z4.468
X40.664 Z4.879
X40.889 Z5.282
X41.13 Z5.672
X41.395 Z6.063
X41.676 Z6.441
X41.979 Z6.811
X42.297 Z7.167
X42.636 Z7.515
X42.99 Z7.847
X43.363 Z8.166
X43.747 Z8.467
X44.154 Z8.757
X44.571 Z9.029
X44.995 Z9.278
X45.436 Z9.513
X45.888 Z9.729
X46.355 Z9.928
X46.831 Z10.108
X47.314 Z10.267
X47.811 Z10.408
X48.255 Z10.514
X48.578 Z10.582
X49.086 Z10.67
X49.501 Z10.726
X49.899 Z10.766
X50.298 Z10.795
X50.954 Z10.814
X51.552 Z10.802
X51.913 Z10.783
X52.332 Z10.747
X52.774 Z10.692
X53.148 Z10.635
X53.508 Z10.568
X53.843 Z10.496
X54.176 Z10.415
X54.519 Z10.321
X54.841 Z10.222
X55.173 Z10.111
X55.496 Z9.992
X55.811 Z9.866
X56.121 Z9.731
X56.425 Z9.589
X56.732 Z9.434
X57.021 Z9.277
X57.308 Z9.111
X57.587 Z8.938
X57.869 Z8.752
X58.139 Z8.562
X58.403 Z8.364
X58.658 Z8.161
X58.908 Z7.95
X59.15 Z7.732
X59.384 Z7.509
X59.611 Z7.28
X59.829 Z7.047
X60.036 Z6.811
X60.239 Z6.567
X60.432 Z6.319
X60.618 Z6.065
X60.793 Z5.812
X60.961 Z5.553
X61.119 Z5.293
X61.271 Z5.026
X61.414 Z4.757
X61.548 Z4.486
X61.671 Z4.219
X61.786 Z3.95
X61.893 Z3.679
X61.993 Z3.403
X62.085 Z3.122
X62.171 Z2.835
X62.251 Z2.54
X62.338 Z2.169
X62.422 Z1.723
X62.475 Z1.374
X62.52 Z0.981
X62.547 Z0.64
X62.56 Z0.25
X62.607 Z0.257
X62.649 Z0.279
X62.682 Z0.312
X62.703 Z0.354
X62.71 Z0.4
X62.716 Y14.496 Z0.478
X62.733 Y14.507 Z0.554
X62.76 Y14.526 Z0.625
X62.797 Y14.552 Z0.689
X62.843 Y14.583 Z0.745
X62.896 Y14.619 Z0.79
X62.954 Y14.66 Z0.823
X63.017 Y14.702 Z0.843
X63.081 Y14.747 Z0.85
X63.431 Y14.987
X63.495 Y15.031 Z0.843
X63.558 Y15.074 Z0.823
X63.617 Y15.114 Z0.79
X63.669 Y15.151 Z0.745
X63.715 Y15.182 Z0.689
X63.752 Y15.208 Z0.625
X63.78 Y15.226 Z0.554
X63.796 Y15.238 Z0.478
X63.802 Y15.242 Z0.4
X63.795 Z0.354
X63.773 Z0.312
X63.74 Z0.279
X63.698 Z0.257
X63.652 Z0.25
X63.634 Z0.667
X63.584 Z1.287
X63.498 Z1.933
X63.433 Z2.301
X63.361 Z2.646
X63.286 Z2.964
X63.197 Z3.295
X63.103 Z3.615
X62.998 Z3.937
X62.882 Z4.26
X62.756 Z4.583
X62.622 Z4.9
X62.48 Z5.212
X62.323 Z5.532
X62.157 Z5.846
X61.981 Z6.157
X61.799 Z6.459
X61.604 Z6.762
X61.401 Z7.059
X61.182 Z7.358
X60.959 Z7.645
X60.727 Z7.927
X60.485 Z8.203
X60.237 Z8.471
X59.977 Z8.735
X59.705 Z8.995
X59.429 Z9.244
X59.148 Z9.482
X58.86 Z9.712
X58.563 Z9.936
X58.257 Z10.152
X57.85 Z10.419
X57.369 Z10.707
X56.926 Z10.946
X56.653 Z11.082
X56.362 Z11.218
X56.025 Z11.365
X55.686 Z11.502
X55.348 Z11.627
X55.001 Z11.744
X54.651 Z11.852
X54.31 Z11.946
X53.956 Z12.034
X53.613 Z12.109
X53.268 Z12.174
X52.957 Z12.225
X52.315 Z12.306
X51.638 Z12.357
X51.03 Z12.372
X50.316 Z12.354
X49.626 Z12.299
X48.942 Z12.208
X48.544 Z12.137
X48.212 Z12.068
X47.723 Z11.951
X47.209 Z11.806
X46.693 Z11.636
X46.178 Z11.443
X45.67 Z11.226
X45.174 Z10.989
X44.664 Z10.716
X44.2 Z10.441
X43.774 Z10.163
X43.335 Z9.85
X42.898 Z9.507
X42.474 Z9.145
X42.071 Z8.768
X41.682 Z8.369
X41.313 Z7.957
X40.965 Z7.531
X40.639 Z7.095
X40.331 Z6.64
X40.048 Z6.182
X39.786 Z5.713
X39.546 Z5.236
X39.33 Z4.757
X39.138 Z4.274
X38.967 Z3.787
X38.82 Z3.305
X38.693 Z2.816
X38.585 Z2.317
X38.502 Z1.837
X38.44 Z1.375
X38.395 Z0.906
X38.366 Z0.37
X38.362 Z0.25
X38.181 Y15.308 Z0.252
X38.005 Y15.381 Z0.255
X37.832 Y15.46 Z0.257
X37.663 Y15.547 Z0.26
X37.499 Y15.642 Z0.262
X37.341 Y15.748 Z0.264
X37.188 Y15.863 Z0.267
X37.043 Y15.992 Z0.269
X37.047 Z0.447
X37.076 Z0.979
X37.121 Z1.443
X37.186 Z1.935
X37.27 Z2.43
X37.38 Z2.946
X37.513 Z3.468
X37.669 Z3.989
X37.85 Z4.509
X38.053 Z5.024
X38.282 Z5.536
X38.531 Z6.037
X38.807 Z6.534
X39.103 Z7.017
X39.422 Z7.49
X39.764 Z7.951
X40.125 Z8.397
X40.509 Z8.828
X40.943 Z9.275
X41.38 Z9.684
X41.835 Z10.073
X42.305 Z10.44
X42.778 Z10.777
X43.247 Z11.083
X43.736 Z11.373
X44.234 Z11.64
X44.739 Z11.883
X45.252 Z12.104
X45.832 Z12.324
X46.418 Z12.516
X46.99 Z12.678
X47.694 Z12.844
X48.208 Z12.94
X48.996 Z13.046
X49.889 Z13.117
X50.557 Z13.139
X51.23 Z13.143
X52.013 Z13.124
X52.905 Z13.057
X53.624 Z12.967
X54.146 Z12.879
X54.654 Z12.771
X55.043 Z12.674
X55.435 Z12.564
X55.834 Z12.441
X56.19 Z12.321
X56.522 Z12.199
X57.043 Z11.988
X57.529 Z11.765
X58.022 Z11.516
X58.508 Z11.241
X58.931 Z10.98
X59.266 Z10.758
X59.591 Z10.527
X59.913 Z10.285
X60.224 Z10.036
X60.532 Z9.774
X60.83 Z9.505
X61.152 Z9.196
X61.545 Z8.786
X61.862 Z8.429
X62.227 Z7.984
X62.537 Z7.569
X62.832 Z7.142
X63.137 Z6.654
X63.38 Z6.231
X63.659 Z5.691
X63.869 Z5.241
X64.091 Z4.705
X64.267 Z4.225
X64.443 Z3.677
X64.58 Z3.174
X64.713 Z2.593
X64.808 Z2.072
X64.902 Z1.372
X64.955 Z0.71
X64.969 Z0.272
X65.13 Y16.158 Z0.27
X65.27 Y16.339 Z0.269
X65.393 Y16.532 Z0.267
X65.492 Y16.742 Z0.266
X65.476 Z0.751
X65.42 Z1.425
X65.324 Z2.135
X65.228 Z2.651
X65.097 Z3.221
X64.959 Z3.723
X64.783 Z4.271
X64.608 Z4.751
X64.382 Z5.295
X64.175 Z5.742
X63.893 Z6.287
X63.649 Z6.714
X63.35 Z7.195
X63.041 Z7.643
X62.746 Z8.039
X62.363 Z8.51
X62.042 Z8.871
X61.654 Z9.278
X61.252 Z9.662
X60.886 Z9.986
X60.405 Z10.376
X60.016 Z10.665
X59.554 Z10.983
X59.085 Z11.273
X58.801 Z11.438
X58.481 Z11.612
X58.131 Z11.79
X57.774 Z11.959
X57.418 Z12.114
X56.953 Z12.299
X56.414 Z12.489
X55.909 Z12.643
X55.352 Z12.789
X54.834 Z12.9
X54.282 Z12.994
X53.61 Z13.078
X52.923 Z13.128
X52.289 Z13.143
X49.582 Z13.14
X48.937 Z13.12
X48.266 Z13.064
X47.552 Z12.967
X47.022 Z12.868
X46.343 Z12.708
X45.801 Z12.552
X45.279 Z12.379
X44.763 Z12.182
X44.264 Z11.969
X43.754 Z11.726
X43.235 Z11.45
X42.699 Z11.132
X42.215 Z10.816
X41.747 Z10.48
X41.291 Z10.121
X40.852 Z9.742
X40.43 Z9.345
X40.024 Z8.927
X39.637 Z8.491
X39.272 Z8.042
X38.926 Z7.575
X38.603 Z7.097
X38.302 Z6.605
X38.025 Z6.105
X37.772 Z5.599
X37.542 Z5.083
X37.335 Z4.56
X37.153 Z4.036
X36.995 Z3.51
X36.861 Z2.983
X36.748 Z2.452
X36.66 Z1.936
X36.594 Z1.422
X36.548 Z0.914
X36.523 Z0.433
X36.521 Z0.272
X36.455 Y16.923 Z0.271
X36.409 Y17.109
X36.38 Y17.299
X36.368 Y17.492 Z0.27
X36.371 Z0.38
X36.397 Z0.903
X36.443 Z1.416
X36.509 Z1.932
X36.598 Z2.459
X36.711 Z2.989
X36.845 Z3.517
X37.005 Z4.047
X37.187 Z4.571
X37.394 Z5.094
X37.624 Z5.609
X37.878 Z6.12
X38.155 Z6.619
X38.457 Z7.111
X38.781 Z7.592
X39.127 Z8.058
X39.492 Z8.508
X39.881 Z8.946
X40.287 Z9.363
X40.711 Z9.763
X41.152 Z10.143
X41.608 Z10.502
X42.077 Z10.839
X42.56 Z11.155
X43.053 Z11.447
X43.554 Z11.715
X44.062 Z11.96
X44.575 Z12.181
X45.096 Z12.379
X45.617 Z12.552
X46.159 Z12.708
X46.849 Z12.871
X47.364 Z12.966
X48.084 Z13.064
X48.76 Z13.12
X49.373 Z13.14
X52.459 Z13.143
X53.151 Z13.127
X53.8 Z13.078
X54.604 Z12.974
X55.125 Z12.879
X55.714 Z12.745
X56.212 Z12.609
X56.777 Z12.429
X57.253 Z12.255
X57.809 Z12.025
X58.257 Z11.817
X58.787 Z11.545
X59.223 Z11.296
X59.695 Z11.003
X60.157 Z10.686
X60.546 Z10.396
X61.031 Z10.003
X61.395 Z9.681
X61.801 Z9.294
X62.187 Z8.888
X62.508 Z8.526
X62.892 Z8.054
X63.188 Z7.657
X63.495 Z7.212
X63.794 Z6.731
X64.037 Z6.307
X64.321 Z5.756
X64.529 Z5.309
X64.755 Z4.765
X64.932 Z4.282
X65.108 Z3.734
X65.247 Z3.227
X65.378 Z2.657
X65.474 Z2.142
X65.572 Z1.421
X65.626 Z0.761
X65.645 Z0.267
X65.638 Y17.683 Z0.263
X65.614 Y17.872 Z0.258
X65.575 Y18.058 Z0.254
X65.519 Y18.241 Z0.25
X65.504 Z0.741
X65.448 Z1.421
X65.352 Z2.132
X65.257 Z2.64
X65.126 Z3.212
X64.989 Z3.714
X64.813 Z4.263
X64.639 Z4.739
X64.412 Z5.288
X64.204 Z5.735
X63.926 Z6.275
X63.681 Z6.705
X63.385 Z7.181
X63.072 Z7.634
X62.779 Z8.028
X62.392 Z8.504
X62.072 Z8.865
X61.686 Z9.27
X61.284 Z9.654
X60.922 Z9.974
X60.695 Z10.163
X60.44 Z10.366
X60.142 Z10.59
X59.822 Z10.817
X59.494 Z11.035
X59.16 Z11.243
X58.823 Z11.44
X58.482 Z11.626
X58.033 Z11.851
X57.522 Z12.083
X57.02 Z12.284
X56.498 Z12.471
X55.966 Z12.634
X55.426 Z12.777
X54.9 Z12.891
X54.359 Z12.986
X53.653 Z13.075
X52.933 Z13.127
X52.208 Z13.143
X49.596 Z13.14
X48.939 Z13.119
X48.228 Z13.06
X47.514 Z12.963
X46.992 Z12.866
X46.307 Z12.705
X45.768 Z12.55
X45.246 Z12.377
X44.726 Z12.179
X44.212 Z11.958
X43.703 Z11.713
X43.229 Z11.461
X42.732 Z11.168
X42.242 Z10.85
X41.762 Z10.508
X41.3 Z10.147
X40.855 Z9.766
X40.4 Z9.339
X39.993 Z8.919
X39.608 Z8.486
X39.242 Z8.036
X38.897 Z7.57
X38.574 Z7.092
X38.274 Z6.602
X37.997 Z6.103
X37.742 Z5.592
X37.513 Z5.077
X37.307 Z4.557
X37.125 Z4.033
X36.968 Z3.508
X36.833 Z2.981
X36.72 Z2.45
X36.633 Z1.933
X36.566 Z1.419
X36.521 Z0.91
X36.496 Z0.42
X36.493 Z0.268
X36.568 Y18.437 Z0.264
X36.655 Y18.627 Z0.259
X36.754 Y18.811 Z0.255
X36.859 Y18.991 Z0.25
X36.863 Z0.444
X36.889 Z0.936
X36.936 Z1.442
X37.004 Z1.951
X37.09 Z2.447
X37.193 Z2.93
X37.325 Z3.446
X37.482 Z3.966
X37.66 Z4.481
X37.88 Z5.035
X38.108 Z5.543
X38.361 Z6.045
X38.64 Z6.544
X38.939 Z7.029
X39.262 Z7.502
X39.61 Z7.968
X39.97 Z8.409
X40.335 Z8.818
X40.737 Z9.232
X41.189 Z9.657
X41.642 Z10.045
X42.108 Z10.409
X42.581 Z10.746
X43.045 Z11.048
X43.572 Z11.361
X44.098 Z11.64
X44.64 Z11.899
X45.175 Z12.126
X45.707 Z12.327
X46.33 Z12.53
X46.966 Z12.705
X47.582 Z12.845
X48.114 Z12.942
X48.956 Z13.054
X49.717 Z13.117
X50.316 Z13.136
X51.316 Z13.142
X52.197 Z13.123
X52.946 Z13.066
X53.755 Z12.963
X54.292 Z12.873
X54.808 Z12.763
X55.197 Z12.666
X55.603 Z12.554
X56.029 Z12.422
X56.572 Z12.23
X57.041 Z12.044
X57.418 Z11.879
X57.789 Z11.703
X58.22 Z11.484
X58.709 Z11.207
X59.133 Z10.946
X59.467 Z10.724
X59.792 Z10.494
X60.109 Z10.255
X60.419 Z10.006
X60.723 Z9.748
X61.097 Z9.408
X61.477 Z9.032
X61.815 Z8.671
X62.071 Z8.378
X62.318 Z8.078
X62.557 Z7.771
X62.782 Z7.462
X62.999 Z7.145
X63.205 Z6.824
X63.401 Z6.5
X63.586 Z6.171
X63.762 Z5.836
X63.932 Z5.488
X64.135 Z5.036
X64.328 Z4.552
X64.515 Z4.025
X64.671 Z3.515
X64.815 Z2.961
X64.925 Z2.448
X64.995 Z2.055
X65.089 Z1.346
X65.142 Z0.676
X65.154 Z0.25
X65.035 Y19.181
X64.911 Y19.369
X64.787 Y19.555
X64.662 Y19.741
X64.65 Z0.658
X64.598 Z1.316
X64.509 Z1.981
X64.443 Z2.35
X64.371 Z2.695
X64.293 Z3.027
X64.205 Z3.358
X64.107 Z3.69
X63.999 Z4.021
X63.883 Z4.344
X63.754 Z4.677
X63.617 Z5.002
X63.468 Z5.327
X63.312 Z5.647
X63.142 Z5.968
X62.963 Z6.286
X62.775 Z6.598
X62.575 Z6.908
X62.365 Z7.215
X62.143 Z7.518
X61.916 Z7.811
X61.677 Z8.102
X61.427 Z8.387
X61.17 Z8.664
X60.902 Z8.936
X60.625 Z9.201
X60.341 Z9.458
X60.046 Z9.709
X59.745 Z9.949
X59.432 Z10.185
X59.106 Z10.415
X58.793 Z10.623
X58.459 Z10.831
X58.121 Z11.028
X57.772 Z11.219
X57.422 Z11.397
X57.064 Z11.566
X56.705 Z11.723
X56.336 Z11.872
X55.964 Z12.01
X55.582 Z12.14
X55.193 Z12.26
X54.809 Z12.366
X54.421 Z12.463
X54.052 Z12.544
X53.646 Z12.622
X53.286 Z12.68
X52.534 Z12.776
X51.741 Z12.835
X51.016 Z12.853
X50.187 Z12.831
X49.403 Z12.768
X48.619 Z12.664
X48.155 Z12.582
X47.783 Z12.505
X47.235 Z12.374
X46.661 Z12.212
X46.095 Z12.026
X45.533 Z11.814
X44.99 Z11.583
X44.461 Z11.331
X43.939 Z11.054
X43.428 Z10.753
X42.939 Z10.436
X42.466 Z10.099
X42.01 Z9.742
X41.569 Z9.365
X41.15 Z8.973
X40.748 Z8.562
X40.367 Z8.136
X40.012 Z7.701
X39.675 Z7.25
X39.363 Z6.791
X39.07 Z6.317
X38.804 Z5.842
X38.558 Z5.353
X38.339 Z4.866
X38.14 Z4.369
X37.966 Z3.873
X37.813 Z3.37
X37.683 Z2.87
X37.575 Z2.37
X37.489 Z1.874
X37.424 Z1.383
X37.38 Z0.911
X37.354 Z0.419
X37.351 Z0.25
X37.475 Y19.928 Z0.252
X37.598 Y20.114 Z0.255
X37.718 Y20.303 Z0.257
X37.839 Y20.491 Z0.259
X37.842 Z0.423
X37.868 Z0.888
X37.909 Z1.326
X37.971 Z1.794
X38.055 Z2.275
X38.159 Z2.76
X38.284 Z3.238
X38.428 Z3.71
X38.595 Z4.187
X38.785 Z4.662
X38.997 Z5.134
X39.23 Z5.597
X39.488 Z6.06
X39.764 Z6.506
X40.066 Z6.95
X40.388 Z7.382
X40.732 Z7.803
X41.093 Z8.207
X41.478 Z8.601
X41.88 Z8.977
X42.308 Z9.344
X42.754 Z9.692
X43.21 Z10.018
X43.683 Z10.324
X44.171 Z10.612
X44.674 Z10.879
X45.194 Z11.127
X45.722 Z11.352
X46.257 Z11.553
X46.815 Z11.737
X47.368 Z11.893
X47.9 Z12.02
X48.269 Z12.097
X48.715 Z12.176
X49.475 Z12.277
X50.222 Z12.337
X50.953 Z12.357
X51.714 Z12.341
X52.466 Z12.285
X53.195 Z12.192
X53.519 Z12.139
X53.911 Z12.064
X54.293 Z11.98
X54.671 Z11.886
X55.043 Z11.783
X55.413 Z11.669
X55.778 Z11.546
X56.15 Z11.408
X56.503 Z11.266
X56.855 Z11.112
X57.199 Z10.949
X57.543 Z10.775
X57.875 Z10.594
X58.201 Z10.404
X58.524 Z10.203
X58.837 Z9.995
X59.143 Z9.779
X59.441 Z9.555
X59.745 Z9.311
X60.027 Z9.072
X60.299 Z8.827
X60.563 Z8.575
X60.822 Z8.311
X61.067 Z8.048
X61.309 Z7.772
X61.537 Z7.495
X61.757 Z7.212
X61.968 Z6.923
X62.167 Z6.633
X62.36 Z6.335
X62.542 Z6.033
X62.714 Z5.729
X62.876 Z5.421
X63.027 Z5.114
X63.169 Z4.803
X63.303 Z4.486
X63.422 Z4.179
X63.535 Z3.865
X63.64 Z3.545
X63.734 Z3.225
X63.817 Z2.917
X63.892 Z2.601
X63.961 Z2.27
X64.026 Z1.905
X64.112 Z1.264
X64.162 Z0.64
X64.174 Z0.25
X64.059 Y20.677
X63.947 Y20.864
X63.836 Y21.052
X63.726 Y21.241
X63.717 Z0.548
X63.667 Z1.198
X63.584 Z1.82
X63.519 Z2.185
X63.453 Z2.499
X63.381 Z2.803
X63.299 Z3.109
X63.207 Z3.417
X63.108 Z3.719
X63.002 Z4.015
X62.885 Z4.313
X62.758 Z4.614
X62.622 Z4.911
X62.475 Z5.21
X62.319 Z5.505
X62.157 Z5.791
X61.982 Z6.081
X61.797 Z6.368
X61.604 Z6.648
X61.4 Z6.927
X61.192 Z7.194
X60.971 Z7.462
X60.741 Z7.725
X60.504 Z7.979
X60.261 Z8.226
X60.006 Z8.47
X59.742 Z8.707
X59.47 Z8.938
X59.192 Z9.159
X58.885 Z9.39
X58.594 Z9.595
X58.297 Z9.793
X57.985 Z9.986
X57.676 Z10.167
X57.35 Z10.344
X57.025 Z10.508
X56.688 Z10.667
X56.35 Z10.815
X56.005 Z10.954
X55.658 Z11.082
X55.301 Z11.203
X54.942 Z11.313
X54.58 Z11.414
X54.215 Z11.504
X53.844 Z11.585
X53.452 Z11.659
X53.123 Z11.713
X52.427 Z11.801
X51.694 Z11.856
X50.96 Z11.872
X50.24 Z11.851
X49.506 Z11.793
X48.762 Z11.693
X48.321 Z11.615
X47.955 Z11.539
X47.447 Z11.417
X46.915 Z11.267
X46.379 Z11.09
X45.859 Z10.895
X45.348 Z10.677
X44.849 Z10.439
X44.365 Z10.181
X43.9 Z9.907
X43.444 Z9.611
X43.002 Z9.297
X42.566 Z8.955
X42.162 Z8.609
X41.776 Z8.248
X41.408 Z7.871
X41.062 Z7.484
X40.733 Z7.081
X40.422 Z6.664
X40.135 Z6.242
X39.866 Z5.806
X39.624 Z5.373
X39.398 Z4.922
X39.195 Z4.472
X39.012 Z4.013
X38.854 Z3.562
X38.713 Z3.098
X38.595 Z2.644
X38.496 Z2.188
X38.416 Z1.726
X38.357 Z1.282
X38.316 Z0.845
X38.293 Z0.447
X38.289 Z0.265
X38.394 Y21.427 Z0.264
X38.497 Y21.614 Z0.263
X38.6 Y21.801 Z0.262
X38.699 Y21.991 Z0.261
X38.701 Z0.367
X38.724 Z0.8
X38.763 Z1.214
X38.822 Z1.66
X38.896 Z2.089
X38.992 Z2.533
X39.106 Z2.977
X39.241 Z3.421
X39.393 Z3.854
X39.57 Z4.297
X39.763 Z4.725
X39.979 Z5.157
X40.214 Z5.578
X40.472 Z5.997
X40.749 Z6.405
X41.046 Z6.802
X41.36 Z7.186
X41.697 Z7.564
X42.057 Z7.933
X42.429 Z8.281
X42.816 Z8.612
X43.224 Z8.932
X43.646 Z9.233
X44.08 Z9.515
X44.533 Z9.782
X44.998 Z10.03
X45.477 Z10.258
X45.966 Z10.467
X46.476 Z10.659
X46.994 Z10.829
X47.528 Z10.98
X48.027 Z11.1
X48.378 Z11.173
X48.803 Z11.249
X49.533 Z11.346
X50.257 Z11.404
X51.039 Z11.424
X51.684 Z11.408
X52.399 Z11.355
X53.083 Z11.268
X53.393 Z11.218
X53.757 Z11.149
X54.115 Z11.072
X54.471 Z10.984
X54.846 Z10.881
X55.207 Z10.77
X55.555 Z10.653
X55.885 Z10.531
X56.223 Z10.395
X56.547 Z10.254
X56.872 Z10.101
X57.183 Z9.943
X57.498 Z9.773
X57.795 Z9.6
X58.096 Z9.413
X58.383 Z9.223
X58.669 Z9.022
X58.943 Z8.816
X59.211 Z8.602
X59.47 Z8.383
X59.726 Z8.153
X59.973 Z7.918
X60.212 Z7.675
X60.444 Z7.426
X60.663 Z7.176
X60.877 Z6.918
X61.081 Z6.655
X61.275 Z6.392
X61.46 Z6.122
X61.635 Z5.851
X61.803 Z5.574
X61.961 Z5.294
X62.111 Z5.011
X62.252 Z4.726
X62.381 Z4.444
X62.499 Z4.166
X62.612 Z3.878
X62.712 Z3.601
X62.805 Z3.321
X62.891 Z3.037
X62.97 Z2.746
X63.043 Z2.449
X63.106 Z2.154
X63.178 Z1.76
X63.258 Z1.162
X63.302 Z0.608
X63.313 Z0.25
X63.219 Y22.178
X63.122 Y22.364
X63.029 Y22.552
X62.938 Y22.741
X62.926 Z0.569
X62.882 Z1.12
X62.805 Z1.695
X62.742 Z2.041
X62.68 Z2.338
X62.607 Z2.639
X62.528 Z2.928
X62.442 Z3.213
X62.349 Z3.491
X62.249 Z3.766
X62.141 Z4.038
X62.027 Z4.307
X61.904 Z4.574
X61.769 Z4.845
X61.626 Z5.115
X61.474 Z5.382
X61.313 Z5.649
X61.145 Z5.908
X60.963 Z6.172
X60.777 Z6.426
X60.583 Z6.674
X60.377 Z6.922
X60.166 Z7.163
X59.945 Z7.399
X59.718 Z7.629
X59.484 Z7.852
X59.237 Z8.073
X58.987 Z8.285
X58.732 Z8.488
X58.468 Z8.686
X58.198 Z8.876
X57.915 Z9.063
X57.631 Z9.239
X57.339 Z9.408
X57.043 Z9.569
X56.737 Z9.723
X56.406 Z9.879
X56.089 Z10.017
X55.758 Z10.15
X55.436 Z10.269
X55.095 Z10.383
X54.754 Z10.487
X54.411 Z10.582
X54.055 Z10.669
X53.708 Z10.744
X53.359 Z10.809
X53.046 Z10.86
X52.4 Z10.942
X51.692 Z10.995
X50.999 Z11.012
X50.271 Z10.993
X49.547 Z10.935
X48.829 Z10.839
X48.405 Z10.763
X48.069 Z10.693
X47.589 Z10.578
X47.08 Z10.434
X46.58 Z10.269
X46.088 Z10.084
X45.614 Z9.882
X45.13 Z9.651
X44.677 Z9.41
X44.247 Z9.156
X43.824 Z8.881
X43.422 Z8.594
X43.033 Z8.289
X42.66 Z7.969
X42.301 Z7.633
X41.961 Z7.285
X41.639 Z6.924
X41.336 Z6.553
X41.051 Z6.171
X40.785 Z5.779
X40.54 Z5.382
X40.312 Z4.973
X40.102 Z4.555
X39.916 Z4.14
X39.746 Z3.714
X39.6 Z3.297
X39.468 Z2.863
X39.359 Z2.443
X39.267 Z2.012
X39.195 Z1.601
X39.139 Z1.176
X39.101 Z0.768
X39.081 Z0.415
X39.078 Z0.25
X39.166 Y22.927
X39.254 Y23.115
X39.34 Y23.302
X39.425 Y23.491
X39.427 Z0.396
X39.448 Z0.748
X39.483 Z1.129
X39.536 Z1.533
X39.607 Z1.945
X39.694 Z2.349
X39.803 Z2.77
X39.926 Z3.173
X40.068 Z3.581
X40.232 Z3.993
X40.412 Z4.394
X40.613 Z4.793
X40.831 Z5.184
X41.069 Z5.57
X41.324 Z5.946
X41.598 Z6.314
X41.893 Z6.676
X42.203 Z7.023
X42.538 Z7.366
X42.884 Z7.69
X43.244 Z7.999
X43.618 Z8.292
X44.01 Z8.572
X44.412 Z8.834
X44.831 Z9.081
X45.265 Z9.312
X45.71 Z9.524
X46.168 Z9.72
X46.644 Z9.899
X47.124 Z10.058
X47.62 Z10.198
X48.088 Z10.311
X48.431 Z10.384
X48.868 Z10.462
X49.574 Z10.556
X50.26 Z10.611
X50.982 Z10.632
X51.672 Z10.616
X52.35 Z10.565
X52.733 Z10.519
X53.162 Z10.46
X53.577 Z10.385
X53.947 Z10.307
X54.333 Z10.214
X54.679 Z10.12
X55.013 Z10.019
X55.337 Z9.911
X55.661 Z9.792
X55.979 Z9.666
X56.288 Z9.532
X56.594 Z9.389
X56.887 Z9.241
X57.177 Z9.084
X57.458 Z8.921
X57.731 Z8.752
X58.004 Z8.573
X58.264 Z8.39
X58.52 Z8.199
X58.769 Z8.
X59.011 Z7.796
X59.248 Z7.583
X59.474 Z7.369
X59.702 Z7.139
X59.914 Z6.911
X60.118 Z6.68
X60.313 Z6.445
X60.503 Z6.202
X60.685 Z5.954
X60.857 Z5.706
X61.017 Z5.458
X61.172 Z5.204
X61.318 Z4.949
X61.454 Z4.693
X61.588 Z4.422
X61.712 Z4.156
X61.83 Z3.879
X61.94 Z3.598
X62.049 Z3.294
X62.175 Z2.897
X62.266 Z2.567
X62.339 Z2.269
X62.402 Z1.973
X62.461 Z1.644
X62.536 Z1.092
X62.58 Z0.547
X62.589 Z0.25
X62.507 Y23.678
X62.424 Y23.864
X62.345 Y24.052
X62.267 Y24.241
X62.258 Z0.531
X62.217 Z1.046
X62.143 Z1.594
X62.083 Z1.923
X62.02 Z2.217
X61.935 Z2.56
X61.828 Z2.928
X61.73 Z3.229
X61.63 Z3.505
X61.522 Z3.776
X61.407 Z4.044
X61.284 Z4.308
X61.153 Z4.571
X61.013 Z4.83
X60.86 Z5.094
X60.677 Z5.389
X60.446 Z5.729
X60.253 Z5.993
X60.067 Z6.231
X59.876 Z6.461
X59.676 Z6.688
X59.471 Z6.907
X59.26 Z7.12
X59.039 Z7.33
X58.814 Z7.531
X58.582 Z7.727
X58.341 Z7.918
X58.096 Z8.101
X57.845 Z8.277
X57.584 Z8.449
X57.315 Z8.615
X57.024 Z8.784
X56.739 Z8.937
X56.451 Z9.082
X56.166 Z9.215
X55.863 Z9.346
X55.552 Z9.469
X55.244 Z9.581
X54.928 Z9.686
X54.594 Z9.787
X54.256 Z9.879
X53.903 Z9.963
X53.516 Z10.044
X53.043 Z10.125
X52.36 Z10.212
X51.684 Z10.263
X51.012 Z10.279
X50.292 Z10.261
X49.578 Z10.204
X48.879 Z10.111
X48.468 Z10.037
X48.134 Z9.968
X47.679 Z9.858
X47.195 Z9.721
X46.732 Z9.568
X46.272 Z9.395
X45.822 Z9.203
X45.39 Z8.996
X44.975 Z8.775
X44.546 Z8.522
X44.161 Z8.271
X43.783 Z8.001
X43.423 Z7.719
X43.077 Z7.422
X42.747 Z7.113
X42.429 Z6.786
X42.13 Z6.451
X41.85 Z6.108
X41.583 Z5.75
X41.335 Z5.384
X41.105 Z5.01
X40.896 Z4.636
X40.7 Z4.244
X40.527 Z3.859
X40.369 Z3.462
X40.232 Z3.071
X40.11 Z2.667
X40.007 Z2.268
X39.923 Z1.879
X39.855 Z1.483
X39.805 Z1.108
X39.77 Z0.735
X39.748 Z0.326
X39.747 Z0.25
X39.825 Y24.427 Z0.251
X39.899 Y24.615
X39.973 Y24.803 Z0.252
X40.048 Y24.991 Z0.253
X40.049 Z0.36
X40.067 Z0.67
X40.102 Z1.059
X40.152 Z1.44
X40.217 Z1.816
X40.298 Z2.193
X40.398 Z2.582
X40.515 Z2.966
X40.648 Z3.348
X40.803 Z3.737
X40.97 Z4.109
X41.157 Z4.482
X41.362 Z4.851
X41.586 Z5.214
X41.827 Z5.569
X42.083 Z5.913
X42.355 Z6.247
X42.645 Z6.572
X42.948 Z6.882
X43.269 Z7.184
X43.605 Z7.472
X43.956 Z7.747
X44.317 Z8.006
X44.692 Z8.249
X45.082 Z8.48
X45.485 Z8.694
X45.903 Z8.894
X46.339 Z9.08
X46.804 Z9.256
X47.265 Z9.408
X47.73 Z9.54
X48.157 Z9.643
X48.487 Z9.712
X48.904 Z9.787
X49.593 Z9.879
X50.305 Z9.935
X51.04 Z9.953
X51.676 Z9.937
X52.347 Z9.886
X52.875 Z9.82
X53.193 Z9.773
X53.565 Z9.705
X53.93 Z9.627
X54.284 Z9.54
X54.687 Z9.427
X55.099 Z9.295
X55.428 Z9.176
X55.771 Z9.041
X56.068 Z8.914
X56.354 Z8.781
X56.629 Z8.643
X56.896 Z8.5
X57.162 Z8.347
X57.419 Z8.189
X57.671 Z8.023
X57.917 Z7.851
X58.153 Z7.676
X58.389 Z7.489
X58.617 Z7.297
X58.833 Z7.104
X59.047 Z6.902
X59.254 Z6.694
X59.451 Z6.483
X59.639 Z6.27
X59.823 Z6.05
X60.002 Z5.822
X60.174 Z5.59
X60.342 Z5.347
X60.506 Z5.093
X60.699 Z4.773
X60.879 Z4.443
X61.014 Z4.175
X61.14 Z3.902
X61.261 Z3.619
X61.39 Z3.287
X61.511 Z2.932
X61.6 Z2.638
X61.679 Z2.346
X61.761 Z2.001
X61.847 Z1.537
X61.918 Z1.007
X61.951 Z0.598
X61.971 Z0.263
X61.897 Y25.177 Z0.26
X61.827 Y25.364 Z0.257
X61.759 Y25.553 Z0.254
X61.689 Y25.74 Z0.25
X61.678 Z0.516
X61.64 Z0.987
X61.572 Z1.492
X61.515 Z1.805
X61.45 Z2.11
X61.349 Z2.501
X61.261 Z2.798
X61.161 Z3.094
X61.027 Z3.453
X60.899 Z3.755
X60.773 Z4.027
X60.645 Z4.284
X60.494 Z4.562
X60.287 Z4.913
X60.115 Z5.178
X59.951 Z5.415
X59.779 Z5.647
X59.604 Z5.871
X59.42 Z6.09
X59.231 Z6.303
X59.038 Z6.508
X58.838 Z6.708
X58.632 Z6.901
X58.42 Z7.09
X58.195 Z7.278
X57.963 Z7.461
X57.72 Z7.64
X57.445 Z7.829
X57.088 Z8.055
X56.796 Z8.225
X56.518 Z8.374
X56.235 Z8.516
X55.941 Z8.651
X55.617 Z8.788
X55.196 Z8.948
X54.857 Z9.063
X54.524 Z9.164
X54.153 Z9.264
X53.771 Z9.354
X53.307 Z9.447
X52.963 Z9.503
X52.332 Z9.582
X51.652 Z9.633
X51.081 Z9.648
X50.391 Z9.634
X49.917 Z9.601
X49.547 Z9.567
X48.922 Z9.483
X48.514 Z9.41
X48.196 Z9.343
X47.757 Z9.237
X47.284 Z9.103
X46.842 Z8.957
X46.408 Z8.793
X45.994 Z8.616
X45.591 Z8.423
X45.201 Z8.215
X44.828 Z7.995
X44.459 Z7.754
X44.113 Z7.506
X43.772 Z7.239
X43.448 Z6.962
X43.137 Z6.669
X42.842 Z6.366
X42.564 Z6.055
X42.299 Z5.73
X42.047 Z5.391
X41.813 Z5.046
X41.596 Z4.694
X41.402 Z4.344
X41.218 Z3.979
X41.054 Z3.613
X40.909 Z3.247
X40.779 Z2.875
X40.666 Z2.501
X40.569 Z2.125
X40.491 Z1.764
X40.426 Z1.384
X40.379 Z1.028
X40.347 Z0.684
X40.327 Z0.308
X40.326 Z0.25
X40.392 Y25.928 Z0.254
X40.458 Y26.115 Z0.259
X40.523 Y26.302 Z0.263
X40.586 Y26.49 Z0.267
Z0.284
X40.604 Z0.635
X40.636 Z0.99
X40.683 Z1.348
X40.745 Z1.709
X40.823 Z2.07
X40.913 Z2.421
X41.023 Z2.786
X41.15 Z3.151
X41.293 Z3.508
X41.45 Z3.859
X41.627 Z4.213
X41.819 Z4.557
X42.029 Z4.899
X42.255 Z5.233
X42.493 Z5.552
X42.75 Z5.868
X43.021 Z6.172
X43.307 Z6.466
X43.607 Z6.747
X43.921 Z7.017
X44.257 Z7.28
X44.599 Z7.525
X44.951 Z7.754
X45.312 Z7.968
X45.69 Z8.169
X46.08 Z8.356
X46.486 Z8.53
X46.904 Z8.688
X47.338 Z8.831
X47.78 Z8.957
X48.182 Z9.054
X48.513 Z9.123
