(Resterende bonder)
(Machine)
(  vendor: Autodesk)
(  model: Generic 3-axis)
(  description: This machine has XYZ axis on the Head)
(T2  D=3. CR=0. - ZMIN=0. - flat end mill)
G90

(2D Contour5)
T2 M6 (flat end mill D=3.)
S15000 M3
G64
G54
G43 H2
G0 Z30.
G0 X102.739 Y53.331
Z31.243
Z21.243
G1 Z17.243 F133.3
Z0.55
X102.735 Y53.325 Z0.483 F400
X102.722 Y53.307 Z0.42
X102.701 Y53.278 Z0.363
X102.673 Y53.24 Z0.315
X102.639 Y53.194 Z0.28
X102.602 Y53.142 Z0.258
X102.562 Y53.089 Z0.25
X102.386 Y52.846
G3 X102.332 Y52.623 I0.242 J-0.177
X102.451 Y52.427 I0.296 J0.046
G2 X102.662 Y52.246 I-1.061 J-1.454
G1 X103.272 Y51.636
G2 X103.8 Y50.363 I-1.272 J-1.273
G1 Y48.534
G2 X103.272 Y47.261 I-1.8 J0.
G1 X102.662 Y46.651
X102.597 Y46.589
X102.528 Y46.53
X102.551 Y46.414
X102.625 Y45.948
X102.639 Y45.835
X102.661 Y45.602
X102.667 Y45.511
X102.677 Y45.279
X102.679 Y45.186
X102.677 Y44.955
X102.673 Y44.845
X102.657 Y44.617
X102.646 Y44.514
X102.617 Y44.288
X102.597 Y44.163
X102.552 Y43.939
X102.527 Y43.832
X102.468 Y43.61
X102.434 Y43.497
X102.359 Y43.274
X102.327 Y43.186
X102.238 Y42.961
X102.206 Y42.885
X102.103 Y42.656
X102.075 Y42.598
X101.959 Y42.363
X101.938 Y42.322
X101.81 Y42.078
X101.798 Y42.055
X101.66 Y41.801
X101.648 Y41.78
X101.5 Y41.516
X101.496 Y41.51
X101.34 Y41.233
X101.338 Y41.231
X101.175 Y40.943
X101.174 Y40.942
X100.83 Y40.338
X100.825 Y40.329
X100.466 Y39.706
X100.452 Y39.683
X100.086 Y39.069
X100.068 Y39.039
X99.884 Y38.745
X99.868 Y38.719
X99.685 Y38.436
X99.666 Y38.407
X99.485 Y38.139
X99.464 Y38.108
X99.286 Y37.855
X99.265 Y37.827
X99.091 Y37.59
X99.074 Y37.566
X98.905 Y37.344
X98.895 Y37.331
X98.734 Y37.123
X98.598 Y36.946
X98.366 Y36.622
X98.3 Y36.516
X98.241 Y36.407
X98.193 Y36.3
X98.15 Y36.183
X98.112 Y36.05
X98.079 Y35.897
X98.054 Y35.726
X98.038 Y35.539
X98.032 Y35.341
X98.038 Y35.138
X98.055 Y34.935
X98.084 Y34.739
X98.123 Y34.553
X98.17 Y34.384
X98.224 Y34.231
X98.283 Y34.097
X98.345 Y33.981
X98.411 Y33.88
X98.481 Y33.792
X98.556 Y33.712
X98.64 Y33.639
X98.797 Y33.523
G2 X99.183 Y31.007 I-1.065 J-1.451
X98.637 Y30.516 I-1.451 J1.065
G1 X98.49 Y30.431
X98.352 Y30.347
X98.206 Y30.253
X98.052 Y30.15
X97.892 Y30.039
X97.726 Y29.919
X97.557 Y29.791
X97.384 Y29.656
X97.211 Y29.513
X97.038 Y29.362
X96.868 Y29.205
X96.7 Y29.04
X96.536 Y28.866
X96.378 Y28.684
X96.224 Y28.491
X96.075 Y28.286
X95.932 Y28.067
X95.794 Y27.832
X95.662 Y27.579
X95.536 Y27.305
X95.415 Y27.01
X95.301 Y26.693
X95.195 Y26.352
X95.097 Y25.988
X95.008 Y25.601
X94.927 Y25.19
X94.857 Y24.757
X94.796 Y24.301
X94.761 Y23.983
X95.127 Y23.937
X95.197 Y23.927
X95.914 Y23.808
X95.976 Y23.797
X96.698 Y23.652
X96.752 Y23.64
X97.464 Y23.474
X97.505 Y23.464
X97.849 Y23.375
X97.884 Y23.366
X98.214 Y23.273
X98.258 Y23.261
X98.57 Y23.165
X98.633 Y23.144
X98.919 Y23.045
X99.015 Y23.008
X99.267 Y22.904
X99.372 Y22.857
X99.482 Y22.803
X99.577 Y22.753
X99.676 Y22.697
X99.796 Y22.622
X99.882 Y22.565
X99.959 Y22.509
X100.034 Y22.45
X100.105 Y22.39
G2 X100.286 Y22.215 I-1.158 J-1.378
G1 X100.342 Y22.152
G2 X100.541 Y21.884 I-1.34 J-1.202
G1 X100.581 Y21.819
G2 X100.755 Y21.438 I-1.538 J-0.934
G1 X100.777 Y21.37
G2 X100.862 Y20.908 I-1.713 J-0.553
G1 X100.866 Y20.837
G2 X100.828 Y20.369 I-1.798 J-0.091
G1 X100.812 Y20.295
G2 X100.687 Y19.918 I-1.76 J0.376
G1 X100.651 Y19.84
G2 X100.494 Y19.565 I-1.635 J0.753
G1 X100.437 Y19.484
X100.365 Y19.388
X100.287 Y19.296
X100.209 Y19.211
X100.147 Y19.146
X100.081 Y19.084
X99.981 Y18.995
X99.874 Y18.907
X99.753 Y18.814
X99.665 Y18.751
X99.521 Y18.654
X99.449 Y18.608
X99.282 Y18.507
X99.223 Y18.473
X99.034 Y18.368
X98.984 Y18.341
X98.772 Y18.232
X98.729 Y18.211
X98.494 Y18.098
X98.458 Y18.081
X98.2 Y17.964
X98.17 Y17.95
X97.889 Y17.829
X97.863 Y17.818
X97.559 Y17.692
X97.535 Y17.682
X97.209 Y17.553
X97.188 Y17.544
X97.02 Y17.48
X97.092 Y17.419
X97.199 Y17.324
X97.293 Y17.234
X97.397 Y17.127
X97.479 Y17.036
X97.58 Y16.917
X97.649 Y16.831
X97.747 Y16.7
X97.805 Y16.618
X97.9 Y16.475
X97.948 Y16.399
X98.041 Y16.243
X98.078 Y16.176
X98.169 Y16.008
X98.2 Y15.948
X98.288 Y15.768
X98.314 Y15.714
X98.4 Y15.523
X98.42 Y15.476
X98.504 Y15.274
X98.529 Y15.213
X98.691 Y14.779
X98.715 Y14.712
X98.869 Y14.242
X98.886 Y14.188
X99.034 Y13.687
X99.046 Y13.643
X99.187 Y13.117
X99.196 Y13.078
X99.329 Y12.534
X99.337 Y12.5
X99.461 Y11.943
X99.467 Y11.911
X99.582 Y11.348
X99.588 Y11.316
X99.692 Y10.753
X99.698 Y10.718
X99.789 Y10.16
X99.795 Y10.122
X99.873 Y9.574
X99.879 Y9.53
X99.942 Y8.995
X99.947 Y8.943
X99.992 Y8.425
X99.997 Y8.362
X100.023 Y7.863
X100.025 Y7.788
X100.03 Y7.31
X100.029 Y7.222
X100.012 Y6.765
X100.005 Y6.661
X99.963 Y6.226
X99.948 Y6.109
X99.88 Y5.696
X99.855 Y5.567
X99.761 Y5.175
X99.723 Y5.038
X99.603 Y4.667
X99.551 Y4.528
X99.405 Y4.176
X99.342 Y4.041
X99.169 Y3.708
X99.097 Y3.581
X98.899 Y3.266
X98.821 Y3.151
X98.6 Y2.852
X98.519 Y2.75
X98.276 Y2.468
X98.194 Y2.379
X97.931 Y2.111
X97.851 Y2.034
X97.569 Y1.78
X97.49 Y1.714
X97.191 Y1.474
X97.114 Y1.415
X96.797 Y1.188
X96.722 Y1.137
X96.39 Y0.924
X96.314 Y0.878
X95.967 Y0.678
X95.892 Y0.637
X95.53 Y0.451
X95.454 Y0.414
X95.077 Y0.242
X95.002 Y0.21
X94.61 Y0.052
X94.535 Y0.024
X94.129 Y-0.119
X94.055 Y-0.143
X93.635 Y-0.27
X93.561 Y-0.291
X93.127 Y-0.403
X93.055 Y-0.42
X92.607 Y-0.516
X92.538 Y-0.529
X92.075 Y-0.609
X92.008 Y-0.62
X91.532 Y-0.684
X91.468 Y-0.692
X90.977 Y-0.74
X90.916 Y-0.745
X90.412 Y-0.777
X90.354 Y-0.78
X89.836 Y-0.797
X89.78 Y-0.798
X89.248
X89.226
X86.757 Y-0.77
X84.289 Y-0.798
X84.267
X83.735
X83.679 Y-0.797
X83.161 Y-0.78
X83.103 Y-0.777
X82.599 Y-0.745
X82.538 Y-0.74
X82.047 Y-0.692
X81.983 Y-0.684
X81.507 Y-0.62
X81.44 Y-0.609
X80.977 Y-0.529
X80.908 Y-0.516
X80.46 Y-0.42
X80.388 Y-0.403
X79.954 Y-0.291
X79.88 Y-0.27
X79.46 Y-0.143
X79.386 Y-0.119
X78.98 Y0.024
X78.905 Y0.052
X78.513 Y0.21
X78.438 Y0.242
X78.061 Y0.414
X77.985 Y0.451
X77.623 Y0.637
X77.548 Y0.678
X77.201 Y0.878
X77.125 Y0.924
X76.793 Y1.137
X76.718 Y1.188
X76.401 Y1.415
X76.324 Y1.474
X76.025 Y1.714
X75.946 Y1.78
X75.664 Y2.034
X75.584 Y2.111
X75.321 Y2.379
X75.239 Y2.468
X74.996 Y2.75
X74.915 Y2.852
X74.694 Y3.151
X74.616 Y3.266
X74.418 Y3.581
X74.346 Y3.708
X74.173 Y4.041
X74.11 Y4.176
X73.964 Y4.528
X73.912 Y4.667
X73.792 Y5.038
X73.754 Y5.175
X73.66 Y5.567
X73.635 Y5.696
X73.567 Y6.109
X73.552 Y6.226
X73.51 Y6.661
X73.503 Y6.765
X73.486 Y7.222
X73.485 Y7.31
X73.49 Y7.788
X73.492 Y7.863
X73.518 Y8.362
X73.523 Y8.425
X73.568 Y8.943
X73.573 Y8.995
X73.636 Y9.53
X73.642 Y9.574
X73.72 Y10.122
X73.726 Y10.16
X73.817 Y10.718
X73.823 Y10.753
X73.927 Y11.316
X73.933 Y11.348
X74.048 Y11.911
X74.054 Y11.943
X74.178 Y12.5
X74.186 Y12.534
X74.319 Y13.078
X74.328 Y13.117
X74.469 Y13.643
X74.481 Y13.687
X74.629 Y14.188
X74.646 Y14.242
X74.8 Y14.712
X74.824 Y14.779
X74.986 Y15.213
X75.011 Y15.274
X75.095 Y15.476
X75.115 Y15.523
X75.201 Y15.714
X75.227 Y15.768
X75.315 Y15.948
X75.346 Y16.008
X75.437 Y16.176
X75.474 Y16.243
X75.567 Y16.399
X75.615 Y16.475
X75.71 Y16.618
X75.767 Y16.699
X75.866 Y16.831
X75.935 Y16.918
X76.036 Y17.037
X76.118 Y17.127
X76.222 Y17.234
X76.316 Y17.324
X76.423 Y17.419
X76.495 Y17.48
X76.327 Y17.544
X76.306 Y17.553
X75.98 Y17.682
X75.956 Y17.692
X75.652 Y17.818
X75.626 Y17.829
X75.345 Y17.95
X75.315 Y17.964
X75.057 Y18.081
X75.021 Y18.098
X74.786 Y18.211
X74.743 Y18.232
X74.531 Y18.341
X74.481 Y18.368
X74.292 Y18.473
X74.233 Y18.507
X74.066 Y18.608
X73.994 Y18.654
X73.85 Y18.751
X73.762 Y18.814
X73.641 Y18.907
X73.534 Y18.995
X73.434 Y19.084
X73.368 Y19.146
X73.306 Y19.211
X73.228 Y19.296
X73.15 Y19.388
X73.078 Y19.484
X73.021 Y19.565
G2 X72.864 Y19.84 I1.478 J1.028
G1 X72.828 Y19.918
G2 X72.703 Y20.295 I1.635 J0.753
G1 X72.687 Y20.369
G2 X72.649 Y20.837 I1.76 J0.376
G1 X72.653 Y20.908
G2 X72.738 Y21.37 I1.798 J-0.091
G1 X72.76 Y21.438
G2 X72.934 Y21.819 I1.713 J-0.553
G1 X72.974 Y21.884
G2 X73.173 Y22.152 I1.538 J-0.934
G1 X73.229 Y22.215
G2 X73.41 Y22.39 I1.34 J-1.202
G1 X73.481 Y22.45
X73.556 Y22.509
X73.633 Y22.565
X73.719 Y22.622
X73.839 Y22.697
X73.938 Y22.753
X74.033 Y22.803
X74.143 Y22.857
X74.248 Y22.904
X74.5 Y23.008
X74.596 Y23.045
X74.882 Y23.144
X74.945 Y23.165
X75.257 Y23.261
X75.301 Y23.273
X75.631 Y23.366
X75.666 Y23.375
X76.01 Y23.464
X76.051 Y23.474
X76.763 Y23.64
X76.817 Y23.652
X77.539 Y23.797
X77.601 Y23.808
X78.318 Y23.927
X78.388 Y23.937
X78.754 Y23.983
X78.719 Y24.301
X78.658 Y24.757
X78.588 Y25.19
X78.507 Y25.601
X78.418 Y25.988
X78.32 Y26.352
X78.214 Y26.693
X78.1 Y27.01
X77.979 Y27.305
X77.853 Y27.579
X77.721 Y27.832
X77.583 Y28.067
X77.44 Y28.286
X77.291 Y28.491
X77.137 Y28.684
X76.979 Y28.866
X76.815 Y29.04
X76.647 Y29.205
X76.477 Y29.362
X76.304 Y29.513
X76.131 Y29.656
X75.958 Y29.791
X75.789 Y29.919
X75.623 Y30.039
X75.463 Y30.15
X75.309 Y30.253
X75.163 Y30.346
X75.025 Y30.431
X74.878 Y30.517
G2 X74.227 Y32.978 I0.905 J1.556
X74.718 Y33.523 I1.556 J-0.905
G1 X74.875 Y33.639
X74.959 Y33.712
X75.034 Y33.792
X75.104 Y33.881
X75.17 Y33.981
X75.232 Y34.097
X75.291 Y34.231
X75.345 Y34.384
X75.392 Y34.553
X75.431 Y34.739
X75.46 Y34.935
X75.477 Y35.138
X75.483 Y35.341
X75.477 Y35.539
X75.461 Y35.726
X75.436 Y35.897
X75.403 Y36.05
X75.365 Y36.183
X75.322 Y36.3
X75.274 Y36.407
X75.215 Y36.516
X75.149 Y36.622
X74.917 Y36.946
X74.781 Y37.123
X74.62 Y37.331
X74.61 Y37.344
X74.441 Y37.566
X74.424 Y37.59
X74.25 Y37.827
X74.229 Y37.855
X74.051 Y38.108
X74.03 Y38.139
X73.849 Y38.407
X73.83 Y38.436
X73.647 Y38.719
X73.631 Y38.745
X73.447 Y39.039
X73.429 Y39.069
X73.063 Y39.683
X73.049 Y39.706
X72.69 Y40.329
X72.685 Y40.338
X72.341 Y40.942
X72.34 Y40.943
X72.177 Y41.231
X72.175 Y41.233
X72.019 Y41.51
X72.014 Y41.517
X71.866 Y41.782
X71.858 Y41.797
X71.719 Y42.051
X71.704 Y42.079
X71.576 Y42.322
X71.555 Y42.363
X71.439 Y42.598
X71.412 Y42.656
X71.309 Y42.885
X71.277 Y42.961
X71.188 Y43.186
X71.154 Y43.278
X71.08 Y43.501
X71.048 Y43.606
X70.989 Y43.829
X70.962 Y43.943
X70.918 Y44.166
X70.899 Y44.283
X70.869 Y44.508
X70.858 Y44.62
X70.842 Y44.848
X70.838 Y44.955
X70.836 Y45.185
X70.838 Y45.28
X70.848 Y45.512
X70.854 Y45.6
X70.876 Y45.833
X70.89 Y45.947
X70.964 Y46.413
X70.986 Y46.53
X70.917 Y46.589
X70.852 Y46.652
X70.242 Y47.261
G2 X69.715 Y48.534 I1.273 J1.273
G1 Y50.363
G2 X70.242 Y51.636 I1.8 J0.
G1 X70.852 Y52.246
G2 X72.125 Y52.773 I1.273 J-1.273
G1 X101.39
G2 X102.451 Y52.427 I0. J-1.8
X102.538 Y52.156 I-0.143 J-0.195
G3 X102.605 Y51.88 I0.258 J-0.084
G1 X103.06 Y51.424
G2 X103.5 Y50.363 I-1.06 J-1.061
G1 Y48.534
G2 X103.06 Y47.473 I-1.5 J0.
G1 X102.45 Y46.864
G2 X102.191 Y46.656 I-1.06 J1.061
G1 X102.234 Y46.474
X102.254 Y46.367
X102.328 Y45.901
X102.34 Y45.807
X102.362 Y45.574
X102.368 Y45.498
X102.378 Y45.266
X102.379 Y45.188
X102.377 Y44.958
X102.373 Y44.866
X102.357 Y44.638
X102.349 Y44.552
X102.32 Y44.326
X102.303 Y44.222
X102.258 Y43.998
X102.237 Y43.909
X102.178 Y43.687
X102.15 Y43.593
X102.075 Y43.37
X102.048 Y43.296
X101.959 Y43.071
X101.932 Y43.008
X101.829 Y42.779
X101.806 Y42.731
X101.69 Y42.496
X101.673 Y42.461
X101.545 Y42.218
X101.534 Y42.198
X101.396 Y41.945
X101.387 Y41.927
X101.238 Y41.663
X101.235 Y41.658
X101.079 Y41.381
X101.078 Y41.379
X100.914 Y41.091
X100.913 Y41.09
X100.569 Y40.486
X100.565 Y40.479
X100.206 Y39.856
X100.195 Y39.837
X99.828 Y39.222
X99.813 Y39.198
X99.629 Y38.903
X99.616 Y38.882
X99.433 Y38.599
X99.417 Y38.575
X99.236 Y38.307
X99.219 Y38.281
X99.041 Y38.028
X99.024 Y38.005
X98.849 Y37.768
X98.835 Y37.748
X98.666 Y37.525
X98.658 Y37.515
X98.496 Y37.306
X98.357 Y37.125
X98.116 Y36.789
X98.04 Y36.666
X97.972 Y36.54
X97.915 Y36.413
X97.864 Y36.276
X97.82 Y36.123
X97.784 Y35.951
X97.756 Y35.761
X97.738 Y35.556
X97.732 Y35.341
X97.738 Y35.12
X97.757 Y34.901
X97.788 Y34.687
X97.831 Y34.483
X97.883 Y34.293
X97.945 Y34.121
X98.013 Y33.965
X98.087 Y33.827
X98.168 Y33.705
X98.254 Y33.595
X98.348 Y33.496
X98.451 Y33.405
X98.62 Y33.281
G2 X98.941 Y31.185 I-0.888 J-1.209
X98.486 Y30.776 I-1.209 J0.888
G1 X98.336 Y30.688
X98.193 Y30.601
X98.042 Y30.504
X97.883 Y30.398
X97.719 Y30.284
X97.548 Y30.16
X97.374 Y30.029
X97.196 Y29.889
X97.017 Y29.742
X96.838 Y29.586
X96.661 Y29.422
X96.486 Y29.25
X96.314 Y29.068
X96.147 Y28.876
X95.985 Y28.672
X95.828 Y28.456
X95.677 Y28.225
X95.532 Y27.977
X95.393 Y27.711
X95.26 Y27.425
X95.135 Y27.118
X95.017 Y26.788
X94.907 Y26.436
X94.806 Y26.061
X94.714 Y25.663
X94.632 Y25.243
X94.56 Y24.801
X94.498 Y24.337
X94.446 Y23.853
X94.435 Y23.721
X95.09 Y23.639
X95.149 Y23.631
X95.865 Y23.512
X95.916 Y23.503
X96.639 Y23.358
X96.684 Y23.348
X97.395 Y23.182
X97.43 Y23.174
X97.774 Y23.085
X97.803 Y23.077
X98.134 Y22.985
X98.17 Y22.974
X98.482 Y22.878
X98.535 Y22.861
X98.821 Y22.761
X98.9 Y22.731
X99.153 Y22.627
X99.24 Y22.588
X99.35 Y22.533
X99.429 Y22.492
X99.528 Y22.436
X99.629 Y22.374
X99.714 Y22.316
X99.779 Y22.27
X99.84 Y22.221
X99.912 Y22.161
X99.99 Y22.09
X100.063 Y22.014
X100.119 Y21.952
G2 X100.285 Y21.729 I-1.116 J-1.002
G1 X100.325 Y21.663
G2 X100.47 Y21.346 I-1.282 J-0.779
G1 X100.492 Y21.278
G2 X100.563 Y20.892 I-1.427 J-0.461
G1 X100.566 Y20.821
G2 X100.535 Y20.432 I-1.498 J-0.076
G1 X100.519 Y20.358
G2 X100.414 Y20.043 I-1.467 J0.313
G1 X100.379 Y19.965
G2 X100.248 Y19.737 I-1.362 J0.628
G1 X100.191 Y19.655
X100.131 Y19.575
X100.066 Y19.499
X99.988 Y19.414
X99.881 Y19.308
X99.782 Y19.219
X99.692 Y19.145
X99.571 Y19.052
X99.498 Y19.
X99.354 Y18.903
X99.293 Y18.865
X99.127 Y18.764
X99.077 Y18.735
X98.888 Y18.63
X98.847 Y18.608
X98.635 Y18.499
X98.599 Y18.481
X98.364 Y18.368
X98.334 Y18.354
X98.076 Y18.237
X98.051 Y18.226
X97.77 Y18.104
X97.748 Y18.095
X97.444 Y17.969
X97.425 Y17.961
X97.098 Y17.831
X97.081 Y17.825
X96.731 Y17.691
X96.717 Y17.685
X96.374 Y17.558
X96.488 Y17.491
X96.6 Y17.418
X96.695 Y17.352
X96.805 Y17.268
X96.893 Y17.195
X97. Y17.1
X97.078 Y17.025
X97.182 Y16.918
X97.25 Y16.842
X97.352 Y16.723
X97.409 Y16.652
X97.507 Y16.52
X97.555 Y16.452
X97.65 Y16.308
X97.69 Y16.245
X97.783 Y16.089
X97.814 Y16.034
X97.905 Y15.866
X97.931 Y15.816
X98.019 Y15.636
X98.04 Y15.591
X98.126 Y15.4
X98.144 Y15.361
X98.228 Y15.159
X98.248 Y15.108
X98.41 Y14.674
X98.43 Y14.618
X98.584 Y14.148
X98.599 Y14.103
X98.746 Y13.603
X98.756 Y13.565
X98.897 Y13.04
X98.905 Y13.008
X99.037 Y12.463
X99.044 Y12.435
X99.168 Y11.878
X99.173 Y11.851
X99.288 Y11.288
X99.293 Y11.261
X99.397 Y10.698
X99.402 Y10.669
X99.493 Y10.111
X99.498 Y10.08
X99.576 Y9.532
X99.581 Y9.495
X99.644 Y8.96
X99.648 Y8.916
X99.693 Y8.399
X99.697 Y8.347
X99.723 Y7.848
X99.725 Y7.785
X99.73 Y7.306
X99.729 Y7.233
X99.712 Y6.776
X99.706 Y6.69
X99.664 Y6.255
X99.652 Y6.157
X99.584 Y5.744
X99.563 Y5.637
X99.469 Y5.245
X99.437 Y5.131
X99.317 Y4.759
X99.275 Y4.644
X99.128 Y4.292
X99.075 Y4.179
X98.903 Y3.846
X98.842 Y3.74
X98.645 Y3.425
X98.579 Y3.329
X98.359 Y3.031
X98.291 Y2.946
X98.048 Y2.663
X97.98 Y2.589
X97.717 Y2.321
X97.65 Y2.257
X97.368 Y2.003
X97.303 Y1.948
X97.003 Y1.708
X96.939 Y1.659
X96.623 Y1.432
X96.56 Y1.389
X96.227 Y1.176
X96.165 Y1.138
X95.817 Y0.938
X95.755 Y0.904
X95.392 Y0.718
X95.33 Y0.687
X94.953 Y0.515
X94.89 Y0.488
X94.498 Y0.331
X94.436 Y0.307
X94.03 Y0.164
X93.968 Y0.144
X93.548 Y0.017
X93.486 Y0.
X93.052 Y-0.112
X92.993 Y-0.126
X92.544 Y-0.222
X92.486 Y-0.234
X92.024 Y-0.314
X91.968 Y-0.322
X91.492 Y-0.387
X91.438 Y-0.393
X90.948 Y-0.441
X90.897 Y-0.446
X90.393 Y-0.478
X90.344 Y-0.48
X89.826 Y-0.497
X89.78 Y-0.498
X89.248
X89.229
X86.757 Y-0.47
X84.286 Y-0.498
X84.267
X83.735
X83.689 Y-0.497
X83.171 Y-0.48
X83.122 Y-0.478
X82.618 Y-0.446
X82.567 Y-0.441
X82.077 Y-0.393
X82.023 Y-0.387
X81.547 Y-0.322
X81.491 Y-0.314
X81.029 Y-0.234
X80.971 Y-0.222
X80.522 Y-0.126
X80.463 Y-0.112
X80.029 Y0.
X79.967 Y0.017
X79.547 Y0.144
X79.485 Y0.164
X79.079 Y0.307
X79.017 Y0.331
X78.625 Y0.488
X78.562 Y0.515
X78.185 Y0.687
X78.123 Y0.718
X77.76 Y0.904
X77.698 Y0.938
X77.35 Y1.138
X77.288 Y1.176
X76.955 Y1.389
X76.892 Y1.432
X76.576 Y1.659
X76.512 Y1.708
X76.212 Y1.948
X76.147 Y2.003
X75.865 Y2.257
X75.798 Y2.321
X75.535 Y2.589
X75.467 Y2.663
X75.224 Y2.946
X75.156 Y3.031
X74.936 Y3.329
X74.87 Y3.425
X74.673 Y3.74
X74.612 Y3.846
X74.44 Y4.179
X74.387 Y4.292
X74.24 Y4.644
X74.198 Y4.759
X74.078 Y5.131
X74.046 Y5.245
X73.952 Y5.637
X73.931 Y5.744
X73.863 Y6.157
X73.851 Y6.255
X73.809 Y6.69
X73.803 Y6.776
X73.786 Y7.233
X73.785 Y7.306
X73.79 Y7.785
X73.792 Y7.848
X73.818 Y8.347
X73.822 Y8.399
X73.867 Y8.916
X73.871 Y8.96
X73.934 Y9.495
X73.939 Y9.532
X74.017 Y10.08
X74.022 Y10.111
X74.113 Y10.669
X74.118 Y10.698
X74.222 Y11.261
X74.227 Y11.288
X74.342 Y11.851
X74.347 Y11.878
X74.471 Y12.435
X74.478 Y12.463
X74.61 Y13.008
X74.618 Y13.04
X74.759 Y13.565
X74.769 Y13.603
X74.916 Y14.103
X74.931 Y14.148
X75.085 Y14.618
X75.105 Y14.674
X75.267 Y15.108
X75.287 Y15.159
X75.371 Y15.361
X75.389 Y15.4
X75.475 Y15.591
X75.496 Y15.636
X75.584 Y15.816
X75.61 Y15.866
X75.701 Y16.034
X75.732 Y16.089
X75.825 Y16.245
X75.865 Y16.308
X75.96 Y16.452
X76.008 Y16.519
X76.106 Y16.651
X76.164 Y16.724
X76.265 Y16.843
X76.333 Y16.918
X76.437 Y17.025
X76.515 Y17.1
X76.622 Y17.195
X76.71 Y17.268
X76.82 Y17.351
X76.915 Y17.418
X77.028 Y17.491
X77.141 Y17.558
X76.798 Y17.685
X76.784 Y17.691
X76.434 Y17.825
X76.417 Y17.831
X76.09 Y17.961
X76.071 Y17.969
X75.767 Y18.095
X75.745 Y18.104
X75.464 Y18.226
X75.439 Y18.237
X75.181 Y18.354
X75.151 Y18.368
X74.916 Y18.481
X74.88 Y18.499
X74.668 Y18.608
X74.627 Y18.63
X74.438 Y18.735
X74.388 Y18.764
X74.222 Y18.865
X74.161 Y18.903
X74.017 Y19.
X73.944 Y19.052
X73.823 Y19.145
X73.733 Y19.219
X73.634 Y19.308
X73.527 Y19.414
X73.449 Y19.499
X73.384 Y19.575
X73.324 Y19.655
X73.267 Y19.737
G2 X73.136 Y19.965 I1.231 J0.857
G1 X73.101 Y20.043
G2 X72.996 Y20.358 I1.362 J0.628
G1 X72.98 Y20.432
G2 X72.949 Y20.821 I1.467 J0.313
G1 X72.952 Y20.892
G2 X73.023 Y21.278 I1.498 J-0.076
G1 X73.045 Y21.346
G2 X73.19 Y21.663 I1.427 J-0.461
G1 X73.23 Y21.729
G2 X73.396 Y21.952 I1.282 J-0.779
G1 X73.452 Y22.014
X73.525 Y22.09
X73.603 Y22.161
X73.675 Y22.221
X73.736 Y22.27
X73.801 Y22.316
X73.886 Y22.374
X73.987 Y22.436
X74.086 Y22.492
X74.165 Y22.533
X74.275 Y22.588
X74.362 Y22.627
X74.615 Y22.731
X74.694 Y22.761
X74.98 Y22.861
X75.033 Y22.878
X75.345 Y22.974
X75.381 Y22.985
X75.712 Y23.077
X75.741 Y23.085
X76.085 Y23.174
X76.12 Y23.182
X76.831 Y23.348
X76.876 Y23.358
X77.599 Y23.503
X77.65 Y23.512
X78.366 Y23.631
X78.425 Y23.639
X79.08 Y23.721
X79.069 Y23.853
X79.017 Y24.337
X78.955 Y24.801
X78.883 Y25.243
X78.801 Y25.663
X78.709 Y26.061
X78.608 Y26.436
X78.498 Y26.788
X78.38 Y27.118
X78.255 Y27.425
X78.122 Y27.711
X77.983 Y27.977
X77.838 Y28.225
X77.687 Y28.456
X77.53 Y28.672
X77.368 Y28.876
X77.201 Y29.068
X77.029 Y29.25
X76.854 Y29.422
X76.677 Y29.586
X76.498 Y29.742
X76.319 Y29.889
X76.141 Y30.029
X75.967 Y30.16
X75.796 Y30.284
X75.632 Y30.398
X75.473 Y30.504
X75.322 Y30.601
X75.179 Y30.688
X75.029 Y30.776
G2 X74.486 Y32.827 I0.754 J1.296
X74.895 Y33.281 I1.296 J-0.754
G1 X75.064 Y33.405
X75.167 Y33.496
X75.261 Y33.595
X75.347 Y33.705
X75.428 Y33.827
X75.502 Y33.965
X75.57 Y34.121
X75.632 Y34.293
X75.684 Y34.483
X75.727 Y34.687
X75.758 Y34.901
X75.777 Y35.12
X75.783 Y35.341
X75.777 Y35.556
X75.759 Y35.761
X75.731 Y35.951
X75.695 Y36.123
X75.651 Y36.276
X75.6 Y36.413
X75.543 Y36.54
X75.475 Y36.666
X75.399 Y36.789
X75.158 Y37.125
X75.019 Y37.306
X74.857 Y37.515
X74.849 Y37.525
X74.68 Y37.748
X74.666 Y37.768
X74.491 Y38.005
X74.474 Y38.028
X74.296 Y38.281
X74.279 Y38.307
X74.098 Y38.575
X74.082 Y38.599
X73.899 Y38.882
X73.886 Y38.903
X73.702 Y39.198
X73.687 Y39.222
X73.32 Y39.837
X73.309 Y39.856
X72.95 Y40.479
X72.946 Y40.486
X72.602 Y41.09
X72.601 Y41.091
X72.437 Y41.379
X72.436 Y41.381
X72.28 Y41.658
X72.276 Y41.664
X72.128 Y41.929
X72.121 Y41.941
X71.982 Y42.195
X71.97 Y42.218
X71.842 Y42.462
X71.824 Y42.496
X71.708 Y42.731
X71.685 Y42.779
X71.583 Y43.008
X71.556 Y43.071
X71.467 Y43.296
X71.439 Y43.373
X71.365 Y43.596
X71.338 Y43.684
X71.279 Y43.906
X71.257 Y44.001
X71.212 Y44.225
X71.196 Y44.322
X71.167 Y44.547
X71.157 Y44.641
X71.142 Y44.869
X71.138 Y44.957
X71.136 Y45.188
X71.137 Y45.267
X71.148 Y45.499
X71.153 Y45.572
X71.174 Y45.805
X71.186 Y45.9
X71.26 Y46.366
X71.281 Y46.474
X71.324 Y46.656
G2 X71.064 Y46.864 I0.801 J1.268
G1 X70.454 Y47.474
G2 X70.015 Y48.534 I1.061 J1.061
G1 Y50.363
G2 X70.454 Y51.424 I1.5 J0.
G1 X71.064 Y52.034
G2 X72.125 Y52.473 I1.061 J-1.061
G1 X101.39
G2 X102.45 Y52.034 I0. J-1.5
G1 X102.605 Y51.88
G3 X103.029 I0.212 J0.212
G1 X103.241 Y52.092
X103.288 Y52.139 Z0.258
X103.333 Y52.184 Z0.28
X103.373 Y52.224 Z0.315
X103.407 Y52.258 Z0.363
X103.432 Y52.283 Z0.42
X103.448 Y52.299 Z0.483
X103.453 Y52.304 Z0.55
G0 Z21.243
X104.394 Y52.061
G1 Z17.243 F133.3
Z0.55
X104.399 Y52.056 Z0.483 F400
X104.415 Y52.04 Z0.42
X104.44 Y52.015 Z0.363
X104.474 Y51.981 Z0.315
X104.514 Y51.941 Z0.28
X104.559 Y51.896 Z0.258
X104.606 Y51.849 Z0.25
X104.818 Y51.637
G3 X105.243 Y51.636 I0.212 J0.212
G1 X105.853 Y52.246
G2 X107.125 Y52.773 I1.272 J-1.273
G1 X136.39
G2 X137.662 Y52.246 I0. J-1.8
G1 X138.272 Y51.636
G2 X138.8 Y50.363 I-1.272 J-1.273
G1 Y48.534
G2 X138.272 Y47.261 I-1.8 J0.
G1 X137.662 Y46.651
X137.597 Y46.589
X137.528 Y46.53
X137.551 Y46.414
X137.625 Y45.948
X137.639 Y45.835
X137.661 Y45.602
X137.667 Y45.511
X137.677 Y45.279
X137.679 Y45.186
X137.677 Y44.955
X137.673 Y44.845
X137.657 Y44.617
X137.646 Y44.514
X137.617 Y44.288
X137.597 Y44.163
X137.552 Y43.939
X137.527 Y43.832
X137.468 Y43.61
X137.434 Y43.497
X137.359 Y43.274
X137.327 Y43.186
X137.238 Y42.961
X137.206 Y42.885
X137.103 Y42.656
X137.075 Y42.598
X136.959 Y42.363
X136.938 Y42.322
X136.81 Y42.078
X136.798 Y42.055
X136.66 Y41.801
X136.648 Y41.779
X136.499 Y41.514
X136.498 Y41.513
X136.342 Y41.236
X136.338 Y41.23
X136.174 Y40.942
X135.83 Y40.338
X135.826 Y40.33
X135.467 Y39.707
X135.452 Y39.682
X135.085 Y39.068
X135.067 Y39.038
X134.883 Y38.743
X134.867 Y38.718
X134.684 Y38.436
X134.668 Y38.411
X134.488 Y38.143
X134.465 Y38.109
X134.287 Y37.856
X134.263 Y37.823
X134.088 Y37.586
X134.074 Y37.567
X133.905 Y37.344
X133.895 Y37.331
X133.735 Y37.124
X133.599 Y36.948
X133.365 Y36.62
X133.3 Y36.516
X133.242 Y36.408
X133.192 Y36.298
X133.149 Y36.182
X133.112 Y36.052
X133.079 Y35.898
X133.054 Y35.726
X133.038 Y35.538
X133.032 Y35.34
X133.038 Y35.14
X133.056 Y34.937
X133.085 Y34.737
X133.123 Y34.553
X133.17 Y34.384
X133.223 Y34.232
X133.282 Y34.098
X133.346 Y33.98
X133.412 Y33.88
X133.481 Y33.792
X133.556 Y33.713
X133.64 Y33.639
X133.799 Y33.522
G2 X134.182 Y31.006 I-1.067 J-1.45
X133.638 Y30.517 I-1.45 J1.067
G1 X133.489 Y30.43
X133.351 Y30.346
X133.207 Y30.254
X133.053 Y30.151
X132.891 Y30.039
X132.725 Y29.918
X132.557 Y29.792
X132.384 Y29.656
X132.21 Y29.512
X132.038 Y29.363
X131.867 Y29.205
X131.7 Y29.04
X131.536 Y28.867
X131.378 Y28.684
X131.223 Y28.49
X131.076 Y28.287
X130.932 Y28.067
X130.794 Y27.831
X130.663 Y27.58
X130.536 Y27.306
X130.415 Y27.01
X130.301 Y26.691
X130.195 Y26.353
X130.098 Y25.989
X130.008 Y25.601
X129.928 Y25.19
X129.856 Y24.755
X129.795 Y24.301
X129.761 Y23.983
X130.127 Y23.937
X130.197 Y23.927
X130.914 Y23.808
X130.976 Y23.797
X131.698 Y23.652
X131.752 Y23.64
X132.464 Y23.474
X132.506 Y23.464
X132.85 Y23.375
X132.883 Y23.366
X133.214 Y23.273
X133.258 Y23.261
X133.57 Y23.165
X133.633 Y23.144
X133.919 Y23.045
X134.016 Y23.008
X134.268 Y22.904
X134.37 Y22.858
X134.481 Y22.804
X134.583 Y22.75
X134.681 Y22.694
X134.794 Y22.624
X134.88 Y22.566
X134.956 Y22.512
X135.028 Y22.454
X135.1 Y22.394
G2 X135.288 Y22.214 I-1.153 J-1.382
G1 X135.344 Y22.151
G2 X135.548 Y21.874 I-1.341 J-1.201
G1 X135.587 Y21.809
G2 X135.747 Y21.461 I-1.545 J-0.924
G1 X135.77 Y21.393
G2 X135.863 Y20.892 I-1.705 J-0.576
G1 X135.866 Y20.821
G2 X135.828 Y20.367 I-1.798 J-0.076
G1 X135.812 Y20.293
G2 X135.686 Y19.916 I-1.76 J0.378
G1 X135.65 Y19.838
G2 X135.5 Y19.574 I-1.634 J0.755
G1 X135.444 Y19.492
G2 X135.287 Y19.295 I-1.484 J1.019
G1 X135.209 Y19.21
X135.145 Y19.145
X135.079 Y19.082
X134.979 Y18.993
X134.872 Y18.906
X134.75 Y18.813
X134.665 Y18.751
X134.521 Y18.654
X134.451 Y18.61
X134.285 Y18.509
X134.224 Y18.473
X134.035 Y18.368
X133.982 Y18.34
X133.769 Y18.231
X133.729 Y18.211
X133.494 Y18.098
X133.458 Y18.081
X133.2 Y17.964
X133.169 Y17.95
X132.888 Y17.829
X132.864 Y17.818
X132.561 Y17.692
X132.535 Y17.682
X132.208 Y17.552
X132.189 Y17.545
X132.02 Y17.48
X132.092 Y17.419
X132.199 Y17.324
X132.294 Y17.233
X132.398 Y17.126
X132.48 Y17.036
X132.581 Y16.916
X132.645 Y16.835
X132.744 Y16.704
X132.808 Y16.614
X132.903 Y16.47
X132.947 Y16.4
X133.04 Y16.244
X133.077 Y16.179
X133.168 Y16.011
X133.201 Y15.946
X133.289 Y15.767
X133.314 Y15.714
X133.4 Y15.523
X133.421 Y15.476
X133.505 Y15.274
X133.529 Y15.212
X133.691 Y14.779
X133.714 Y14.713
X133.869 Y14.243
X133.887 Y14.186
X134.034 Y13.686
X134.046 Y13.642
X134.186 Y13.117
X134.196 Y13.081
X134.329 Y12.536
X134.337 Y12.5
X134.461 Y11.944
X134.468 Y11.91
X134.582 Y11.347
X134.588 Y11.317
X134.692 Y10.753
X134.699 Y10.716
X134.79 Y10.158
X134.795 Y10.122
X134.873 Y9.574
X134.879 Y9.531
X134.942 Y8.996
X134.947 Y8.942
X134.992 Y8.424
X134.997 Y8.362
X135.023 Y7.863
X135.025 Y7.788
X135.03 Y7.309
X135.029 Y7.224
X135.012 Y6.767
X135.005 Y6.661
X134.963 Y6.225
X134.948 Y6.11
X134.881 Y5.697
X134.854 Y5.565
X134.76 Y5.173
X134.723 Y5.039
X134.603 Y4.668
X134.551 Y4.527
X134.404 Y4.175
X134.342 Y4.043
X134.17 Y3.71
X134.097 Y3.582
X133.9 Y3.267
X133.821 Y3.15
X133.6 Y2.851
X133.518 Y2.749
X133.275 Y2.467
X133.194 Y2.379
X132.931 Y2.111
X132.851 Y2.034
X132.569 Y1.78
X132.49 Y1.713
X132.19 Y1.473
X132.115 Y1.416
X131.799 Y1.189
X131.722 Y1.137
X131.39 Y0.924
X131.314 Y0.877
X130.966 Y0.677
X130.892 Y0.637
X130.53 Y0.451
X130.454 Y0.414
X130.077 Y0.242
X130.001 Y0.21
X129.609 Y0.052
X129.536 Y0.024
X129.131 Y-0.118
X129.054 Y-0.143
X128.633 Y-0.271
X128.561 Y-0.291
X128.127 Y-0.403
X128.056 Y-0.419
X127.608 Y-0.516
X127.537 Y-0.529
X127.074 Y-0.609
X127.008 Y-0.62
X126.532 Y-0.684
X126.468 Y-0.692
X125.977 Y-0.74
X125.916 Y-0.745
X125.412 Y-0.777
X125.353 Y-0.78
X124.835 Y-0.797
X124.78 Y-0.798
X124.248
X124.226
X121.757 Y-0.77
X119.289 Y-0.798
X119.267
X118.735
X118.68 Y-0.797
X118.162 Y-0.78
X118.103 Y-0.777
X117.599 Y-0.745
X117.538 Y-0.74
X117.047 Y-0.692
X116.983 Y-0.684
X116.507 Y-0.62
X116.441 Y-0.609
X115.978 Y-0.529
X115.907 Y-0.516
X115.459 Y-0.419
X115.388 Y-0.403
X114.954 Y-0.291
X114.882 Y-0.271
X114.461 Y-0.143
X114.384 Y-0.118
X113.979 Y0.024
X113.906 Y0.052
X113.514 Y0.21
X113.438 Y0.242
X113.061 Y0.414
X112.985 Y0.451
X112.623 Y0.637
X112.549 Y0.677
X112.201 Y0.877
X112.125 Y0.924
X111.793 Y1.137
X111.716 Y1.189
X111.4 Y1.416
X111.325 Y1.473
X111.025 Y1.713
X110.946 Y1.78
X110.664 Y2.034
X110.584 Y2.111
X110.321 Y2.379
X110.24 Y2.467
X109.997 Y2.749
X109.915 Y2.851
X109.694 Y3.15
X109.615 Y3.267
X109.418 Y3.582
X109.345 Y3.71
X109.173 Y4.043
X109.111 Y4.175
X108.964 Y4.527
X108.912 Y4.668
X108.792 Y5.039
X108.755 Y5.173
X108.661 Y5.565
X108.634 Y5.697
X108.567 Y6.11
X108.552 Y6.225
X108.51 Y6.661
X108.503 Y6.767
X108.486 Y7.224
X108.485 Y7.309
X108.49 Y7.788
X108.492 Y7.863
X108.518 Y8.362
X108.523 Y8.424
X108.568 Y8.942
X108.573 Y8.996
X108.636 Y9.531
X108.642 Y9.574
X108.72 Y10.122
X108.725 Y10.158
X108.816 Y10.716
X108.823 Y10.753
X108.927 Y11.317
X108.933 Y11.347
X109.047 Y11.91
X109.054 Y11.944
X109.178 Y12.5
X109.186 Y12.536
X109.319 Y13.081
X109.329 Y13.117
X109.469 Y13.642
X109.481 Y13.686
X109.628 Y14.186
X109.646 Y14.243
X109.801 Y14.713
X109.824 Y14.779
X109.986 Y15.212
X110.01 Y15.274
X110.094 Y15.476
X110.115 Y15.523
X110.201 Y15.714
X110.226 Y15.767
X110.314 Y15.946
X110.347 Y16.011
X110.438 Y16.179
X110.475 Y16.244
X110.568 Y16.4
X110.612 Y16.47
X110.707 Y16.614
X110.771 Y16.704
X110.87 Y16.835
X110.934 Y16.916
X111.035 Y17.036
X111.117 Y17.126
X111.221 Y17.233
X111.316 Y17.324
X111.423 Y17.419
X111.495 Y17.48
X111.326 Y17.545
X111.307 Y17.552
X110.98 Y17.682
X110.954 Y17.692
X110.651 Y17.818
X110.627 Y17.829
X110.346 Y17.95
X110.315 Y17.964
X110.057 Y18.081
X110.021 Y18.098
X109.786 Y18.211
X109.746 Y18.231
X109.533 Y18.34
X109.48 Y18.368
X109.291 Y18.473
X109.23 Y18.509
X109.064 Y18.61
X108.994 Y18.654
X108.85 Y18.751
X108.765 Y18.813
X108.643 Y18.906
X108.536 Y18.993
X108.436 Y19.082
X108.37 Y19.145
X108.306 Y19.21
X108.228 Y19.295
G2 X108.071 Y19.492 I1.327 J1.216
G1 X108.015 Y19.574
G2 X107.865 Y19.838 I1.484 J1.019
G1 X107.829 Y19.916
G2 X107.703 Y20.293 I1.634 J0.755
G1 X107.687 Y20.367
G2 X107.649 Y20.821 I1.76 J0.378
G1 X107.652 Y20.892
G2 X107.745 Y21.393 I1.798 J-0.076
G1 X107.768 Y21.461
G2 X107.928 Y21.809 I1.705 J-0.576
G1 X107.967 Y21.874
G2 X108.171 Y22.151 I1.545 J-0.924
G1 X108.227 Y22.214
G2 X108.415 Y22.394 I1.341 J-1.201
G1 X108.487 Y22.454
X108.559 Y22.512
X108.635 Y22.566
X108.721 Y22.624
X108.834 Y22.694
X108.932 Y22.75
X109.034 Y22.804
X109.145 Y22.858
X109.247 Y22.904
X109.499 Y23.008
X109.596 Y23.045
X109.882 Y23.144
X109.945 Y23.165
X110.257 Y23.261
X110.301 Y23.273
X110.632 Y23.366
X110.665 Y23.375
X111.009 Y23.464
X111.051 Y23.474
X111.763 Y23.64
X111.817 Y23.652
X112.539 Y23.797
X112.601 Y23.808
X113.318 Y23.927
X113.388 Y23.937
X113.754 Y23.983
X113.72 Y24.301
X113.659 Y24.755
X113.587 Y25.19
X113.507 Y25.601
X113.417 Y25.989
X113.32 Y26.353
X113.214 Y26.691
X113.1 Y27.01
X112.979 Y27.306
X112.852 Y27.58
X112.721 Y27.831
X112.583 Y28.067
X112.439 Y28.287
X112.292 Y28.49
X112.137 Y28.684
X111.979 Y28.867
X111.815 Y29.04
X111.648 Y29.205
X111.477 Y29.363
X111.305 Y29.512
X111.131 Y29.656
X110.958 Y29.792
X110.79 Y29.918
X110.624 Y30.039
X110.462 Y30.151
X110.308 Y30.254
X110.164 Y30.346
X110.026 Y30.43
X109.877 Y30.517
G2 X109.228 Y32.979 I0.906 J1.555
X109.716 Y33.522 I1.555 J-0.906
G1 X109.875 Y33.639
X109.959 Y33.713
X110.034 Y33.792
X110.103 Y33.88
X110.169 Y33.98
X110.233 Y34.098
X110.292 Y34.232
X110.345 Y34.384
X110.392 Y34.553
X110.43 Y34.737
X110.459 Y34.937
X110.477 Y35.14
X110.483 Y35.34
X110.477 Y35.538
X110.461 Y35.726
X110.436 Y35.898
X110.403 Y36.052
X110.366 Y36.182
X110.323 Y36.298
X110.273 Y36.408
X110.215 Y36.516
X110.15 Y36.62
X109.916 Y36.948
X109.78 Y37.124
X109.62 Y37.331
X109.61 Y37.344
X109.441 Y37.567
X109.427 Y37.586
X109.252 Y37.823
X109.228 Y37.856
X109.05 Y38.109
X109.027 Y38.143
X108.847 Y38.411
X108.831 Y38.436
X108.648 Y38.718
X108.632 Y38.743
X108.448 Y39.038
X108.43 Y39.068
X108.063 Y39.682
X108.048 Y39.707
X107.689 Y40.33
X107.685 Y40.338
X107.341 Y40.942
X107.177 Y41.23
X107.173 Y41.236
X107.017 Y41.513
X107.016 Y41.514
X106.867 Y41.779
X106.855 Y41.801
X106.717 Y42.055
X106.705 Y42.078
X106.577 Y42.322
X106.556 Y42.363
X106.44 Y42.598
X106.412 Y42.656
X106.309 Y42.885
X106.277 Y42.961
X106.188 Y43.186
X106.156 Y43.274
X106.081 Y43.497
X106.047 Y43.61
X105.988 Y43.832
X105.963 Y43.939
X105.918 Y44.163
X105.898 Y44.288
X105.869 Y44.514
X105.858 Y44.617
X105.842 Y44.845
X105.838 Y44.955
X105.836 Y45.186
X105.838 Y45.279
X105.848 Y45.511
X105.854 Y45.602
X105.876 Y45.835
X105.89 Y45.948
X105.964 Y46.414
X105.987 Y46.53
X105.918 Y46.589
X105.853 Y46.651
X105.243 Y47.261
G2 X104.715 Y48.534 I1.272 J1.273
G1 Y50.363
G2 X105.243 Y51.636 I1.8 J0.
X105.508 Y51.689 I0.172 J-0.172
G3 X105.773 Y51.742 I0.093 J0.225
G1 X106.065 Y52.034
G2 X107.125 Y52.473 I1.06 J-1.061
G1 X136.39
G2 X137.45 Y52.034 I0. J-1.5
G1 X138.06 Y51.424
G2 X138.5 Y50.363 I-1.06 J-1.061
G1 Y48.534
G2 X138.06 Y47.473 I-1.5 J0.
G1 X137.45 Y46.864
G2 X137.191 Y46.656 I-1.06 J1.061
G1 X137.234 Y46.474
X137.254 Y46.367
X137.328 Y45.901
X137.34 Y45.807
X137.362 Y45.574
X137.368 Y45.498
X137.378 Y45.266
X137.379 Y45.188
X137.377 Y44.958
X137.373 Y44.866
X137.357 Y44.638
X137.349 Y44.552
X137.32 Y44.326
X137.303 Y44.222
X137.258 Y43.998
X137.237 Y43.909
X137.178 Y43.687
X137.15 Y43.593
X137.075 Y43.37
X137.048 Y43.296
X136.959 Y43.071
X136.932 Y43.008
X136.829 Y42.779
X136.806 Y42.731
X136.69 Y42.496
X136.673 Y42.461
X136.545 Y42.218
X136.534 Y42.198
X136.396 Y41.945
X136.386 Y41.926
X136.237 Y41.661
Y41.66
X136.081 Y41.384
X136.077 Y41.378
X135.913 Y41.09
X135.569 Y40.486
X135.566 Y40.479
X135.207 Y39.856
X135.195 Y39.836
X134.828 Y39.222
X134.813 Y39.197
X134.629 Y38.902
X134.615 Y38.881
X134.432 Y38.599
X134.419 Y38.578
X134.239 Y38.31
X134.219 Y38.281
X134.041 Y38.029
X134.022 Y38.002
X133.847 Y37.765
X133.835 Y37.748
X133.666 Y37.526
X133.657 Y37.515
X133.497 Y37.307
X133.358 Y37.126
X133.115 Y36.787
X133.04 Y36.667
X132.973 Y36.541
X132.914 Y36.412
X132.864 Y36.275
X132.821 Y36.124
X132.784 Y35.951
X132.756 Y35.76
X132.738 Y35.555
X132.732 Y35.34
X132.738 Y35.123
X132.757 Y34.902
X132.789 Y34.685
X132.831 Y34.482
X132.883 Y34.293
X132.944 Y34.121
X133.013 Y33.966
X133.088 Y33.827
X133.168 Y33.705
X133.254 Y33.596
X133.347 Y33.497
X133.452 Y33.405
X133.621 Y33.281
G2 X133.94 Y31.183 I-0.889 J-1.208
X133.487 Y30.776 I-1.208 J0.889
G1 X133.336 Y30.688
X133.192 Y30.601
X133.043 Y30.505
X132.884 Y30.399
X132.718 Y30.283
X132.547 Y30.16
X132.374 Y30.029
X132.196 Y29.889
X132.016 Y29.741
X131.838 Y29.586
X131.66 Y29.422
X131.486 Y29.25
X131.314 Y29.068
X131.147 Y28.876
X130.984 Y28.672
X130.829 Y28.457
X130.677 Y28.225
X130.531 Y27.977
X130.394 Y27.712
X130.261 Y27.425
X130.135 Y27.117
X130.016 Y26.787
X129.907 Y26.436
X129.807 Y26.061
X129.714 Y25.663
X129.633 Y25.243
X129.56 Y24.8
X129.497 Y24.337
X129.446 Y23.853
X129.435 Y23.721
X130.09 Y23.639
X130.148 Y23.631
X130.865 Y23.512
X130.917 Y23.503
X131.639 Y23.358
X131.684 Y23.348
X132.396 Y23.182
X132.431 Y23.174
X132.775 Y23.085
X132.803 Y23.077
X133.134 Y22.985
X133.17 Y22.974
X133.482 Y22.878
X133.535 Y22.861
X133.821 Y22.761
X133.901 Y22.731
X134.153 Y22.627
X134.238 Y22.588
X134.349 Y22.534
X134.434 Y22.489
X134.532 Y22.433
X134.627 Y22.375
X134.713 Y22.317
X134.836 Y22.224
X134.908 Y22.164
X134.989 Y22.091
X135.064 Y22.013
X135.12 Y21.951
G2 X135.29 Y21.72 I-1.117 J-1.001
G1 X135.329 Y21.655
G2 X135.463 Y21.365 I-1.287 J-0.77
G1 X135.486 Y21.297
G2 X135.564 Y20.88 I-1.421 J-0.48
G1 X135.567 Y20.809
G2 X135.534 Y20.43 I-1.499 J-0.063
G1 X135.518 Y20.356
G2 X135.414 Y20.042 I-1.466 J0.315
G1 X135.378 Y19.964
G2 X135.252 Y19.744 I-1.362 J0.629
G1 X135.196 Y19.662
X135.134 Y19.578
X135.066 Y19.498
X134.988 Y19.413
X134.879 Y19.306
X134.779 Y19.217
X134.691 Y19.144
X134.569 Y19.051
X134.497 Y19.
X134.353 Y18.903
X134.295 Y18.866
X134.129 Y18.765
X134.078 Y18.736
X133.889 Y18.631
X133.845 Y18.607
X133.632 Y18.498
X133.599 Y18.481
X133.364 Y18.368
X133.334 Y18.354
X133.076 Y18.237
X133.05 Y18.225
X132.769 Y18.104
X132.749 Y18.095
X132.446 Y17.97
X132.424 Y17.961
X132.097 Y17.831
X132.081 Y17.825
X131.732 Y17.691
X131.716 Y17.685
X131.374 Y17.558
X131.491 Y17.489
X131.603 Y17.416
X131.694 Y17.352
X131.804 Y17.268
X131.893 Y17.195
X132. Y17.1
X132.079 Y17.024
X132.183 Y16.917
X132.251 Y16.842
X132.352 Y16.723
X132.406 Y16.655
X132.505 Y16.524
X132.558 Y16.449
X132.653 Y16.305
X132.689 Y16.246
X132.782 Y16.09
X132.813 Y16.036
X132.904 Y15.868
X132.932 Y15.814
X133.02 Y15.635
X133.041 Y15.591
X133.127 Y15.4
X133.144 Y15.361
X133.228 Y15.159
X133.248 Y15.107
X133.41 Y14.674
X133.429 Y14.619
X133.584 Y14.149
X133.599 Y14.102
X133.746 Y13.601
X133.756 Y13.565
X133.896 Y13.039
X133.904 Y13.009
X134.037 Y12.465
X134.044 Y12.435
X134.168 Y11.879
X134.174 Y11.85
X134.288 Y11.287
X134.293 Y11.262
X134.397 Y10.699
X134.402 Y10.668
X134.493 Y10.11
X134.498 Y10.08
X134.576 Y9.532
X134.581 Y9.496
X134.644 Y8.961
X134.648 Y8.916
X134.693 Y8.398
X134.697 Y8.346
X134.723 Y7.847
X134.725 Y7.785
X134.73 Y7.306
X134.729 Y7.235
X134.712 Y6.778
X134.706 Y6.689
X134.664 Y6.254
X134.652 Y6.158
X134.585 Y5.745
X134.563 Y5.635
X134.469 Y5.243
X134.437 Y5.131
X134.317 Y4.76
X134.274 Y4.643
X134.127 Y4.291
X134.076 Y4.181
X133.904 Y3.848
X133.843 Y3.741
X133.646 Y3.426
X133.579 Y3.328
X133.358 Y3.03
X133.291 Y2.945
X133.048 Y2.662
X132.98 Y2.589
X132.717 Y2.321
X132.65 Y2.257
X132.368 Y2.003
X132.302 Y1.947
X132.002 Y1.707
X131.94 Y1.66
X131.624 Y1.433
X131.56 Y1.39
X131.228 Y1.176
X131.164 Y1.137
X130.816 Y0.937
X130.755 Y0.904
X130.393 Y0.718
X130.33 Y0.687
X129.953 Y0.515
X129.889 Y0.488
X129.497 Y0.33
X129.436 Y0.307
X129.031 Y0.165
X128.967 Y0.144
X128.546 Y0.017
X128.486 Y0.
X128.052 Y-0.112
X127.993 Y-0.126
X127.545 Y-0.222
X127.486 Y-0.234
X127.023 Y-0.314
X126.968 Y-0.322
X126.492 Y-0.387
X126.438 Y-0.393
X125.947 Y-0.441
X125.896 Y-0.446
X125.392 Y-0.478
X125.344 Y-0.48
X124.826 Y-0.497
X124.78 Y-0.498
X124.248
X124.229
X121.757 Y-0.47
X119.286 Y-0.498
X119.267
X118.735
X118.689 Y-0.497
X118.171 Y-0.48
X118.123 Y-0.478
X117.619 Y-0.446
X117.568 Y-0.441
X117.077 Y-0.393
X117.023 Y-0.387
X116.547 Y-0.322
X116.492 Y-0.314
X116.029 Y-0.234
X115.97 Y-0.222
X115.522 Y-0.126
X115.463 Y-0.112
X115.029 Y0.
X114.969 Y0.017
X114.548 Y0.144
X114.484 Y0.165
X114.079 Y0.307
X114.018 Y0.33
X113.626 Y0.488
X113.562 Y0.515
X113.185 Y0.687
X113.122 Y0.718
X112.76 Y0.904
X112.699 Y0.937
X112.351 Y1.137
X112.287 Y1.176
X111.955 Y1.39
X111.891 Y1.433
X111.575 Y1.66
X111.513 Y1.707
X111.213 Y1.947
X111.147 Y2.003
X110.865 Y2.257
X110.798 Y2.321
X110.535 Y2.589
X110.467 Y2.662
X110.224 Y2.945
X110.157 Y3.03
X109.936 Y3.328
X109.869 Y3.426
X109.672 Y3.741
X109.611 Y3.848
X109.439 Y4.181
X109.388 Y4.291
X109.241 Y4.643
X109.198 Y4.76
X109.078 Y5.131
X109.046 Y5.243
X108.952 Y5.635
X108.93 Y5.745
X108.863 Y6.158
X108.851 Y6.254
X108.809 Y6.689
X108.803 Y6.778
X108.786 Y7.235
X108.785 Y7.306
X108.79 Y7.785
X108.792 Y7.847
X108.818 Y8.346
X108.822 Y8.398
X108.867 Y8.916
X108.871 Y8.961
X108.934 Y9.496
X108.939 Y9.532
X109.017 Y10.08
X109.022 Y10.11
X109.113 Y10.668
X109.118 Y10.699
X109.222 Y11.262
X109.227 Y11.287
X109.341 Y11.85
X109.347 Y11.879
X109.471 Y12.435
X109.478 Y12.465
X109.611 Y13.009
X109.619 Y13.039
X109.759 Y13.565
X109.769 Y13.601
X109.916 Y14.102
X109.931 Y14.149
X110.086 Y14.619
X110.105 Y14.674
X110.267 Y15.107
X110.287 Y15.159
X110.371 Y15.361
X110.388 Y15.4
X110.474 Y15.591
X110.495 Y15.635
X110.583 Y15.814
X110.611 Y15.868
X110.702 Y16.036
X110.733 Y16.09
X110.826 Y16.246
X110.862 Y16.305
X110.957 Y16.449
X111.01 Y16.524
X111.109 Y16.655
X111.163 Y16.723
X111.264 Y16.842
X111.332 Y16.917
X111.436 Y17.024
X111.515 Y17.1
X111.622 Y17.195
X111.711 Y17.268
X111.821 Y17.352
X111.912 Y17.416
X112.024 Y17.489
X112.141 Y17.558
X111.799 Y17.685
X111.783 Y17.691
X111.434 Y17.825
X111.418 Y17.831
X111.091 Y17.961
X111.069 Y17.97
X110.766 Y18.095
X110.746 Y18.104
X110.465 Y18.225
X110.439 Y18.237
X110.181 Y18.354
X110.151 Y18.368
X109.916 Y18.481
X109.883 Y18.498
X109.67 Y18.607
X109.626 Y18.631
X109.437 Y18.736
X109.386 Y18.765
X109.22 Y18.866
X109.162 Y18.903
X109.018 Y19.
X108.946 Y19.051
X108.824 Y19.144
X108.736 Y19.217
X108.636 Y19.306
X108.527 Y19.413
X108.449 Y19.498
X108.381 Y19.578
X108.319 Y19.662
X108.263 Y19.744
G2 X108.137 Y19.964 I1.236 J0.849
G1 X108.101 Y20.042
G2 X107.997 Y20.356 I1.362 J0.629
G1 X107.981 Y20.43
G2 X107.948 Y20.809 I1.466 J0.315
G1 X107.951 Y20.88
G2 X108.029 Y21.297 I1.499 J-0.063
G1 X108.052 Y21.365
G2 X108.186 Y21.655 I1.421 J-0.48
G1 X108.225 Y21.72
G2 X108.395 Y21.951 I1.287 J-0.77
G1 X108.451 Y22.013
X108.526 Y22.091
X108.607 Y22.164
X108.679 Y22.224
X108.802 Y22.317
X108.888 Y22.375
X108.983 Y22.433
X109.081 Y22.489
X109.166 Y22.534
X109.277 Y22.588
X109.362 Y22.627
X109.614 Y22.731
X109.694 Y22.761
X109.98 Y22.861
X110.033 Y22.878
X110.345 Y22.974
X110.381 Y22.985
X110.712 Y23.077
X110.74 Y23.085
X111.084 Y23.174
X111.119 Y23.182
X111.831 Y23.348
X111.876 Y23.358
X112.598 Y23.503
X112.65 Y23.512
X113.367 Y23.631
X113.425 Y23.639
X114.08 Y23.721
X114.069 Y23.853
X114.018 Y24.337
X113.955 Y24.8
X113.882 Y25.243
X113.801 Y25.663
X113.708 Y26.061
X113.608 Y26.436
X113.499 Y26.787
X113.38 Y27.117
X113.254 Y27.425
X113.121 Y27.712
X112.984 Y27.977
X112.838 Y28.225
X112.686 Y28.457
X112.531 Y28.672
X112.368 Y28.876
X112.201 Y29.068
X112.029 Y29.25
X111.855 Y29.422
X111.677 Y29.586
X111.499 Y29.741
X111.319 Y29.889
X111.141 Y30.029
X110.968 Y30.16
X110.797 Y30.283
X110.631 Y30.399
X110.472 Y30.505
X110.323 Y30.601
X110.179 Y30.688
X110.028 Y30.776
G2 X109.487 Y32.828 I0.755 J1.296
X109.894 Y33.281 I1.296 J-0.755
G1 X110.063 Y33.405
X110.168 Y33.497
X110.261 Y33.596
X110.347 Y33.705
X110.427 Y33.827
X110.502 Y33.966
X110.571 Y34.121
X110.632 Y34.293
X110.684 Y34.482
X110.726 Y34.685
X110.758 Y34.902
X110.777 Y35.123
X110.783 Y35.34
X110.777 Y35.555
X110.759 Y35.76
X110.731 Y35.951
X110.694 Y36.124
X110.651 Y36.275
X110.601 Y36.412
X110.542 Y36.541
X110.475 Y36.667
X110.4 Y36.787
X110.157 Y37.126
X110.018 Y37.307
X109.858 Y37.515
X109.849 Y37.526
X109.68 Y37.748
X109.668 Y37.765
X109.493 Y38.002
X109.474 Y38.029
X109.296 Y38.281
X109.276 Y38.31
X109.096 Y38.578
X109.083 Y38.599
X108.9 Y38.881
X108.886 Y38.902
X108.702 Y39.197
X108.687 Y39.222
X108.32 Y39.836
X108.308 Y39.856
X107.949 Y40.479
X107.946 Y40.486
X107.602 Y41.09
X107.438 Y41.378
X107.434 Y41.384
X107.278 Y41.66
Y41.661
X107.129 Y41.926
X107.119 Y41.945
X106.981 Y42.198
X106.97 Y42.218
X106.842 Y42.461
X106.825 Y42.496
X106.709 Y42.731
X106.686 Y42.779
X106.583 Y43.008
X106.556 Y43.071
X106.467 Y43.296
X106.44 Y43.37
X106.365 Y43.593
X106.337 Y43.687
X106.278 Y43.909
X106.257 Y43.998
X106.212 Y44.222
X106.195 Y44.326
X106.166 Y44.552
X106.158 Y44.638
X106.142 Y44.866
X106.138 Y44.958
X106.136 Y45.188
X106.137 Y45.266
X106.147 Y45.498
X106.153 Y45.574
X106.175 Y45.807
X106.187 Y45.901
X106.261 Y46.367
X106.281 Y46.474
X106.324 Y46.656
G2 X106.065 Y46.864 I0.801 J1.268
G1 X105.455 Y47.473
G2 X105.015 Y48.534 I1.06 J1.061
G1 Y50.363
G2 X105.455 Y51.424 I1.5 J0.
G1 X105.773 Y51.742
G3 Y52.167 I-0.212 J0.212
G1 X105.561 Y52.379
X105.514 Y52.426 Z0.258
X105.469 Y52.471 Z0.28
X105.429 Y52.511 Z0.315
X105.395 Y52.545 Z0.363
X105.37 Y52.57 Z0.42
X105.354 Y52.586 Z0.483
X105.349 Y52.591 Z0.55
G0 Z21.243
X105.261 Y54.615
G1 Z17.243 F133.3
Z0.55
X105.265 Y54.621 Z0.483 F400
X105.278 Y54.639 Z0.42
X105.299 Y54.668 Z0.363
X105.327 Y54.706 Z0.315
X105.361 Y54.752 Z0.28
X105.398 Y54.804 Z0.258
X105.438 Y54.857 Z0.25
X105.614 Y55.1
G3 X105.668 Y55.323 I-0.242 J0.177
X105.549 Y55.519 I-0.296 J-0.046
G2 X105.338 Y55.7 I1.061 J1.454
G1 X104.728 Y56.31
G2 X104.2 Y57.583 I1.272 J1.273
G1 Y59.412
G2 X104.728 Y60.685 I1.8 J0.
G1 X105.338 Y61.295
X105.403 Y61.357
X105.472 Y61.416
X105.449 Y61.532
X105.375 Y61.998
X105.361 Y62.111
X105.339 Y62.344
X105.333 Y62.435
X105.323 Y62.667
X105.321 Y62.76
X105.323 Y62.991
X105.327 Y63.101
X105.343 Y63.329
X105.354 Y63.432
X105.383 Y63.658
X105.403 Y63.783
X105.448 Y64.007
X105.473 Y64.114
X105.532 Y64.336
X105.566 Y64.449
X105.641 Y64.672
X105.673 Y64.76
X105.762 Y64.985
X105.794 Y65.061
X105.897 Y65.29
X105.925 Y65.348
X106.041 Y65.583
X106.062 Y65.625
X106.19 Y65.868
X106.202 Y65.891
X106.34 Y66.145
X106.352 Y66.167
X106.501 Y66.432
X106.502 Y66.433
X106.658 Y66.71
X106.662 Y66.716
X106.826 Y67.004
X107.17 Y67.608
X107.174 Y67.616
X107.533 Y68.239
X107.548 Y68.264
X107.915 Y68.878
X107.933 Y68.907
X108.117 Y69.202
X108.133 Y69.228
X108.316 Y69.511
X108.332 Y69.535
X108.512 Y69.803
X108.535 Y69.837
X108.713 Y70.09
X108.737 Y70.123
X108.912 Y70.36
X108.926 Y70.379
X109.095 Y70.602
X109.105 Y70.614
X109.265 Y70.822
X109.401 Y70.998
X109.635 Y71.325
X109.7 Y71.429
X109.758 Y71.538
X109.808 Y71.648
X109.851 Y71.764
X109.888 Y71.894
X109.921 Y72.048
X109.946 Y72.22
X109.962 Y72.408
X109.968 Y72.606
X109.962 Y72.806
X109.944 Y73.009
X109.915 Y73.209
X109.877 Y73.393
X109.83 Y73.562
X109.777 Y73.714
X109.718 Y73.848
X109.654 Y73.966
X109.588 Y74.066
X109.519 Y74.154
X109.444 Y74.233
X109.36 Y74.307
X109.201 Y74.424
G2 X108.818 Y76.94 I1.067 J1.45
X109.362 Y77.429 I1.45 J-1.067
G1 X109.511 Y77.516
X109.649 Y77.6
X109.793 Y77.692
X109.947 Y77.795
X110.109 Y77.907
X110.275 Y78.028
X110.443 Y78.154
X110.616 Y78.29
X110.79 Y78.434
X110.962 Y78.583
X111.133 Y78.741
X111.3 Y78.906
X111.464 Y79.079
X111.622 Y79.262
X111.777 Y79.456
X111.924 Y79.659
X112.068 Y79.879
X112.206 Y80.115
X112.337 Y80.366
X112.464 Y80.64
X112.585 Y80.936
X112.699 Y81.255
X112.805 Y81.593
X112.902 Y81.957
X112.992 Y82.345
X113.072 Y82.756
X113.144 Y83.191
X113.205 Y83.645
X113.239 Y83.963
X112.873 Y84.009
X112.803 Y84.019
X112.086 Y84.138
X112.024 Y84.149
X111.302 Y84.294
X111.248 Y84.306
X110.536 Y84.472
X110.494 Y84.482
X110.15 Y84.571
X110.117 Y84.58
X109.786 Y84.672
X109.742 Y84.685
X109.43 Y84.781
X109.367 Y84.802
X109.081 Y84.901
X108.985 Y84.938
X108.733 Y85.042
X108.629 Y85.089
X108.518 Y85.143
X108.417 Y85.196
X108.319 Y85.252
X108.206 Y85.322
X108.12 Y85.38
X108.044 Y85.434
X107.972 Y85.492
X107.9 Y85.552
G2 X107.712 Y85.732 I1.153 J1.382
G1 X107.656 Y85.795
G2 X107.452 Y86.072 I1.341 J1.201
G1 X107.413 Y86.137
G2 X107.253 Y86.485 I1.545 J0.924
G1 X107.23 Y86.553
G2 X107.137 Y87.054 I1.705 J0.577
G1 X107.134 Y87.125
G2 X107.172 Y87.579 I1.798 J0.076
G1 X107.188 Y87.653
G2 X107.314 Y88.03 I1.76 J-0.378
G1 X107.35 Y88.108
G2 X107.501 Y88.373 I1.634 J-0.755
G1 X107.557 Y88.454
X107.631 Y88.555
X107.712 Y88.65
X107.79 Y88.735
X107.854 Y88.801
X107.921 Y88.864
X108.021 Y88.953
X108.128 Y89.04
X108.25 Y89.133
X108.335 Y89.195
X108.479 Y89.292
X108.549 Y89.336
X108.715 Y89.437
X108.776 Y89.473
X108.965 Y89.578
X109.018 Y89.606
X109.231 Y89.715
X109.271 Y89.735
X109.506 Y89.848
X109.541 Y89.865
X109.799 Y89.982
X109.831 Y89.996
X110.112 Y90.117
X110.136 Y90.128
X110.439 Y90.254
X110.465 Y90.264
X110.792 Y90.394
X110.811 Y90.401
X110.98 Y90.466
X110.908 Y90.527
X110.801 Y90.622
X110.707 Y90.712
X110.603 Y90.819
X110.52 Y90.91
X110.419 Y91.029
X110.355 Y91.11
X110.256 Y91.242
X110.192 Y91.332
X110.097 Y91.476
X110.053 Y91.546
X109.96 Y91.702
X109.923 Y91.766
X109.832 Y91.934
X109.799 Y92.
X109.711 Y92.18
X109.686 Y92.232
X109.6 Y92.423
X109.579 Y92.47
X109.495 Y92.672
X109.471 Y92.734
X109.309 Y93.167
X109.286 Y93.233
X109.131 Y93.703
X109.113 Y93.76
X108.966 Y94.26
X108.954 Y94.304
X108.814 Y94.829
X108.804 Y94.865
X108.671 Y95.41
X108.663 Y95.446
X108.539 Y96.002
X108.532 Y96.036
X108.418 Y96.599
X108.412 Y96.629
X108.308 Y97.192
X108.301 Y97.23
X108.21 Y97.788
X108.205 Y97.824
X108.127 Y98.372
X108.121 Y98.415
X108.058 Y98.95
X108.053 Y99.004
X108.008 Y99.522
X108.003 Y99.584
X107.977 Y100.083
X107.975 Y100.158
X107.97 Y100.636
X107.971 Y100.722
X107.988 Y101.18
X107.995 Y101.286
X108.037 Y101.721
X108.052 Y101.836
X108.119 Y102.249
X108.145 Y102.38
X108.239 Y102.773
X108.277 Y102.908
X108.397 Y103.279
X108.449 Y103.419
X108.596 Y103.771
X108.658 Y103.903
X108.83 Y104.236
X108.903 Y104.364
X109.1 Y104.679
X109.18 Y104.797
X109.401 Y105.095
X109.481 Y105.196
X109.724 Y105.479
X109.805 Y105.567
X110.068 Y105.835
X110.148 Y105.911
X110.43 Y106.165
X110.511 Y106.234
X110.811 Y106.474
X110.885 Y106.53
X111.201 Y106.757
X111.279 Y106.81
X111.611 Y107.023
X111.686 Y107.069
X112.034 Y107.269
X112.108 Y107.309
X112.47 Y107.495
X112.546 Y107.532
X112.923 Y107.704
X112.997 Y107.735
X113.389 Y107.893
X113.466 Y107.923
X113.871 Y108.065
X113.943 Y108.088
X114.364 Y108.216
X114.442 Y108.238
X114.876 Y108.349
X114.941 Y108.364
X115.389 Y108.461
X115.464 Y108.476
X115.927 Y108.556
X115.993 Y108.566
X116.469 Y108.63
X116.53 Y108.637
X117.021 Y108.686
X117.086 Y108.691
X117.59 Y108.723
X117.645 Y108.726
X118.163 Y108.743
X118.222 Y108.744
X118.754
X118.774
X121.243 Y108.716
X123.711 Y108.744
X123.731
X124.263
X124.322 Y108.743
X124.84 Y108.726
X124.895 Y108.723
X125.399 Y108.691
X125.464 Y108.686
X125.955 Y108.637
X126.016 Y108.63
X126.492 Y108.566
X126.558 Y108.556
X127.021 Y108.476
X127.096 Y108.461
X127.544 Y108.364
X127.609 Y108.349
X128.043 Y108.238
X128.121 Y108.216
X128.542 Y108.088
X128.614 Y108.065
X129.019 Y107.923
X129.096 Y107.893
X129.488 Y107.735
X129.562 Y107.704
X129.939 Y107.532
X130.015 Y107.495
X130.377 Y107.309
X130.451 Y107.269
X130.799 Y107.069
X130.874 Y107.023
X131.206 Y106.81
X131.284 Y106.757
X131.6 Y106.53
X131.674 Y106.474
X131.974 Y106.234
X132.055 Y106.165
X132.337 Y105.911
X132.417 Y105.835
X132.68 Y105.567
X132.761 Y105.479
X133.004 Y105.196
X133.084 Y105.095
X133.305 Y104.797
X133.385 Y104.679
X133.582 Y104.364
X133.655 Y104.236
X133.827 Y103.903
X133.889 Y103.771
X134.036 Y103.419
X134.088 Y103.279
X134.208 Y102.908
X134.246 Y102.773
X134.34 Y102.38
X134.366 Y102.249
X134.433 Y101.836
X134.448 Y101.721
X134.49 Y101.286
X134.497 Y101.18
X134.514 Y100.722
X134.515 Y100.636
X134.51 Y100.158
X134.508 Y100.083
X134.482 Y99.584
X134.477 Y99.522
X134.432 Y99.004
X134.427 Y98.95
X134.364 Y98.415
X134.358 Y98.372
X134.28 Y97.824
X134.275 Y97.788
X134.184 Y97.23
X134.177 Y97.192
X134.073 Y96.629
X134.067 Y96.599
X133.953 Y96.036
X133.946 Y96.002
X133.822 Y95.446
X133.814 Y95.41
X133.681 Y94.865
X133.671 Y94.829
X133.531 Y94.304
X133.519 Y94.26
X133.372 Y93.76
X133.354 Y93.703
X133.199 Y93.233
X133.176 Y93.167
X133.014 Y92.734
X132.99 Y92.672
X132.906 Y92.47
X132.885 Y92.423
X132.799 Y92.232
X132.774 Y92.18
X132.686 Y92.
X132.653 Y91.934
X132.562 Y91.766
X132.525 Y91.702
X132.432 Y91.546
X132.388 Y91.476
X132.293 Y91.332
X132.229 Y91.242
X132.13 Y91.11
X132.066 Y91.029
X131.965 Y90.91
X131.882 Y90.819
X131.778 Y90.712
X131.684 Y90.622
X131.577 Y90.527
X131.505 Y90.466
X131.674 Y90.401
X131.693 Y90.394
X132.02 Y90.264
X132.046 Y90.254
X132.349 Y90.128
X132.373 Y90.117
X132.654 Y89.996
X132.686 Y89.982
X132.944 Y89.865
X132.979 Y89.848
X133.214 Y89.735
X133.254 Y89.715
X133.467 Y89.606
X133.52 Y89.578
X133.709 Y89.473
X133.77 Y89.437
X133.936 Y89.336
X134.006 Y89.292
X134.15 Y89.195
X134.235 Y89.133
X134.357 Y89.04
X134.464 Y88.953
X134.564 Y88.864
X134.631 Y88.801
X134.695 Y88.735
X134.773 Y88.65
X134.854 Y88.555
X134.928 Y88.454
X134.984 Y88.373
G2 X135.135 Y88.108 I-1.483 J-1.02
G1 X135.171 Y88.03
G2 X135.297 Y87.653 I-1.634 J-0.755
G1 X135.313 Y87.579
G2 X135.351 Y87.125 I-1.76 J-0.378
G1 X135.348 Y87.054
G2 X135.255 Y86.553 I-1.798 J0.076
G1 X135.232 Y86.485
G2 X135.072 Y86.137 I-1.705 J0.577
G1 X135.033 Y86.072
G2 X134.829 Y85.795 I-1.545 J0.924
G1 X134.773 Y85.732
G2 X134.585 Y85.552 I-1.341 J1.201
G1 X134.513 Y85.492
X134.441 Y85.434
X134.365 Y85.38
X134.279 Y85.322
X134.166 Y85.252
X134.068 Y85.196
X133.967 Y85.143
X133.856 Y85.089
X133.752 Y85.042
X133.5 Y84.938
X133.404 Y84.901
X133.118 Y84.802
X133.055 Y84.781
X132.743 Y84.685
X132.699 Y84.672
X132.368 Y84.58
X132.335 Y84.571
X131.991 Y84.482
X131.949 Y84.472
X131.237 Y84.306
X131.183 Y84.294
X130.461 Y84.149
X130.399 Y84.138
X129.682 Y84.019
X129.612 Y84.009
X129.246 Y83.963
X129.28 Y83.645
X129.341 Y83.191
X129.413 Y82.756
X129.493 Y82.345
X129.583 Y81.957
X129.68 Y81.593
X129.786 Y81.255
X129.9 Y80.936
X130.021 Y80.64
X130.148 Y80.366
X130.279 Y80.115
X130.417 Y79.879
X130.561 Y79.659
X130.708 Y79.456
X130.863 Y79.262
X131.021 Y79.079
X131.185 Y78.906
X131.352 Y78.741
X131.523 Y78.583
X131.695 Y78.434
X131.869 Y78.29
X132.042 Y78.154
X132.21 Y78.028
X132.376 Y77.907
X132.538 Y77.795
X132.692 Y77.692
X132.836 Y77.6
X132.974 Y77.516
X133.123 Y77.429
G2 X133.772 Y74.967 I-0.906 J-1.555
X133.284 Y74.424 I-1.555 J0.906
G1 X133.125 Y74.307
X133.041 Y74.233
X132.966 Y74.154
X132.897 Y74.066
X132.831 Y73.966
X132.767 Y73.848
X132.708 Y73.714
X132.655 Y73.562
X132.608 Y73.393
X132.57 Y73.209
X132.541 Y73.009
X132.523 Y72.806
X132.517 Y72.606
X132.523 Y72.408
X132.539 Y72.22
X132.564 Y72.048
X132.597 Y71.894
X132.634 Y71.764
X132.677 Y71.648
X132.727 Y71.538
X132.785 Y71.429
X132.85 Y71.325
X133.084 Y70.998
X133.22 Y70.822
X133.38 Y70.614
X133.39 Y70.602
X133.559 Y70.379
X133.573 Y70.36
X133.748 Y70.123
X133.772 Y70.09
X133.95 Y69.837
X133.973 Y69.803
X134.153 Y69.535
X134.169 Y69.511
X134.352 Y69.228
X134.368 Y69.202
X134.552 Y68.907
X134.57 Y68.878
X134.937 Y68.264
X134.952 Y68.239
X135.311 Y67.616
X135.315 Y67.608
X135.659 Y67.004
X135.823 Y66.716
X135.827 Y66.71
X135.983 Y66.433
X135.984 Y66.432
X136.133 Y66.167
X136.145 Y66.145
X136.283 Y65.891
X136.295 Y65.868
X136.423 Y65.625
X136.444 Y65.583
X136.56 Y65.348
X136.588 Y65.29
X136.691 Y65.061
X136.723 Y64.985
X136.812 Y64.76
X136.844 Y64.672
X136.919 Y64.449
X136.953 Y64.336
X137.012 Y64.114
X137.037 Y64.007
X137.082 Y63.783
X137.102 Y63.658
X137.131 Y63.432
X137.142 Y63.329
X137.158 Y63.101
X137.162 Y62.991
X137.164 Y62.76
X137.162 Y62.667
X137.152 Y62.435
X137.146 Y62.344
X137.124 Y62.111
X137.11 Y61.998
X137.036 Y61.532
X137.013 Y61.416
X137.082 Y61.357
X137.147 Y61.295
X137.757 Y60.685
G2 X138.285 Y59.412 I-1.272 J-1.273
G1 Y57.583
G2 X137.757 Y56.31 I-1.8 J0.
G1 X137.147 Y55.7
G2 X135.875 Y55.173 I-1.272 J1.273
G1 X106.61
G2 X105.549 Y55.519 I0. J1.8
X105.462 Y55.79 I0.143 J0.195
G3 X105.395 Y56.066 I-0.258 J0.084
G1 X104.94 Y56.522
G2 X104.5 Y57.583 I1.06 J1.061
G1 Y59.412
G2 X104.94 Y60.473 I1.5 J0.
G1 X105.55 Y61.082
G2 X105.809 Y61.29 I1.06 J-1.061
G1 X105.766 Y61.472
X105.746 Y61.579
X105.672 Y62.045
X105.66 Y62.139
X105.638 Y62.372
X105.632 Y62.448
X105.622 Y62.68
X105.621 Y62.758
X105.623 Y62.988
X105.627 Y63.08
X105.643 Y63.308
X105.651 Y63.394
X105.68 Y63.62
X105.697 Y63.724
X105.742 Y63.948
X105.763 Y64.037
X105.822 Y64.259
X105.85 Y64.353
X105.925 Y64.576
X105.952 Y64.65
X106.041 Y64.875
X106.068 Y64.938
X106.171 Y65.167
X106.194 Y65.215
X106.31 Y65.45
X106.327 Y65.485
X106.455 Y65.729
X106.465 Y65.748
X106.603 Y66.001
X106.614 Y66.02
X106.763 Y66.285
Y66.286
X106.919 Y66.562
X106.923 Y66.568
X107.087 Y66.856
X107.431 Y67.46
X107.434 Y67.467
X107.793 Y68.09
X107.805 Y68.11
X108.172 Y68.724
X108.187 Y68.749
X108.371 Y69.044
X108.385 Y69.065
X108.568 Y69.348
X108.581 Y69.368
X108.761 Y69.636
X108.781 Y69.664
X108.959 Y69.917
X108.978 Y69.945
X109.153 Y70.182
X109.165 Y70.198
X109.334 Y70.42
X109.342 Y70.431
X109.503 Y70.639
X109.642 Y70.82
X109.885 Y71.158
X109.96 Y71.279
X110.027 Y71.405
X110.086 Y71.534
X110.136 Y71.671
X110.179 Y71.822
X110.216 Y71.995
X110.244 Y72.186
X110.262 Y72.391
X110.268 Y72.606
X110.262 Y72.823
X110.243 Y73.044
X110.211 Y73.261
X110.169 Y73.464
X110.117 Y73.653
X110.056 Y73.825
X109.987 Y73.98
X109.912 Y74.12
X109.832 Y74.242
X109.746 Y74.35
X109.653 Y74.449
X109.548 Y74.541
X109.379 Y74.665
G2 X109.06 Y76.763 I0.889 J1.208
X109.513 Y77.17 I1.208 J-0.889
G1 X109.664 Y77.258
X109.808 Y77.346
X109.957 Y77.441
X110.116 Y77.547
X110.282 Y77.663
X110.453 Y77.786
X110.626 Y77.917
X110.804 Y78.057
X110.984 Y78.205
X111.162 Y78.36
X111.34 Y78.524
X111.515 Y78.696
X111.686 Y78.878
X111.853 Y79.07
X112.016 Y79.274
X112.171 Y79.489
X112.323 Y79.721
X112.469 Y79.969
X112.606 Y80.234
X112.739 Y80.521
X112.865 Y80.829
X112.984 Y81.159
X113.093 Y81.51
X113.193 Y81.885
X113.286 Y82.283
X113.367 Y82.703
X113.44 Y83.146
X113.503 Y83.609
X113.554 Y84.093
X113.565 Y84.225
X112.91 Y84.307
X112.852 Y84.315
X112.135 Y84.434
X112.083 Y84.443
X111.361 Y84.588
X111.316 Y84.598
X110.604 Y84.764
X110.569 Y84.772
X110.225 Y84.861
X110.198 Y84.869
X109.867 Y84.961
X109.83 Y84.972
X109.518 Y85.068
X109.465 Y85.085
X109.179 Y85.185
X109.099 Y85.215
X108.847 Y85.319
X108.761 Y85.358
X108.65 Y85.412
X108.566 Y85.457
X108.468 Y85.513
X108.373 Y85.571
X108.287 Y85.629
X108.164 Y85.722
X108.092 Y85.782
X108.011 Y85.855
X107.936 Y85.933
X107.88 Y85.995
G2 X107.71 Y86.226 I1.117 J1.001
G1 X107.671 Y86.291
G2 X107.537 Y86.581 I1.287 J0.77
G1 X107.514 Y86.649
G2 X107.436 Y87.066 I1.421 J0.481
G1 X107.433 Y87.137
G2 X107.466 Y87.516 I1.499 J0.063
G1 X107.482 Y87.59
G2 X107.586 Y87.904 I1.466 J-0.315
G1 X107.622 Y87.982
G2 X107.748 Y88.203 I1.362 J-0.629
G1 X107.804 Y88.284
X107.866 Y88.368
X107.934 Y88.447
X108.012 Y88.532
X108.121 Y88.64
X108.221 Y88.729
X108.309 Y88.802
X108.431 Y88.895
X108.503 Y88.946
X108.647 Y89.043
X108.705 Y89.08
X108.871 Y89.181
X108.922 Y89.211
X109.111 Y89.316
X109.155 Y89.339
X109.368 Y89.448
X109.401 Y89.464
X109.636 Y89.578
X109.666 Y89.592
X109.924 Y89.709
X109.95 Y89.721
X110.231 Y89.842
X110.251 Y89.851
X110.554 Y89.976
X110.576 Y89.985
X110.903 Y90.115
X110.919 Y90.121
X111.268 Y90.255
X111.284 Y90.261
X111.626 Y90.388
X111.509 Y90.457
X111.397 Y90.53
X111.306 Y90.594
X111.196 Y90.678
X111.107 Y90.751
X111. Y90.846
X110.922 Y90.921
X110.818 Y91.028
X110.749 Y91.104
X110.648 Y91.223
X110.594 Y91.291
X110.495 Y91.422
X110.442 Y91.498
X110.347 Y91.642
X110.311 Y91.7
X110.218 Y91.856
X110.187 Y91.909
X110.096 Y92.077
X110.068 Y92.132
X109.98 Y92.312
X109.959 Y92.355
X109.873 Y92.546
X109.856 Y92.585
X109.772 Y92.787
X109.752 Y92.839
X109.59 Y93.272
X109.571 Y93.327
X109.416 Y93.797
X109.401 Y93.844
X109.254 Y94.345
X109.244 Y94.381
X109.104 Y94.907
X109.096 Y94.937
X108.963 Y95.481
X108.956 Y95.511
X108.832 Y96.067
X108.826 Y96.096
X108.712 Y96.659
X108.707 Y96.684
X108.603 Y97.247
X108.598 Y97.278
X108.507 Y97.836
X108.502 Y97.866
X108.424 Y98.414
X108.419 Y98.45
X108.356 Y98.985
X108.352 Y99.03
X108.307 Y99.548
X108.303 Y99.6
X108.277 Y100.099
X108.275 Y100.161
X108.27 Y100.639
X108.271 Y100.711
X108.288 Y101.169
X108.294 Y101.257
X108.336 Y101.692
X108.348 Y101.788
X108.415 Y102.201
X108.437 Y102.31
X108.531 Y102.703
X108.563 Y102.816
X108.683 Y103.187
X108.726 Y103.303
X108.873 Y103.655
X108.924 Y103.765
X109.096 Y104.098
X109.157 Y104.205
X109.354 Y104.52
X109.421 Y104.619
X109.642 Y104.917
X109.709 Y105.
X109.952 Y105.283
X110.019 Y105.357
X110.282 Y105.625
X110.349 Y105.689
X110.631 Y105.943
X110.698 Y105.999
X110.998 Y106.239
X111.06 Y106.286
X111.376 Y106.513
X111.441 Y106.558
X111.773 Y106.771
X111.836 Y106.809
X112.184 Y107.009
X112.245 Y107.042
X112.607 Y107.228
X112.67 Y107.259
X113.047 Y107.431
X113.109 Y107.457
X113.501 Y107.615
X113.566 Y107.64
X113.971 Y107.782
X114.031 Y107.801
X114.452 Y107.929
X114.516 Y107.947
X114.95 Y108.058
X115.005 Y108.071
X115.453 Y108.168
X115.515 Y108.18
X115.978 Y108.26
X116.033 Y108.269
X116.509 Y108.333
X116.56 Y108.339
X117.051 Y108.388
X117.105 Y108.392
X117.609 Y108.424
X117.655 Y108.426
X118.173 Y108.443
X118.222 Y108.444
X118.754
X118.771
X121.243 Y108.416
X123.714 Y108.444
X123.731
X124.263
X124.312 Y108.443
X124.83 Y108.426
X124.876 Y108.424
X125.38 Y108.392
X125.434 Y108.388
X125.925 Y108.339
X125.976 Y108.333
X126.452 Y108.269
X126.507 Y108.26
X126.97 Y108.18
X127.032 Y108.168
X127.48 Y108.071
X127.535 Y108.058
X127.969 Y107.947
X128.033 Y107.929
X128.454 Y107.801
X128.514 Y107.782
X128.919 Y107.64
X128.984 Y107.615
X129.376 Y107.457
X129.438 Y107.431
X129.815 Y107.259
X129.878 Y107.228
X130.24 Y107.042
X130.301 Y107.009
X130.649 Y106.809
X130.712 Y106.771
X131.044 Y106.558
X131.109 Y106.513
X131.425 Y106.286
X131.487 Y106.239
X131.787 Y105.999
X131.854 Y105.943
X132.136 Y105.689
X132.203 Y105.625
X132.466 Y105.357
X132.533 Y105.283
X132.776 Y105.
X132.843 Y104.917
X133.064 Y104.619
X133.131 Y104.52
X133.328 Y104.205
X133.389 Y104.098
X133.561 Y103.765
X133.612 Y103.655
X133.759 Y103.303
X133.802 Y103.187
X133.922 Y102.816
X133.954 Y102.703
X134.048 Y102.31
X134.07 Y102.201
X134.137 Y101.788
X134.149 Y101.692
X134.191 Y101.257
X134.197 Y101.169
X134.214 Y100.711
X134.215 Y100.639
X134.21 Y100.161
X134.208 Y100.099
X134.182 Y99.6
X134.178 Y99.548
X134.133 Y99.03
X134.129 Y98.985
X134.066 Y98.45
X134.061 Y98.414
X133.983 Y97.866
X133.978 Y97.836
X133.887 Y97.278
X133.882 Y97.247
X133.778 Y96.684
X133.773 Y96.659
X133.659 Y96.096
X133.653 Y96.067
X133.529 Y95.511
X133.522 Y95.481
X133.389 Y94.937
X133.381 Y94.907
X133.241 Y94.381
X133.231 Y94.345
X133.084 Y93.844
X133.069 Y93.797
X132.914 Y93.327
X132.895 Y93.272
X132.733 Y92.839
X132.713 Y92.787
X132.629 Y92.585
X132.612 Y92.546
X132.526 Y92.355
X132.505 Y92.312
X132.417 Y92.132
X132.389 Y92.077
X132.298 Y91.909
X132.267 Y91.856
X132.174 Y91.7
X132.138 Y91.642
X132.043 Y91.498
X131.99 Y91.422
X131.891 Y91.291
X131.837 Y91.223
X131.736 Y91.104
X131.667 Y91.028
X131.563 Y90.921
X131.485 Y90.846
X131.378 Y90.751
X131.289 Y90.678
X131.179 Y90.594
X131.088 Y90.53
X130.976 Y90.457
X130.859 Y90.388
X131.201 Y90.261
X131.217 Y90.255
X131.566 Y90.121
X131.582 Y90.115
X131.909 Y89.985
X131.931 Y89.976
X132.234 Y89.851
X132.254 Y89.842
X132.535 Y89.721
X132.561 Y89.709
X132.819 Y89.592
X132.849 Y89.578
X133.084 Y89.464
X133.117 Y89.448
X133.33 Y89.339
X133.374 Y89.316
X133.563 Y89.211
X133.614 Y89.181
X133.78 Y89.08
X133.838 Y89.043
X133.982 Y88.946
X134.054 Y88.895
X134.176 Y88.802
X134.264 Y88.729
X134.364 Y88.64
X134.473 Y88.532
X134.551 Y88.447
X134.619 Y88.368
X134.681 Y88.284
X134.737 Y88.203
G2 X134.863 Y87.982 I-1.236 J-0.85
G1 X134.899 Y87.904
G2 X135.003 Y87.59 I-1.362 J-0.629
G1 X135.019 Y87.516
G2 X135.052 Y87.137 I-1.466 J-0.315
G1 X135.049 Y87.066
G2 X134.971 Y86.649 I-1.499 J0.063
G1 X134.948 Y86.581
G2 X134.814 Y86.291 I-1.421 J0.481
G1 X134.775 Y86.226
G2 X134.605 Y85.995 I-1.287 J0.77
G1 X134.549 Y85.933
X134.474 Y85.855
X134.393 Y85.782
X134.321 Y85.722
X134.198 Y85.629
X134.112 Y85.571
X134.017 Y85.513
X133.919 Y85.457
X133.835 Y85.412
X133.724 Y85.358
X133.638 Y85.319
X133.386 Y85.215
X133.306 Y85.185
X133.02 Y85.085
X132.967 Y85.068
X132.655 Y84.972
X132.618 Y84.961
X132.287 Y84.869
X132.26 Y84.861
X131.916 Y84.772
X131.881 Y84.764
X131.169 Y84.598
X131.124 Y84.588
X130.402 Y84.443
X130.35 Y84.434
X129.633 Y84.315
X129.575 Y84.307
X128.92 Y84.225
X128.931 Y84.093
X128.982 Y83.609
X129.045 Y83.146
X129.118 Y82.703
X129.199 Y82.283
X129.292 Y81.885
X129.392 Y81.51
X129.501 Y81.159
X129.62 Y80.829
X129.746 Y80.521
X129.879 Y80.234
X130.016 Y79.969
X130.162 Y79.721
X130.314 Y79.489
X130.469 Y79.274
X130.632 Y79.07
X130.799 Y78.878
X130.97 Y78.696
X131.145 Y78.524
X131.323 Y78.36
X131.501 Y78.205
X131.681 Y78.057
X131.859 Y77.917
X132.032 Y77.786
X132.203 Y77.663
X132.369 Y77.547
X132.528 Y77.441
X132.677 Y77.346
X132.821 Y77.258
X132.972 Y77.17
G2 X133.513 Y75.118 I-0.755 J-1.296
X133.106 Y74.665 I-1.296 J0.755
G1 X132.937 Y74.541
X132.832 Y74.449
X132.739 Y74.35
X132.653 Y74.242
X132.573 Y74.12
X132.498 Y73.98
X132.429 Y73.825
X132.368 Y73.653
X132.316 Y73.464
X132.274 Y73.261
X132.242 Y73.044
X132.223 Y72.823
X132.217 Y72.606
X132.223 Y72.391
X132.241 Y72.186
X132.269 Y71.995
X132.306 Y71.822
X132.349 Y71.671
X132.399 Y71.534
X132.458 Y71.405
X132.525 Y71.279
X132.6 Y71.158
X132.843 Y70.82
X132.982 Y70.639
X133.143 Y70.431
X133.151 Y70.42
X133.32 Y70.198
X133.332 Y70.182
X133.507 Y69.945
X133.526 Y69.917
X133.704 Y69.664
X133.724 Y69.636
X133.904 Y69.368
X133.917 Y69.348
X134.1 Y69.065
X134.114 Y69.044
X134.298 Y68.749
X134.313 Y68.724
X134.68 Y68.11
X134.692 Y68.09
X135.051 Y67.467
X135.054 Y67.46
X135.398 Y66.856
X135.562 Y66.568
X135.566 Y66.562
X135.722 Y66.286
Y66.285
X135.871 Y66.02
X135.882 Y66.001
X136.02 Y65.748
X136.03 Y65.729
X136.158 Y65.485
X136.175 Y65.45
X136.291 Y65.215
X136.314 Y65.167
X136.417 Y64.938
X136.444 Y64.875
X136.533 Y64.65
X136.56 Y64.576
X136.635 Y64.353
X136.663 Y64.259
X136.722 Y64.037
X136.743 Y63.948
X136.788 Y63.724
X136.805 Y63.62
X136.834 Y63.394
X136.842 Y63.308
X136.858 Y63.08
X136.862 Y62.988
X136.864 Y62.758
X136.863 Y62.68
X136.853 Y62.448
X136.847 Y62.372
X136.825 Y62.139
X136.813 Y62.045
X136.739 Y61.579
X136.719 Y61.472
X136.676 Y61.29
G2 X136.935 Y61.082 I-0.801 J-1.268
G1 X137.545 Y60.473
G2 X137.985 Y59.412 I-1.06 J-1.061
G1 Y57.583
G2 X137.545 Y56.522 I-1.5 J0.
G1 X136.935 Y55.912
G2 X135.875 Y55.473 I-1.06 J1.061
G1 X106.61
G2 X105.55 Y55.912 I0. J1.5
G1 X105.395 Y56.066
G3 X104.971 I-0.212 J-0.212
G1 X104.759 Y55.854
X104.712 Y55.807 Z0.258
X104.667 Y55.762 Z0.28
X104.627 Y55.722 Z0.315
X104.593 Y55.688 Z0.363
X104.568 Y55.663 Z0.42
X104.552 Y55.647 Z0.483
X104.547 Y55.642 Z0.55
G0 Z21.243
X103.606 Y55.885
G1 Z17.243 F133.3
Z0.55
X103.601 Y55.89 Z0.483 F400
X103.585 Y55.906 Z0.42
X103.56 Y55.931 Z0.363
X103.526 Y55.965 Z0.315
X103.486 Y56.005 Z0.28
X103.441 Y56.05 Z0.258
X103.394 Y56.097 Z0.25
X103.182 Y56.309
G3 X102.97 Y56.397 I-0.212 J-0.212
X102.757 Y56.31 I0. J-0.3
G1 X102.147 Y55.7
G2 X100.875 Y55.173 I-1.272 J1.273
G1 X71.61
G2 X70.337 Y55.7 I0. J1.8
G1 X69.727 Y56.31
G2 X69.2 Y57.583 I1.273 J1.273
G1 Y59.412
G2 X69.727 Y60.685 I1.8 J0.
G1 X70.337 Y61.294
X70.402 Y61.357
X70.471 Y61.416
X70.449 Y61.533
X70.375 Y61.999
X70.361 Y62.113
X70.339 Y62.346
X70.333 Y62.434
X70.323 Y62.666
X70.321 Y62.762
X70.323 Y62.992
X70.327 Y63.097
X70.343 Y63.325
X70.354 Y63.439
X70.384 Y63.664
X70.403 Y63.779
X70.447 Y64.003
X70.474 Y64.117
X70.533 Y64.34
X70.565 Y64.445
X70.639 Y64.668
X70.673 Y64.76
X70.762 Y64.985
X70.794 Y65.061
X70.897 Y65.29
X70.924 Y65.348
X71.04 Y65.583
X71.061 Y65.624
X71.189 Y65.868
X71.204 Y65.895
X71.342 Y66.148
X71.351 Y66.164
X71.499 Y66.429
X71.504 Y66.436
X71.66 Y66.713
X71.662 Y66.715
X71.825 Y67.003
X71.826 Y67.004
X72.17 Y67.608
X72.175 Y67.617
X72.534 Y68.24
X72.548 Y68.263
X72.914 Y68.877
X72.932 Y68.906
X73.116 Y69.201
X73.132 Y69.227
X73.315 Y69.51
X73.334 Y69.538
X73.515 Y69.807
X73.536 Y69.837
X73.714 Y70.09
X73.735 Y70.119
X73.909 Y70.356
X73.926 Y70.379
X74.095 Y70.602
X74.105 Y70.614
X74.266 Y70.823
X74.402 Y71.
X74.634 Y71.324
X74.7 Y71.43
X74.759 Y71.539
X74.807 Y71.646
X74.85 Y71.763
X74.888 Y71.896
X74.921 Y72.049
X74.946 Y72.22
X74.962 Y72.407
X74.968 Y72.605
X74.962 Y72.808
X74.945 Y73.011
X74.916 Y73.207
X74.877 Y73.393
X74.83 Y73.562
X74.776 Y73.715
X74.717 Y73.849
X74.655 Y73.965
X74.588 Y74.066
X74.519 Y74.154
X74.444 Y74.233
X74.36 Y74.307
X74.203 Y74.423
G2 X73.817 Y76.939 I1.065 J1.451
X74.363 Y77.43 I1.451 J-1.065
G1 X74.51 Y77.515
X74.648 Y77.6
X74.794 Y77.693
X74.947 Y77.795
X75.108 Y77.907
X75.274 Y78.027
X75.444 Y78.155
X75.616 Y78.29
X75.789 Y78.433
X75.962 Y78.583
X76.132 Y78.741
X76.3 Y78.906
X76.464 Y79.079
X76.622 Y79.262
X76.776 Y79.455
X76.925 Y79.66
X77.068 Y79.879
X77.206 Y80.114
X77.338 Y80.367
X77.465 Y80.641
X77.585 Y80.936
X77.698 Y81.253
X77.805 Y81.594
X77.903 Y81.958
X77.992 Y82.345
X78.073 Y82.756
X78.143 Y83.189
X78.204 Y83.645
X78.239 Y83.963
X77.873 Y84.009
X77.803 Y84.019
X77.086 Y84.138
X77.024 Y84.149
X76.302 Y84.294
X76.248 Y84.306
X75.536 Y84.472
X75.495 Y84.482
X75.151 Y84.571
X75.117 Y84.58
X74.786 Y84.672
X74.741 Y84.685
X74.43 Y84.781
X74.367 Y84.802
X74.081 Y84.901
X73.986 Y84.937
X73.733 Y85.041
X73.627 Y85.089
X73.517 Y85.144
X73.423 Y85.193
X73.324 Y85.249
X73.204 Y85.324
X73.118 Y85.381
X73.041 Y85.437
X72.966 Y85.496
X72.895 Y85.556
G2 X72.714 Y85.731 I1.158 J1.378
G1 X72.658 Y85.794
G2 X72.459 Y86.062 I1.34 J1.202
G1 X72.419 Y86.127
G2 X72.245 Y86.507 I1.538 J0.934
G1 X72.223 Y86.575
G2 X72.138 Y87.038 I1.713 J0.554
G1 X72.134 Y87.11
G2 X72.172 Y87.577 I1.798 J0.091
G1 X72.188 Y87.651
G2 X72.313 Y88.028 I1.76 J-0.376
G1 X72.349 Y88.106
G2 X72.507 Y88.382 I1.635 J-0.753
G1 X72.563 Y88.463
X72.635 Y88.558
X72.712 Y88.649
X72.79 Y88.734
X72.853 Y88.799
X72.919 Y88.862
X73.019 Y88.951
X73.126 Y89.039
X73.247 Y89.132
X73.335 Y89.195
X73.479 Y89.292
X73.551 Y89.338
X73.718 Y89.439
X73.778 Y89.474
X73.967 Y89.578
X74.016 Y89.605
X74.228 Y89.714
X74.271 Y89.735
X74.506 Y89.848
X74.541 Y89.865
X74.799 Y89.982
X74.83 Y89.996
X75.111 Y90.117
X75.137 Y90.128
X75.441 Y90.254
X75.465 Y90.264
X75.791 Y90.393
X75.812 Y90.402
X75.98 Y90.466
X75.908 Y90.527
X75.801 Y90.622
X75.707 Y90.712
X75.603 Y90.819
X75.521 Y90.909
X75.42 Y91.029
X75.351 Y91.115
X75.253 Y91.246
X75.195 Y91.328
X75.1 Y91.472
X75.052 Y91.547
X74.959 Y91.703
X74.922 Y91.769
X74.831 Y91.937
X74.8 Y91.998
X74.711 Y92.178
X74.686 Y92.232
X74.6 Y92.423
X74.58 Y92.47
X74.496 Y92.672
X74.471 Y92.733
X74.309 Y93.167
X74.285 Y93.234
X74.131 Y93.704
X74.114 Y93.758
X73.966 Y94.259
X73.954 Y94.303
X73.813 Y94.829
X73.804 Y94.868
X73.671 Y95.412
X73.663 Y95.446
X73.539 Y96.003
X73.533 Y96.035
X73.418 Y96.598
X73.412 Y96.63
X73.308 Y97.193
X73.302 Y97.228
X73.211 Y97.786
X73.205 Y97.824
X73.127 Y98.372
X73.121 Y98.416
X73.058 Y98.951
X73.053 Y99.003
X73.008 Y99.521
X73.003 Y99.584
X72.977 Y100.083
X72.975 Y100.158
X72.97 Y100.636
X72.971 Y100.724
X72.988 Y101.182
X72.995 Y101.285
X73.037 Y101.72
X73.052 Y101.838
X73.12 Y102.25
X73.145 Y102.378
X73.239 Y102.771
X73.277 Y102.909
X73.398 Y103.28
X73.448 Y103.417
X73.595 Y103.769
X73.658 Y103.905
X73.831 Y104.238
X73.904 Y104.365
X74.101 Y104.68
X74.18 Y104.797
X74.401 Y105.095
X74.481 Y105.195
X74.724 Y105.478
X74.805 Y105.567
X75.069 Y105.835
X75.149 Y105.912
X75.431 Y106.166
X75.51 Y106.233
X75.81 Y106.473
X75.886 Y106.531
X76.202 Y106.758
X76.28 Y106.81
X76.612 Y107.023
X76.686 Y107.068
X77.033 Y107.268
X77.109 Y107.309
X77.471 Y107.495
X77.546 Y107.532
X77.923 Y107.704
X77.997 Y107.735
X78.388 Y107.893
X78.467 Y107.923
X78.873 Y108.065
X78.943 Y108.088
X79.363 Y108.216
X79.442 Y108.238
X79.876 Y108.349
X79.941 Y108.364
X80.39 Y108.461
X80.463 Y108.476
X80.926 Y108.556
X80.993 Y108.566
X81.469 Y108.63
X81.53 Y108.637
X82.021 Y108.686
X82.086 Y108.691
X82.59 Y108.723
X82.645 Y108.726
X83.163 Y108.743
X83.222 Y108.744
X83.754
X83.774
X86.243 Y108.716
X88.711 Y108.744
X88.731
X89.263
X89.322 Y108.743
X89.84 Y108.726
X89.895 Y108.723
X90.399 Y108.691
X90.464 Y108.686
X90.955 Y108.637
X91.016 Y108.63
X91.492 Y108.566
X91.559 Y108.556
X92.022 Y108.476
X92.095 Y108.461
X92.544 Y108.364
X92.609 Y108.349
X93.043 Y108.238
X93.122 Y108.216
X93.542 Y108.088
X93.612 Y108.065
X94.018 Y107.923
X94.097 Y107.893
X94.488 Y107.735
X94.562 Y107.704
X94.939 Y107.532
X95.014 Y107.495
X95.376 Y107.309
X95.452 Y107.268
X95.799 Y107.068
X95.873 Y107.023
X96.205 Y106.81
X96.283 Y106.758
X96.599 Y106.531
X96.675 Y106.473
X96.975 Y106.233
X97.054 Y106.166
X97.336 Y105.912
X97.416 Y105.835
X97.68 Y105.567
X97.761 Y105.478
X98.004 Y105.195
X98.084 Y105.095
X98.305 Y104.797
X98.384 Y104.68
X98.581 Y104.365
X98.654 Y104.238
X98.827 Y103.905
X98.89 Y103.769
X99.037 Y103.417
X99.087 Y103.28
X99.208 Y102.909
X99.246 Y102.771
X99.34 Y102.378
X99.365 Y102.25
X99.433 Y101.838
X99.448 Y101.72
X99.49 Y101.285
X99.497 Y101.182
X99.514 Y100.724
X99.515 Y100.636
X99.51 Y100.158
X99.508 Y100.083
X99.482 Y99.584
X99.477 Y99.521
X99.432 Y99.003
X99.427 Y98.951
X99.364 Y98.416
X99.358 Y98.372
X99.28 Y97.824
X99.274 Y97.786
X99.183 Y97.228
X99.177 Y97.193
X99.073 Y96.63
X99.067 Y96.598
X98.952 Y96.035
X98.946 Y96.003
X98.822 Y95.446
X98.814 Y95.412
X98.681 Y94.868
X98.672 Y94.829
X98.531 Y94.303
X98.519 Y94.259
X98.371 Y93.758
X98.354 Y93.704
X98.2 Y93.234
X98.176 Y93.167
X98.014 Y92.733
X97.989 Y92.672
X97.905 Y92.47
X97.885 Y92.423
X97.799 Y92.232
X97.774 Y92.178
X97.685 Y91.998
X97.654 Y91.937
X97.563 Y91.769
X97.526 Y91.703
X97.433 Y91.547
X97.385 Y91.472
X97.29 Y91.328
X97.233 Y91.247
X97.134 Y91.115
X97.065 Y91.028
X96.964 Y90.909
X96.882 Y90.819
X96.778 Y90.712
X96.684 Y90.622
X96.577 Y90.527
X96.505 Y90.466
X96.673 Y90.402
X96.694 Y90.393
X97.02 Y90.264
X97.044 Y90.254
X97.348 Y90.128
X97.374 Y90.117
X97.655 Y89.996
X97.686 Y89.982
X97.944 Y89.865
X97.979 Y89.848
X98.214 Y89.735
X98.257 Y89.714
X98.469 Y89.605
X98.518 Y89.578
X98.707 Y89.474
X98.767 Y89.439
X98.934 Y89.338
X99.006 Y89.292
X99.15 Y89.195
X99.238 Y89.132
X99.359 Y89.039
X99.466 Y88.951
X99.566 Y88.862
X99.632 Y88.799
X99.695 Y88.734
X99.773 Y88.649
X99.85 Y88.558
X99.922 Y88.463
X99.978 Y88.382
G2 X100.136 Y88.106 I-1.477 J-1.029
G1 X100.172 Y88.028
G2 X100.297 Y87.651 I-1.635 J-0.753
G1 X100.313 Y87.577
G2 X100.351 Y87.11 I-1.76 J-0.376
G1 X100.347 Y87.038
G2 X100.262 Y86.575 I-1.798 J0.091
G1 X100.24 Y86.507
G2 X100.066 Y86.127 I-1.713 J0.554
G1 X100.026 Y86.062
G2 X99.827 Y85.794 I-1.538 J0.934
G1 X99.771 Y85.731
G2 X99.59 Y85.556 I-1.34 J1.202
G1 X99.519 Y85.496
X99.444 Y85.437
X99.367 Y85.381
X99.281 Y85.324
X99.161 Y85.249
X99.062 Y85.193
X98.968 Y85.144
X98.858 Y85.089
X98.752 Y85.041
X98.499 Y84.937
X98.404 Y84.901
X98.118 Y84.802
X98.055 Y84.781
X97.744 Y84.685
X97.699 Y84.672
X97.368 Y84.58
X97.334 Y84.571
X96.99 Y84.482
X96.949 Y84.472
X96.237 Y84.306
X96.183 Y84.294
X95.461 Y84.149
X95.399 Y84.138
X94.682 Y84.019
X94.612 Y84.009
X94.246 Y83.963
X94.281 Y83.645
X94.342 Y83.189
X94.412 Y82.756
X94.493 Y82.345
X94.582 Y81.958
X94.68 Y81.594
X94.787 Y81.253
X94.9 Y80.936
X95.02 Y80.641
X95.147 Y80.367
X95.279 Y80.114
X95.417 Y79.879
X95.56 Y79.66
X95.709 Y79.455
X95.863 Y79.262
X96.021 Y79.079
X96.185 Y78.906
X96.353 Y78.741
X96.523 Y78.583
X96.696 Y78.433
X96.869 Y78.29
X97.041 Y78.155
X97.211 Y78.027
X97.377 Y77.907
X97.538 Y77.795
X97.691 Y77.693
X97.837 Y77.6
X97.975 Y77.515
X98.122 Y77.429
G2 X98.773 Y74.968 I-0.905 J-1.556
X98.282 Y74.423 I-1.556 J0.905
G1 X98.125 Y74.307
X98.041 Y74.234
X97.966 Y74.154
X97.896 Y74.066
X97.83 Y73.965
X97.768 Y73.849
X97.709 Y73.715
X97.655 Y73.562
X97.608 Y73.393
X97.569 Y73.207
X97.54 Y73.011
X97.523 Y72.808
X97.517 Y72.605
X97.523 Y72.407
X97.539 Y72.22
X97.564 Y72.049
X97.597 Y71.896
X97.635 Y71.763
X97.678 Y71.646
X97.726 Y71.539
X97.785 Y71.43
X97.851 Y71.324
X98.083 Y71.
X98.219 Y70.823
X98.38 Y70.614
X98.39 Y70.602
X98.559 Y70.379
X98.576 Y70.356
X98.75 Y70.119
X98.771 Y70.09
X98.949 Y69.837
X98.97 Y69.807
X99.151 Y69.538
X99.17 Y69.51
X99.353 Y69.227
X99.369 Y69.201
X99.553 Y68.906
X99.571 Y68.877
X99.937 Y68.263
X99.951 Y68.24
X100.31 Y67.617
X100.315 Y67.608
X100.659 Y67.004
X100.66 Y67.003
X100.823 Y66.715
X100.825 Y66.713
X100.981 Y66.436
X100.986 Y66.429
X101.134 Y66.164
X101.143 Y66.148
X101.281 Y65.895
X101.296 Y65.868
X101.424 Y65.624
X101.445 Y65.583
X101.561 Y65.348
X101.589 Y65.288
X101.691 Y65.059
X101.723 Y64.985
X101.812 Y64.76
X101.844 Y64.672
X101.919 Y64.449
X101.953 Y64.336
X102.012 Y64.114
X102.037 Y64.007
X102.082 Y63.783
X102.102 Y63.658
X102.131 Y63.432
X102.142 Y63.329
X102.158 Y63.101
X102.162 Y62.991
X102.164 Y62.76
X102.162 Y62.667
X102.152 Y62.435
X102.146 Y62.344
X102.124 Y62.111
X102.11 Y61.998
X102.036 Y61.532
X102.013 Y61.416
X102.082 Y61.357
X102.147 Y61.295
X102.757 Y60.685
G2 X103.285 Y59.412 I-1.272 J-1.273
G1 Y57.583
G2 X102.757 Y56.31 I-1.8 J0.
X102.492 Y56.257 I-0.172 J0.172
G3 X102.227 Y56.204 I-0.093 J-0.225
G1 X101.935 Y55.912
G2 X100.875 Y55.473 I-1.06 J1.061
G1 X71.61
G2 X70.549 Y55.912 I0. J1.5
G1 X69.939 Y56.522
G2 X69.5 Y57.583 I1.061 J1.061
G1 Y59.412
G2 X69.939 Y60.472 I1.5 J0.
G1 X70.549 Y61.082
G2 X70.809 Y61.29 I1.061 J-1.061
G1 X70.766 Y61.472
X70.745 Y61.58
X70.671 Y62.046
X70.659 Y62.141
X70.638 Y62.374
X70.633 Y62.447
X70.622 Y62.679
X70.621 Y62.759
X70.623 Y62.989
X70.627 Y63.077
X70.642 Y63.305
X70.652 Y63.399
X70.681 Y63.625
X70.697 Y63.72
X70.742 Y63.944
X70.764 Y64.04
X70.823 Y64.262
X70.85 Y64.35
X70.924 Y64.573
X70.952 Y64.65
X71.041 Y64.875
X71.068 Y64.938
X71.17 Y65.167
X71.193 Y65.215
X71.309 Y65.45
X71.327 Y65.485
X71.455 Y65.728
X71.467 Y65.751
X71.606 Y66.004
X71.613 Y66.017
X71.761 Y66.282
X71.765 Y66.288
X71.921 Y66.565
X71.922 Y66.567
X72.086 Y66.855
X72.087 Y66.856
X72.431 Y67.46
X72.435 Y67.467
X72.794 Y68.09
X72.805 Y68.109
X73.172 Y68.724
X73.187 Y68.748
X73.37 Y69.043
X73.384 Y69.064
X73.567 Y69.347
X73.583 Y69.371
X73.764 Y69.639
X73.781 Y69.665
X73.959 Y69.918
X73.977 Y69.942
X74.151 Y70.179
X74.165 Y70.198
X74.334 Y70.421
X74.342 Y70.431
X74.504 Y70.64
X74.643 Y70.821
X74.884 Y71.157
X74.96 Y71.28
X75.028 Y71.406
X75.085 Y71.533
X75.136 Y71.67
X75.18 Y71.824
X75.216 Y71.995
X75.244 Y72.185
X75.262 Y72.39
X75.268 Y72.605
X75.262 Y72.826
X75.243 Y73.045
X75.212 Y73.259
X75.169 Y73.463
X75.117 Y73.653
X75.056 Y73.825
X74.987 Y73.981
X74.913 Y74.119
X74.832 Y74.241
X74.746 Y74.35
X74.652 Y74.45
X74.549 Y74.541
X74.38 Y74.665
G2 X74.059 Y76.761 I0.888 J1.209
X74.514 Y77.17 I1.209 J-0.888
G1 X74.664 Y77.258
X74.807 Y77.345
X74.958 Y77.442
X75.116 Y77.547
X75.281 Y77.662
X75.452 Y77.786
X75.627 Y77.917
X75.804 Y78.057
X75.983 Y78.204
X76.162 Y78.36
X76.339 Y78.524
X76.515 Y78.696
X76.686 Y78.878
X76.853 Y79.07
X77.015 Y79.274
X77.172 Y79.49
X77.323 Y79.721
X77.468 Y79.969
X77.607 Y80.235
X77.74 Y80.521
X77.865 Y80.828
X77.983 Y81.158
X78.093 Y81.51
X78.194 Y81.885
X78.286 Y82.283
X78.368 Y82.703
X78.44 Y83.145
X78.502 Y83.609
X78.554 Y84.093
X78.565 Y84.225
X77.91 Y84.307
X77.851 Y84.315
X77.135 Y84.434
X77.084 Y84.443
X76.361 Y84.588
X76.316 Y84.598
X75.605 Y84.764
X75.57 Y84.772
X75.226 Y84.861
X75.198 Y84.869
X74.867 Y84.961
X74.83 Y84.972
X74.518 Y85.068
X74.465 Y85.085
X74.179 Y85.185
X74.1 Y85.215
X73.848 Y85.319
X73.759 Y85.359
X73.649 Y85.413
X73.571 Y85.454
X73.472 Y85.51
X73.371 Y85.572
X73.286 Y85.63
X73.221 Y85.676
X73.16 Y85.725
X73.088 Y85.785
X73.01 Y85.856
X72.937 Y85.932
X72.881 Y85.994
G2 X72.715 Y86.217 I1.116 J1.002
G1 X72.675 Y86.283
G2 X72.53 Y86.6 I1.282 J0.779
G1 X72.508 Y86.668
G2 X72.437 Y87.054 I1.427 J0.462
G1 X72.434 Y87.125
G2 X72.465 Y87.514 I1.498 J0.076
G1 X72.481 Y87.588
G2 X72.586 Y87.903 I1.467 J-0.313
G1 X72.621 Y87.981
G2 X72.753 Y88.21 I1.362 J-0.628
G1 X72.81 Y88.292
X72.869 Y88.371
X72.933 Y88.446
X73.011 Y88.532
X73.119 Y88.638
X73.218 Y88.727
X73.308 Y88.801
X73.429 Y88.894
X73.502 Y88.946
X73.646 Y89.043
X73.707 Y89.081
X73.873 Y89.182
X73.923 Y89.211
X74.112 Y89.316
X74.153 Y89.338
X74.365 Y89.447
X74.401 Y89.465
X74.636 Y89.578
X74.665 Y89.592
X74.923 Y89.709
X74.949 Y89.72
X75.23 Y89.842
X75.252 Y89.851
X75.556 Y89.977
X75.575 Y89.985
X75.902 Y90.115
X75.919 Y90.121
X76.269 Y90.255
X76.283 Y90.261
X76.626 Y90.388
X76.512 Y90.455
X76.4 Y90.528
X76.305 Y90.594
X76.195 Y90.678
X76.107 Y90.751
X76. Y90.846
X75.922 Y90.921
X75.818 Y91.028
X75.75 Y91.103
X75.648 Y91.223
X75.591 Y91.294
X75.493 Y91.426
X75.445 Y91.494
X75.349 Y91.638
X75.31 Y91.701
X75.217 Y91.857
X75.186 Y91.912
X75.095 Y92.08
X75.069 Y92.131
X74.981 Y92.31
X74.96 Y92.355
X74.874 Y92.546
X74.856 Y92.585
X74.772 Y92.787
X74.752 Y92.838
X74.59 Y93.272
X74.57 Y93.328
X74.416 Y93.798
X74.401 Y93.843
X74.254 Y94.343
X74.244 Y94.381
X74.103 Y94.906
X74.095 Y94.938
X73.963 Y95.483
X73.956 Y95.511
X73.832 Y96.068
X73.827 Y96.095
X73.712 Y96.658
X73.707 Y96.685
X73.603 Y97.248
X73.598 Y97.276
X73.507 Y97.835
X73.502 Y97.866
X73.424 Y98.414
X73.419 Y98.451
X73.356 Y98.986
X73.352 Y99.03
X73.307 Y99.547
X73.303 Y99.599
X73.277 Y100.098
X73.275 Y100.161
X73.27 Y100.639
X73.271 Y100.712
X73.288 Y101.17
X73.294 Y101.256
X73.336 Y101.691
X73.348 Y101.789
X73.416 Y102.202
X73.437 Y102.308
X73.53 Y102.701
X73.563 Y102.816
X73.683 Y103.187
X73.725 Y103.302
X73.872 Y103.654
X73.925 Y103.767
X74.097 Y104.1
X74.158 Y104.206
X74.355 Y104.521
X74.421 Y104.618
X74.642 Y104.916
X74.709 Y104.999
X74.951 Y105.282
X75.02 Y105.357
X75.283 Y105.625
X75.349 Y105.689
X75.631 Y105.943
X75.697 Y105.999
X75.997 Y106.239
X76.06 Y106.287
X76.377 Y106.514
X76.442 Y106.558
X76.774 Y106.771
X76.835 Y106.808
X77.183 Y107.008
X77.246 Y107.042
X77.608 Y107.228
X77.671 Y107.259
X78.048 Y107.431
X78.109 Y107.457
X78.5 Y107.615
X78.566 Y107.64
X78.972 Y107.782
X79.03 Y107.801
X79.45 Y107.929
X79.516 Y107.947
X79.95 Y108.058
X80.005 Y108.071
X80.453 Y108.168
X80.515 Y108.18
X80.977 Y108.26
X81.033 Y108.269
X81.509 Y108.333
X81.56 Y108.339
X82.05 Y108.388
X82.105 Y108.392
X82.609 Y108.424
X82.655 Y108.426
X83.173 Y108.443
X83.222 Y108.444
X83.754
X83.771
X86.243 Y108.416
X88.714 Y108.444
X88.731
X89.263
X89.312 Y108.443
X89.83 Y108.426
X89.876 Y108.424
X90.38 Y108.392
X90.435 Y108.388
X90.925 Y108.339
X90.976 Y108.333
X91.452 Y108.269
X91.508 Y108.26
X91.97 Y108.18
X92.032 Y108.168
X92.48 Y108.071
X92.535 Y108.058
X92.969 Y107.947
X93.035 Y107.929
X93.455 Y107.801
X93.513 Y107.782
X93.919 Y107.64
X93.985 Y107.615
X94.376 Y107.457
X94.437 Y107.431
X94.814 Y107.259
X94.877 Y107.228
X95.239 Y107.042
X95.302 Y107.008
X95.65 Y106.808
X95.711 Y106.771
X96.043 Y106.558
X96.108 Y106.514
X96.425 Y106.287
X96.488 Y106.239
X96.788 Y105.999
X96.854 Y105.943
X97.136 Y105.689
X97.202 Y105.625
X97.465 Y105.357
X97.534 Y105.282
X97.776 Y104.999
X97.843 Y104.916
X98.064 Y104.618
X98.13 Y104.521
X98.327 Y104.206
X98.388 Y104.1
X98.56 Y103.767
X98.613 Y103.654
X98.76 Y103.302
X98.802 Y103.187
X98.922 Y102.816
X98.955 Y102.701
X99.048 Y102.308
X99.069 Y102.202
X99.137 Y101.789
X99.149 Y101.691
X99.191 Y101.256
X99.197 Y101.17
X99.214 Y100.712
X99.215 Y100.639
X99.21 Y100.161
X99.208 Y100.098
X99.182 Y99.599
X99.178 Y99.547
X99.133 Y99.03
X99.129 Y98.986
X99.066 Y98.451
X99.061 Y98.414
X98.983 Y97.866
X98.978 Y97.835
X98.887 Y97.276
X98.882 Y97.248
X98.778 Y96.685
X98.773 Y96.658
X98.658 Y96.095
X98.653 Y96.068
X98.529 Y95.511
X98.522 Y95.483
X98.39 Y94.938
X98.382 Y94.906
X98.241 Y94.381
X98.231 Y94.343
X98.084 Y93.843
X98.069 Y93.798
X97.915 Y93.328
X97.895 Y93.272
X97.733 Y92.838
X97.713 Y92.787
X97.629 Y92.585
X97.611 Y92.546
X97.525 Y92.355
X97.504 Y92.31
X97.416 Y92.131
X97.39 Y92.08
X97.299 Y91.912
X97.268 Y91.857
X97.175 Y91.701
X97.136 Y91.638
X97.04 Y91.494
X96.992 Y91.426
X96.894 Y91.295
X96.836 Y91.222
X96.735 Y91.103
X96.667 Y91.028
X96.563 Y90.921
X96.485 Y90.846
X96.378 Y90.751
X96.29 Y90.678
X96.18 Y90.595
X96.085 Y90.528
X95.972 Y90.455
X95.859 Y90.388
X96.202 Y90.261
X96.216 Y90.255
X96.566 Y90.121
X96.583 Y90.115
X96.91 Y89.985
X96.929 Y89.977
X97.233 Y89.851
X97.255 Y89.842
X97.536 Y89.72
X97.562 Y89.709
X97.82 Y89.592
X97.849 Y89.578
X98.084 Y89.465
X98.12 Y89.447
X98.332 Y89.338
X98.373 Y89.316
X98.562 Y89.211
X98.612 Y89.182
X98.778 Y89.081
X98.839 Y89.043
X98.983 Y88.946
X99.056 Y88.894
X99.177 Y88.801
X99.267 Y88.727
X99.366 Y88.638
X99.474 Y88.532
X99.552 Y88.446
X99.616 Y88.371
X99.675 Y88.292
X99.732 Y88.21
G2 X99.864 Y87.981 I-1.231 J-0.857
G1 X99.899 Y87.903
G2 X100.004 Y87.588 I-1.362 J-0.628
G1 X100.02 Y87.514
G2 X100.051 Y87.125 I-1.467 J-0.313
G1 X100.048 Y87.054
G2 X99.977 Y86.668 I-1.498 J0.076
G1 X99.955 Y86.6
G2 X99.81 Y86.283 I-1.427 J0.462
G1 X99.77 Y86.217
G2 X99.604 Y85.994 I-1.282 J0.779
G1 X99.548 Y85.932
X99.475 Y85.856
X99.397 Y85.785
X99.325 Y85.725
X99.264 Y85.676
X99.199 Y85.63
X99.114 Y85.572
X99.013 Y85.51
X98.914 Y85.454
X98.836 Y85.413
X98.726 Y85.359
X98.637 Y85.319
X98.385 Y85.215
X98.306 Y85.185
X98.02 Y85.085
X97.967 Y85.068
X97.655 Y84.972
X97.618 Y84.961
X97.287 Y84.869
X97.259 Y84.861
X96.915 Y84.772
X96.88 Y84.764
X96.169 Y84.598
X96.124 Y84.588
X95.401 Y84.443
X95.35 Y84.434
X94.634 Y84.315
X94.575 Y84.307
X93.92 Y84.225
X93.931 Y84.093
X93.983 Y83.609
X94.045 Y83.145
X94.117 Y82.703
X94.199 Y82.283
X94.291 Y81.885
X94.392 Y81.51
X94.502 Y81.158
X94.62 Y80.828
X94.745 Y80.521
X94.878 Y80.235
X95.017 Y79.969
X95.162 Y79.721
X95.313 Y79.49
X95.47 Y79.274
X95.632 Y79.07
X95.799 Y78.878
X95.97 Y78.696
X96.146 Y78.524
X96.323 Y78.36
X96.502 Y78.204
X96.681 Y78.057
X96.858 Y77.917
X97.033 Y77.786
X97.204 Y77.662
X97.369 Y77.547
X97.527 Y77.442
X97.678 Y77.345
X97.821 Y77.258
X97.971 Y77.17
G2 X98.514 Y75.119 I-0.754 J-1.296
X98.105 Y74.665 I-1.296 J0.754
G1 X97.937 Y74.541
X97.833 Y74.45
X97.739 Y74.35
X97.653 Y74.241
X97.572 Y74.119
X97.498 Y73.981
X97.429 Y73.825
X97.368 Y73.653
X97.316 Y73.463
X97.273 Y73.259
X97.242 Y73.045
X97.223 Y72.826
X97.217 Y72.605
X97.223 Y72.39
X97.241 Y72.185
X97.269 Y71.995
X97.305 Y71.824
X97.349 Y71.67
X97.4 Y71.533
X97.457 Y71.406
X97.525 Y71.28
X97.601 Y71.157
X97.842 Y70.821
X97.981 Y70.64
X98.143 Y70.431
X98.151 Y70.421
X98.32 Y70.198
X98.334 Y70.179
X98.508 Y69.942
X98.526 Y69.918
X98.704 Y69.665
X98.721 Y69.639
X98.902 Y69.371
X98.918 Y69.347
X99.101 Y69.064
X99.115 Y69.043
X99.298 Y68.748
X99.313 Y68.724
X99.68 Y68.109
X99.691 Y68.09
X100.05 Y67.467
X100.054 Y67.46
X100.398 Y66.856
X100.399 Y66.855
X100.563 Y66.567
X100.564 Y66.565
X100.72 Y66.288
X100.724 Y66.282
X100.872 Y66.017
X100.879 Y66.004
X101.018 Y65.751
X101.03 Y65.728
X101.158 Y65.485
X101.176 Y65.45
X101.292 Y65.215
X101.315 Y65.166
X101.418 Y64.937
X101.444 Y64.875
X101.533 Y64.65
X101.56 Y64.576
X101.635 Y64.353
X101.663 Y64.259
X101.722 Y64.037
X101.743 Y63.948
X101.788 Y63.724
X101.805 Y63.62
X101.834 Y63.394
X101.842 Y63.308
X101.858 Y63.08
X101.862 Y62.988
X101.864 Y62.758
X101.863 Y62.68
X101.853 Y62.448
X101.847 Y62.372
X101.825 Y62.139
X101.813 Y62.045
X101.739 Y61.579
X101.719 Y61.472
X101.676 Y61.29
G2 X101.935 Y61.082 I-0.801 J-1.268
G1 X102.545 Y60.473
G2 X102.985 Y59.412 I-1.06 J-1.061
G1 Y57.583
G2 X102.545 Y56.522 I-1.5 J0.
G1 X102.227 Y56.204
G3 Y55.779 I0.212 J-0.212
G1 X102.439 Y55.567
X102.486 Y55.52 Z0.258
X102.531 Y55.475 Z0.28
X102.571 Y55.435 Z0.315
X102.605 Y55.401 Z0.363
X102.63 Y55.376 Z0.42
X102.646 Y55.36 Z0.483
X102.651 Y55.355 Z0.55
G0 Z21.243
X68.133 Y53.049
G1 Z17.243 F133.3
Z0.55
X68.127 Y53.044 Z0.483 F400
X68.112 Y53.028 Z0.42
X68.087 Y53.003 Z0.363
X68.053 Y52.969 Z0.315
X68.013 Y52.929 Z0.28
X67.968 Y52.884 Z0.258
X67.921 Y52.837 Z0.25
X67.709 Y52.625
G3 Y52.2 I0.212 J-0.212
G1 X68.273 Y51.636
G2 X68.8 Y50.363 I-1.273 J-1.273
G1 Y48.534
G2 X68.273 Y47.261 I-1.8 J0.
G1 X67.663 Y46.652
X67.598 Y46.589
X67.529 Y46.53
X67.551 Y46.413
X67.625 Y45.947
X67.639 Y45.833
X67.661 Y45.6
X67.667 Y45.512
X67.677 Y45.28
X67.679 Y45.184
X67.677 Y44.954
X67.673 Y44.849
X67.657 Y44.621
X67.646 Y44.507
X67.616 Y44.282
X67.597 Y44.167
X67.553 Y43.943
X67.526 Y43.829
X67.467 Y43.606
X67.435 Y43.501
X67.361 Y43.278
X67.327 Y43.186
X67.238 Y42.961
X67.206 Y42.885
X67.103 Y42.656
X67.076 Y42.598
X66.96 Y42.363
X66.939 Y42.322
X66.811 Y42.079
X66.796 Y42.051
X66.657 Y41.797
X66.649 Y41.782
X66.501 Y41.517
X66.496 Y41.51
X66.34 Y41.233
X66.338 Y41.231
X66.175 Y40.943
X66.174 Y40.942
X65.83 Y40.338
X65.825 Y40.329
X65.466 Y39.706
X65.452 Y39.683
X65.086 Y39.069
X65.068 Y39.039
X64.884 Y38.745
X64.868 Y38.719
X64.685 Y38.436
X64.666 Y38.407
X64.485 Y38.139
X64.464 Y38.108
X64.286 Y37.855
X64.265 Y37.827
X64.091 Y37.59
X64.074 Y37.566
X63.905 Y37.344
X63.895 Y37.331
X63.734 Y37.123
X63.598 Y36.946
X63.366 Y36.622
X63.3 Y36.516
X63.241 Y36.407
X63.193 Y36.3
X63.15 Y36.183
X63.112 Y36.05
X63.079 Y35.897
X63.054 Y35.726
X63.038 Y35.539
X63.032 Y35.341
X63.038 Y35.138
X63.055 Y34.935
X63.084 Y34.739
X63.123 Y34.553
X63.17 Y34.384
X63.224 Y34.231
X63.283 Y34.097
X63.345 Y33.981
X63.411 Y33.88
X63.481 Y33.792
X63.556 Y33.712
X63.64 Y33.639
X63.797 Y33.523
G2 X64.183 Y31.007 I-1.065 J-1.451
X63.637 Y30.516 I-1.451 J1.065
G1 X63.49 Y30.431
X63.352 Y30.347
X63.206 Y30.253
X63.052 Y30.15
X62.892 Y30.039
X62.726 Y29.919
X62.557 Y29.791
X62.384 Y29.656
X62.211 Y29.513
X62.038 Y29.362
X61.868 Y29.205
X61.7 Y29.04
X61.536 Y28.866
X61.378 Y28.684
X61.224 Y28.491
X61.075 Y28.286
X60.932 Y28.067
X60.794 Y27.832
X60.662 Y27.579
X60.536 Y27.305
X60.415 Y27.01
X60.302 Y26.693
X60.195 Y26.352
X60.097 Y25.988
X60.008 Y25.601
X59.927 Y25.19
X59.857 Y24.757
X59.796 Y24.301
X59.761 Y23.983
X60.127 Y23.937
X60.197 Y23.927
X60.914 Y23.808
X60.976 Y23.797
X61.698 Y23.652
X61.752 Y23.64
X62.464 Y23.474
X62.505 Y23.464
X62.849 Y23.375
X62.884 Y23.366
X63.214 Y23.273
X63.258 Y23.261
X63.57 Y23.165
X63.633 Y23.144
X63.919 Y23.045
X64.015 Y23.008
X64.267 Y22.904
X64.372 Y22.857
X64.482 Y22.803
X64.577 Y22.753
X64.676 Y22.697
X64.796 Y22.622
X64.882 Y22.565
X64.959 Y22.509
X65.034 Y22.45
X65.105 Y22.39
G2 X65.286 Y22.215 I-1.158 J-1.378
G1 X65.342 Y22.152
G2 X65.541 Y21.884 I-1.34 J-1.202
G1 X65.581 Y21.819
G2 X65.755 Y21.438 I-1.538 J-0.934
G1 X65.777 Y21.37
G2 X65.862 Y20.908 I-1.713 J-0.553
G1 X65.866 Y20.837
G2 X65.828 Y20.369 I-1.798 J-0.091
G1 X65.812 Y20.295
G2 X65.687 Y19.918 I-1.76 J0.376
G1 X65.651 Y19.84
G2 X65.494 Y19.565 I-1.635 J0.753
G1 X65.437 Y19.484
X65.365 Y19.388
X65.287 Y19.296
X65.209 Y19.211
X65.147 Y19.146
X65.081 Y19.084
X64.981 Y18.995
X64.874 Y18.907
X64.753 Y18.814
X64.665 Y18.751
X64.521 Y18.654
X64.449 Y18.608
X64.282 Y18.507
X64.223 Y18.473
X64.034 Y18.368
X63.984 Y18.341
X63.772 Y18.232
X63.729 Y18.211
X63.494 Y18.098
X63.458 Y18.081
X63.2 Y17.964
X63.17 Y17.95
X62.889 Y17.829
X62.863 Y17.818
X62.559 Y17.692
X62.535 Y17.682
X62.209 Y17.553
X62.188 Y17.544
X62.02 Y17.48
X62.092 Y17.419
X62.199 Y17.324
X62.293 Y17.234
X62.397 Y17.127
X62.479 Y17.036
X62.58 Y16.917
X62.649 Y16.831
X62.747 Y16.7
X62.805 Y16.618
X62.9 Y16.475
X62.948 Y16.399
X63.041 Y16.243
X63.078 Y16.176
X63.169 Y16.008
X63.2 Y15.948
X63.288 Y15.768
X63.314 Y15.714
X63.4 Y15.523
X63.42 Y15.476
X63.504 Y15.274
X63.529 Y15.213
X63.691 Y14.779
X63.715 Y14.712
X63.869 Y14.242
X63.886 Y14.188
X64.034 Y13.687
X64.046 Y13.643
X64.187 Y13.117
X64.196 Y13.078
X64.329 Y12.534
X64.337 Y12.5
X64.461 Y11.943
X64.467 Y11.911
X64.582 Y11.348
X64.588 Y11.316
X64.692 Y10.753
X64.698 Y10.718
X64.789 Y10.16
X64.795 Y10.122
X64.873 Y9.574
X64.879 Y9.53
X64.942 Y8.995
X64.947 Y8.943
X64.992 Y8.425
X64.997 Y8.362
X65.023 Y7.863
X65.025 Y7.788
X65.03 Y7.31
X65.029 Y7.222
X65.012 Y6.765
X65.005 Y6.661
X64.963 Y6.226
X64.948 Y6.109
X64.88 Y5.696
X64.855 Y5.567
X64.761 Y5.175
X64.723 Y5.038
X64.603 Y4.667
X64.551 Y4.528
X64.405 Y4.176
X64.342 Y4.041
X64.169 Y3.708
X64.097 Y3.581
X63.899 Y3.266
X63.821 Y3.151
X63.6 Y2.852
X63.519 Y2.75
X63.276 Y2.468
X63.194 Y2.379
X62.931 Y2.111
X62.851 Y2.034
X62.569 Y1.78
X62.49 Y1.714
X62.191 Y1.474
X62.114 Y1.415
X61.797 Y1.188
X61.722 Y1.137
X61.39 Y0.924
X61.314 Y0.878
X60.967 Y0.678
X60.892 Y0.637
X60.53 Y0.451
X60.454 Y0.414
X60.077 Y0.242
X60.002 Y0.21
X59.61 Y0.052
X59.535 Y0.024
X59.129 Y-0.119
X59.055 Y-0.143
X58.635 Y-0.27
X58.561 Y-0.291
X58.127 Y-0.403
X58.055 Y-0.42
X57.607 Y-0.516
X57.538 Y-0.529
X57.075 Y-0.609
X57.008 Y-0.62
X56.532 Y-0.684
X56.468 Y-0.692
X55.977 Y-0.74
X55.916 Y-0.745
X55.412 Y-0.777
X55.354 Y-0.78
X54.836 Y-0.797
X54.78 Y-0.798
X54.248
X54.226
X51.757 Y-0.77
X49.289 Y-0.798
X49.267
X48.735
X48.679 Y-0.797
X48.161 Y-0.78
X48.103 Y-0.777
X47.599 Y-0.745
X47.538 Y-0.74
X47.047 Y-0.692
X46.983 Y-0.684
X46.507 Y-0.62
X46.44 Y-0.609
X45.977 Y-0.529
X45.908 Y-0.516
X45.46 Y-0.42
X45.388 Y-0.403
X44.954 Y-0.291
X44.88 Y-0.27
X44.46 Y-0.143
X44.386 Y-0.119
X43.98 Y0.024
X43.905 Y0.052
X43.513 Y0.21
X43.438 Y0.242
X43.061 Y0.414
X42.985 Y0.451
X42.623 Y0.637
X42.548 Y0.678
X42.201 Y0.878
X42.125 Y0.924
X41.793 Y1.137
X41.718 Y1.188
X41.401 Y1.415
X41.324 Y1.474
X41.025 Y1.714
X40.946 Y1.78
X40.664 Y2.034
X40.584 Y2.111
X40.321 Y2.379
X40.239 Y2.468
X39.996 Y2.75
X39.915 Y2.852
X39.694 Y3.151
X39.616 Y3.266
X39.418 Y3.581
X39.346 Y3.708
X39.173 Y4.041
X39.11 Y4.176
X38.964 Y4.528
X38.912 Y4.667
X38.792 Y5.038
X38.754 Y5.175
X38.66 Y5.567
X38.635 Y5.696
X38.567 Y6.109
X38.552 Y6.226
X38.51 Y6.661
X38.503 Y6.765
X38.486 Y7.222
X38.485 Y7.31
X38.49 Y7.788
X38.492 Y7.863
X38.518 Y8.362
X38.523 Y8.425
X38.568 Y8.943
X38.573 Y8.995
X38.636 Y9.53
X38.642 Y9.574
X38.72 Y10.122
X38.726 Y10.16
X38.817 Y10.718
X38.823 Y10.753
X38.927 Y11.316
X38.933 Y11.348
X39.048 Y11.911
X39.054 Y11.943
X39.178 Y12.5
X39.186 Y12.534
X39.319 Y13.078
X39.328 Y13.117
X39.469 Y13.643
X39.481 Y13.687
X39.629 Y14.188
X39.646 Y14.242
X39.8 Y14.712
X39.824 Y14.779
X39.986 Y15.213
X40.011 Y15.274
X40.095 Y15.476
X40.115 Y15.523
X40.201 Y15.714
X40.227 Y15.768
X40.315 Y15.948
X40.346 Y16.008
X40.437 Y16.176
X40.474 Y16.243
X40.567 Y16.399
X40.615 Y16.475
X40.71 Y16.618
X40.767 Y16.699
X40.866 Y16.831
X40.935 Y16.918
X41.036 Y17.037
X41.118 Y17.127
X41.222 Y17.234
X41.316 Y17.324
X41.423 Y17.419
X41.495 Y17.48
X41.327 Y17.544
X41.306 Y17.553
X40.98 Y17.682
X40.956 Y17.692
X40.652 Y17.818
X40.626 Y17.829
X40.345 Y17.95
X40.315 Y17.964
X40.057 Y18.081
X40.021 Y18.098
X39.786 Y18.211
X39.743 Y18.232
X39.531 Y18.341
X39.481 Y18.368
X39.292 Y18.473
X39.233 Y18.507
X39.066 Y18.608
X38.994 Y18.654
X38.85 Y18.751
X38.762 Y18.814
X38.641 Y18.907
X38.534 Y18.995
X38.434 Y19.084
X38.368 Y19.146
X38.306 Y19.211
X38.228 Y19.296
X38.15 Y19.388
X38.078 Y19.484
X38.021 Y19.565
G2 X37.864 Y19.84 I1.478 J1.028
G1 X37.828 Y19.918
G2 X37.703 Y20.295 I1.635 J0.753
G1 X37.687 Y20.369
G2 X37.649 Y20.837 I1.76 J0.376
G1 X37.653 Y20.908
G2 X37.738 Y21.37 I1.798 J-0.091
G1 X37.76 Y21.438
G2 X37.934 Y21.819 I1.713 J-0.553
G1 X37.974 Y21.884
G2 X38.173 Y22.152 I1.538 J-0.934
G1 X38.229 Y22.215
G2 X38.41 Y22.39 I1.34 J-1.202
G1 X38.482 Y22.45
X38.556 Y22.509
X38.633 Y22.565
X38.719 Y22.622
X38.839 Y22.697
X38.938 Y22.753
X39.033 Y22.803
X39.143 Y22.857
X39.248 Y22.904
X39.5 Y23.008
X39.596 Y23.045
X39.882 Y23.144
X39.945 Y23.165
X40.257 Y23.261
X40.301 Y23.273
X40.631 Y23.366
X40.666 Y23.375
X41.01 Y23.464
X41.051 Y23.474
X41.763 Y23.64
X41.817 Y23.652
X42.539 Y23.797
X42.601 Y23.808
X43.318 Y23.927
X43.388 Y23.937
X43.754 Y23.983
X43.719 Y24.301
X43.658 Y24.757
X43.588 Y25.19
X43.507 Y25.601
X43.418 Y25.988
X43.32 Y26.352
X43.214 Y26.693
X43.1 Y27.01
X42.979 Y27.305
X42.853 Y27.579
X42.721 Y27.832
X42.583 Y28.067
X42.44 Y28.286
X42.291 Y28.491
X42.137 Y28.684
X41.979 Y28.866
X41.815 Y29.04
X41.647 Y29.205
X41.477 Y29.362
X41.304 Y29.513
X41.131 Y29.656
X40.958 Y29.791
X40.789 Y29.919
X40.623 Y30.039
X40.463 Y30.15
X40.309 Y30.253
X40.163 Y30.346
X40.025 Y30.431
X39.878 Y30.517
G2 X39.227 Y32.978 I0.905 J1.556
X39.718 Y33.523 I1.556 J-0.905
G1 X39.875 Y33.639
X39.958 Y33.712
X40.034 Y33.792
X40.104 Y33.881
X40.17 Y33.981
X40.232 Y34.097
X40.291 Y34.231
X40.345 Y34.384
X40.392 Y34.553
X40.431 Y34.739
X40.46 Y34.935
X40.477 Y35.138
X40.483 Y35.341
X40.477 Y35.539
X40.461 Y35.726
X40.436 Y35.897
X40.403 Y36.05
X40.365 Y36.183
X40.322 Y36.3
X40.274 Y36.407
X40.215 Y36.516
X40.149 Y36.622
X39.917 Y36.946
X39.781 Y37.123
X39.62 Y37.331
X39.61 Y37.344
X39.441 Y37.566
X39.424 Y37.59
X39.25 Y37.827
X39.229 Y37.855
X39.051 Y38.108
X39.03 Y38.139
X38.849 Y38.407
X38.83 Y38.436
X38.647 Y38.719
X38.631 Y38.745
X38.447 Y39.039
X38.429 Y39.069
X38.063 Y39.683
X38.049 Y39.706
X37.69 Y40.329
X37.685 Y40.338
X37.341 Y40.942
X37.34 Y40.943
X37.177 Y41.231
X37.175 Y41.233
X37.019 Y41.51
X37.014 Y41.517
X36.866 Y41.782
X36.858 Y41.797
X36.719 Y42.051
X36.704 Y42.079
X36.576 Y42.322
X36.555 Y42.363
X36.439 Y42.598
X36.412 Y42.656
X36.309 Y42.885
X36.277 Y42.961
X36.188 Y43.186
X36.154 Y43.278
X36.08 Y43.501
X36.048 Y43.606
X35.989 Y43.829
X35.962 Y43.943
X35.918 Y44.166
X35.899 Y44.283
X35.869 Y44.508
X35.858 Y44.62
X35.842 Y44.848
X35.838 Y44.955
X35.836 Y45.185
X35.838 Y45.28
X35.848 Y45.512
X35.854 Y45.6
X35.876 Y45.833
X35.89 Y45.947
X35.964 Y46.413
X35.986 Y46.53
X35.917 Y46.589
X35.852 Y46.652
X35.242 Y47.261
G2 X34.715 Y48.534 I1.273 J1.273
G1 Y50.363
G2 X35.242 Y51.636 I1.8 J0.
G1 X35.852 Y52.246
G2 X37.125 Y52.773 I1.273 J-1.273
G1 X66.39
G2 X67.663 Y52.246 I0. J-1.8
G1 X67.709 Y52.2
G2 X67.762 Y51.935 I-0.172 J-0.172
G3 X67.815 Y51.67 I0.225 J-0.093
G1 X68.061 Y51.424
G2 X68.5 Y50.363 I-1.061 J-1.061
G1 Y48.534
G2 X68.061 Y47.474 I-1.5 J0.
G1 X67.451 Y46.864
G2 X67.191 Y46.656 I-1.061 J1.061
G1 X67.234 Y46.474
X67.255 Y46.366
X67.329 Y45.9
X67.341 Y45.805
X67.362 Y45.572
X67.367 Y45.499
X67.378 Y45.267
X67.379 Y45.187
X67.377 Y44.957
X67.373 Y44.869
X67.358 Y44.641
X67.348 Y44.547
X67.319 Y44.321
X67.303 Y44.226
X67.258 Y44.002
X67.236 Y43.906
X67.177 Y43.684
X67.15 Y43.596
X67.076 Y43.373
X67.048 Y43.296
X66.959 Y43.071
X66.932 Y43.008
X66.83 Y42.779
X66.807 Y42.731
X66.691 Y42.496
X66.673 Y42.462
X66.545 Y42.218
X66.533 Y42.195
X66.394 Y41.941
X66.387 Y41.929
X66.239 Y41.664
X66.235 Y41.658
X66.079 Y41.381
X66.078 Y41.379
X65.914 Y41.091
X65.913 Y41.09
X65.569 Y40.486
X65.565 Y40.479
X65.206 Y39.856
X65.195 Y39.837
X64.828 Y39.222
X64.813 Y39.198
X64.629 Y38.903
X64.616 Y38.882
X64.433 Y38.599
X64.417 Y38.575
X64.236 Y38.307
X64.219 Y38.281
X64.041 Y38.028
X64.024 Y38.005
X63.849 Y37.768
X63.835 Y37.748
X63.666 Y37.525
X63.658 Y37.515
X63.496 Y37.306
X63.357 Y37.125
X63.116 Y36.789
X63.04 Y36.666
X62.972 Y36.54
X62.915 Y36.413
X62.864 Y36.276
