(Resterende dronning)
(Machine)
(  vendor: Autodesk)
(  model: Generic 3-axis)
(  description: This machine has XYZ axis on the Head)
(T2  D=3. CR=0. - ZMIN=0. - flat end mill)
G90

(2D Contour5)
T2 M6 (flat end mill D=3.)
S15000 M3
G64
G54
G43 H2
G0 Z30.
G0 X15.797 Y81.17
Z31.007
Z21.007
G1 Z17.007 F133.3
Z0.55
Y81.163 Z0.483 F400
Y81.14 Z0.42
Y81.105 Z0.363
Y81.057 Z0.315
Y81. Z0.28
Y80.937 Z0.258
Y80.87 Z0.25
X15.798 Y80.57
G3 X15.886 Y80.358 I0.3 J0.
X16.098 Y80.271 I0.212 J0.212
G1 X16.251
X16.337 Y80.269
X16.578 Y80.258
X16.667 Y80.251
X16.903 Y80.229
X16.995 Y80.217
X17.226 Y80.183
X17.321 Y80.166
X17.547 Y80.12
X17.644 Y80.098
X17.864 Y80.04
X17.964 Y80.01
X18.178 Y79.941
X18.278 Y79.905
X18.486 Y79.823
X18.585 Y79.781
X18.787 Y79.688
X18.884 Y79.64
X19.08 Y79.534
X19.175 Y79.48
X19.364 Y79.363
X19.452 Y79.305
X19.635 Y79.176
X19.719 Y79.113
X19.894 Y78.974
X19.972 Y78.909
X20.139 Y78.76
X20.213 Y78.69
X20.371 Y78.532
X20.438 Y78.462
X20.588 Y78.295
X20.651 Y78.222
X20.791 Y78.048
X20.849 Y77.973
X20.979 Y77.792
X21.032 Y77.715
X21.153 Y77.529
X21.202 Y77.448
X21.312 Y77.257
X21.357 Y77.174
X21.456 Y76.978
X21.497 Y76.894
X21.585 Y76.695
X21.622 Y76.606
X21.699 Y76.405
X21.73 Y76.315
X21.796 Y76.111
X21.823 Y76.019
X21.877 Y75.813
X21.899 Y75.72
X21.942 Y75.513
X21.959 Y75.42
X21.991 Y75.211
X22.003 Y75.117
X22.024 Y74.907
X22.031 Y74.814
X22.041 Y74.603
X22.043 Y74.511
Y74.3
X22.04 Y74.21
X22.029 Y73.998
X22.022 Y73.909
X22. Y73.696
X21.988 Y73.606
X21.952 Y73.371
X21.935 Y73.279
X21.888 Y73.049
X21.863 Y72.948
X21.812 Y72.757
X21.907 Y72.674
X21.998 Y72.588
X22.254 Y72.33
X22.34 Y72.236
X22.577 Y71.96
X22.654 Y71.864
X22.871 Y71.574
X22.938 Y71.477
X23.134 Y71.175
X23.192 Y71.078
X23.366 Y70.769
X23.416 Y70.673
X23.569 Y70.36
X23.612 Y70.263
X23.742 Y69.95
X23.78 Y69.851
X23.888 Y69.54
X23.92 Y69.437
X23.971 Y69.258
X26.482 Y68.74
G2 X27.115 Y68.476 I-0.364 J-1.763
G1 X27.23 Y68.399
X27.331 Y68.327
X27.427 Y68.248
X27.524 Y68.162
G2 X27.715 Y67.965 I-1.194 J-1.347
G1 X27.795 Y67.868
G2 X27.961 Y67.633 I-1.384 J-1.15
G1 X28.023 Y67.527
G2 X28.15 Y67.267 I-1.55 J-0.915
G1 X28.196 Y67.15
G2 X28.276 Y66.887 I-1.676 J-0.656
G1 X28.304 Y66.761
X28.327 Y66.639
X28.341 Y66.515
X28.353 Y66.378
X28.358 Y66.269
X28.357 Y66.159
X28.351 Y66.013
X28.345 Y65.919
X28.334 Y65.825
X28.311 Y65.669
X28.281 Y65.513
X28.242 Y65.347
X28.206 Y65.218
X28.151 Y65.043
X28.114 Y64.938
X28.043 Y64.753
X28.006 Y64.666
X27.92 Y64.473
X27.886 Y64.402
X27.785 Y64.2
X27.755 Y64.143
X27.641 Y63.933
X27.614 Y63.885
X27.486 Y63.668
X27.463 Y63.63
X27.324 Y63.405
X27.305 Y63.375
X27.156 Y63.145
X27.133 Y63.111
X26.811 Y62.637
X26.791 Y62.609
X26.446 Y62.121
X26.439 Y62.111
X26.087 Y61.622
X25.748 Y61.147
X25.437 Y60.695
X25.302 Y60.491
X25.178 Y60.296
X25.068 Y60.114
X24.975 Y59.95
X24.899 Y59.804
X24.883 Y59.772
X24.909 Y59.753
X25.323 Y59.46
X25.372 Y59.424
X25.571 Y59.272
X25.627 Y59.228
X25.713 Y59.158
X26.118
G2 X27.472 Y58.544 I0. J-1.8
G1 X27.575 Y58.426
X27.686 Y58.302
X27.81 Y58.164
X27.949 Y58.012
X28.101 Y57.845
X28.266 Y57.666
X28.268 Y57.663
X28.442 Y57.473
X28.449 Y57.466
X28.629 Y57.265
X28.651 Y57.241
X29.022 Y56.815
X29.075 Y56.75
X29.431 Y56.3
X29.494 Y56.215
X29.654 Y55.986
X29.71 Y55.902
X29.851 Y55.674
X29.916 Y55.559
X30.033 Y55.334
X30.104 Y55.18
X30.194 Y54.96
X30.231 Y54.861
X30.262 Y54.761
X30.321 Y54.547
G2 X30.371 Y54.3 I-1.735 J-0.479
G1 X30.397 Y54.094
G2 X30.411 Y53.811 I-1.785 J-0.231
G1 X30.406 Y53.615
G2 X30.373 Y53.322 I-1.799 J0.052
G1 X30.337 Y53.137
G2 X30.263 Y52.87 I-1.767 J0.345
G1 X30.2 Y52.695
X30.156 Y52.584
X30.104 Y52.477
X30.019 Y52.313
X29.973 Y52.23
X29.923 Y52.149
X29.82 Y51.994
X29.739 Y51.881
X29.626 Y51.736
X29.547 Y51.642
X29.31 Y51.377
X29.274 Y51.338
X29.059 Y51.112
X28.98 Y51.027
X28.92 Y50.96
X28.88 Y50.911
X28.832 Y50.85
G2 X27.413 Y50.158 I-1.419 J1.107
G1 X25.38
X23.342 Y48.764
X23.433 Y48.085
X23.557 Y47.218
X23.686 Y46.359
X23.819 Y45.509
X23.957 Y44.67
X24.099 Y43.84
X24.246 Y43.022
X24.397 Y42.214
X24.553 Y41.417
X24.713 Y40.632
X24.879 Y39.859
X25.05 Y39.099
X25.226 Y38.351
X25.408 Y37.616
X25.595 Y36.895
X25.787 Y36.186
X25.985 Y35.491
X26.189 Y34.81
X26.398 Y34.141
X26.613 Y33.485
X26.833 Y32.842
X27.058 Y32.211
X27.289 Y31.591
X27.525 Y30.984
X27.767 Y30.387
X28.013 Y29.802
X28.264 Y29.227
X28.519 Y28.664
X28.779 Y28.111
X29.044 Y27.569
X29.319 Y27.025
G2 X28.553 Y24.62 I-1.606 J-0.813
G1 X28.008 Y24.333
X28.146 Y24.11
X28.176 Y24.061
X28.557 Y23.403
X28.585 Y23.352
X28.941 Y22.689
X28.968 Y22.635
X29.298 Y21.967
X29.325 Y21.911
X29.629 Y21.238
X29.654 Y21.18
X29.932 Y20.503
X29.955 Y20.443
X30.206 Y19.763
X30.228 Y19.702
X30.452 Y19.02
X30.471 Y18.957
X30.668 Y18.277
X30.685 Y18.213
X30.854 Y17.537
X30.869 Y17.471
X31.009 Y16.804
X31.022 Y16.737
X31.134 Y16.082
X31.144 Y16.012
X31.228 Y15.376
X31.236 Y15.303
X31.29 Y14.692
X31.294 Y14.634
X31.311 Y14.339
X31.313 Y14.298
X31.323 Y14.012
X31.324 Y13.969
X31.326 Y13.692
Y13.647
X31.322 Y13.38
X31.321 Y13.332
X31.31 Y13.074
X31.308 Y13.025
X31.291 Y12.777
X31.286 Y12.725
X31.263 Y12.487
X31.257 Y12.433
X31.228 Y12.207
X31.219 Y12.149
X31.184 Y11.933
X31.174 Y11.874
X31.133 Y11.668
X31.121 Y11.608
X31.075 Y11.412
X31.06 Y11.352
X31.01 Y11.165
X30.985 Y11.081
X30.872 Y10.729
X30.839 Y10.634
X30.713 Y10.306
X30.68 Y10.226
X30.403 Y9.599
X30.401 Y9.593
X30.266 Y9.29
X30.143 Y8.997
X30.027 Y8.691
X29.914 Y8.36
X29.805 Y7.996
X29.699 Y7.594
X29.597 Y7.151
X29.53 Y6.823
Y5.936
X29.741 Y5.801
X30.414
G2 X31.687 Y5.274 I0. J-1.8
G1 X32.287 Y4.674
G2 X32.815 Y3.401 I-1.273 J-1.273
G1 Y1.6
G2 X32.287 Y0.328 I-1.8 J0.
G1 X31.687 Y-0.273
G2 X30.414 Y-0.8 I-1.273 J1.273
G1 X1.6
G2 X0.328 Y-0.273 I0. J1.8
G1 X-0.273 Y0.328
G2 X-0.8 Y1.6 I1.273 J1.273
G1 Y3.401
G2 X-0.273 Y4.674 I1.8 J0.
G1 X0.327 Y5.274
G2 X1.6 Y5.801 I1.273 J-1.273
G1 X2.274
X2.484 Y5.936
Y6.823
X2.418 Y7.151
X2.316 Y7.594
X2.21 Y7.996
X2.101 Y8.36
X1.988 Y8.691
X1.872 Y8.997
X1.749 Y9.29
X1.614 Y9.593
X1.611 Y9.599
X1.335 Y10.226
X1.302 Y10.306
X1.176 Y10.634
X1.142 Y10.73
X1.029 Y11.081
X1.005 Y11.165
X0.954 Y11.352
X0.94 Y11.412
X0.894 Y11.608
X0.881 Y11.668
X0.841 Y11.874
X0.83 Y11.933
X0.795 Y12.149
X0.787 Y12.206
X0.758 Y12.433
X0.752 Y12.488
X0.728 Y12.725
X0.724 Y12.777
X0.707 Y13.025
X0.704 Y13.074
X0.694 Y13.332
X0.692 Y13.379
X0.688 Y13.647
Y13.692
X0.691 Y13.969
X0.692 Y14.012
X0.702 Y14.298
X0.704 Y14.339
X0.72 Y14.634
X0.724 Y14.692
X0.779 Y15.303
X0.787 Y15.376
X0.87 Y16.012
X0.881 Y16.082
X0.993 Y16.737
X1.005 Y16.804
X1.146 Y17.472
X1.161 Y17.537
X1.329 Y18.213
X1.347 Y18.277
X1.543 Y18.957
X1.563 Y19.02
X1.787 Y19.702
X1.808 Y19.763
X2.06 Y20.443
X2.083 Y20.503
X2.361 Y21.18
X2.386 Y21.238
X2.69 Y21.911
X2.716 Y21.967
X3.046 Y22.635
X3.074 Y22.689
X3.43 Y23.352
X3.458 Y23.403
X3.839 Y24.061
X3.868 Y24.11
X4.007 Y24.333
X3.462 Y24.62
G2 X2.696 Y27.025 I0.84 J1.592
G1 X2.971 Y27.569
X3.235 Y28.111
X3.496 Y28.664
X3.751 Y29.227
X4.002 Y29.802
X4.248 Y30.387
X4.489 Y30.984
X4.725 Y31.591
X4.956 Y32.211
X5.182 Y32.842
X5.402 Y33.485
X5.617 Y34.141
X5.826 Y34.81
X6.029 Y35.491
X6.228 Y36.186
X6.42 Y36.895
X6.607 Y37.616
X6.788 Y38.351
X6.964 Y39.099
X7.135 Y39.859
X7.301 Y40.632
X7.462 Y41.417
X7.618 Y42.214
X7.769 Y43.021
X7.916 Y43.84
X8.058 Y44.67
X8.195 Y45.509
X8.329 Y46.359
X8.457 Y47.218
X8.582 Y48.085
X8.673 Y48.764
X6.634 Y50.158
X4.602
G2 X3.183 Y50.85 I0. J1.8
G1 X3.135 Y50.912
X3.094 Y50.96
X3.035 Y51.027
X2.955 Y51.112
X2.741 Y51.338
X2.705 Y51.377
X2.468 Y51.642
X2.389 Y51.736
X2.276 Y51.881
X2.194 Y51.995
X2.092 Y52.149
X2.042 Y52.23
X1.996 Y52.312
X1.91 Y52.477
X1.859 Y52.584
X1.815 Y52.695
X1.752 Y52.87
G2 X1.678 Y53.136 I1.693 J0.612
G1 X1.642 Y53.322
G2 X1.609 Y53.615 I1.767 J0.345
G1 X1.603 Y53.81
G2 X1.618 Y54.095 I1.799 J0.053
G1 X1.644 Y54.3
G2 X1.694 Y54.547 I1.785 J-0.232
G1 X1.753 Y54.761
X1.784 Y54.862
X1.821 Y54.96
X1.91 Y55.18
X1.981 Y55.334
X2.099 Y55.559
X2.164 Y55.674
X2.305 Y55.902
X2.361 Y55.986
X2.52 Y56.215
X2.584 Y56.3
X2.939 Y56.75
X2.993 Y56.815
X3.364 Y57.241
X3.385 Y57.265
X3.566 Y57.465
X3.573 Y57.473
X3.747 Y57.664
X3.749 Y57.666
X3.914 Y57.845
X4.066 Y58.012
X4.204 Y58.164
X4.329 Y58.302
X4.44 Y58.427
X4.543 Y58.544
G2 X5.896 Y59.158 I1.354 J-1.186
G1 X6.302
X6.387 Y59.228
X6.443 Y59.272
X6.642 Y59.424
X6.692 Y59.46
X7.105 Y59.753
X7.131 Y59.772
X7.116 Y59.804
X7.04 Y59.95
X6.947 Y60.114
X6.837 Y60.296
X6.713 Y60.491
X6.578 Y60.695
X6.266 Y61.147
X5.928 Y61.622
X5.576 Y62.111
X5.568 Y62.122
X5.223 Y62.609
X5.204 Y62.637
X4.881 Y63.111
X4.859 Y63.145
X4.71 Y63.375
X4.69 Y63.406
X4.551 Y63.63
X4.528 Y63.668
X4.401 Y63.885
X4.374 Y63.932
X4.259 Y64.143
X4.229 Y64.2
X4.128 Y64.402
X4.095 Y64.473
X4.008 Y64.666
X3.972 Y64.753
X3.901 Y64.938
X3.864 Y65.043
X3.808 Y65.219
X3.773 Y65.347
X3.733 Y65.513
X3.703 Y65.669
X3.681 Y65.826
X3.67 Y65.919
X3.663 Y66.012
X3.657 Y66.159
X3.656 Y66.268
X3.662 Y66.378
X3.673 Y66.515
X3.688 Y66.639
X3.711 Y66.761
X3.739 Y66.888
G2 X3.819 Y67.15 I1.757 J-0.393
G1 X3.865 Y67.267
G2 X3.991 Y67.527 I1.676 J-0.655
G1 X4.054 Y67.633
G2 X4.219 Y67.868 I1.55 J-0.915
G1 X4.3 Y67.965
G2 X4.491 Y68.162 I1.385 J-1.15
G1 X4.588 Y68.248
X4.684 Y68.327
X4.785 Y68.399
X4.899 Y68.476
G2 X5.532 Y68.74 I0.997 J-1.499
G1 X8.044 Y69.258
X8.094 Y69.437
X8.127 Y69.54
X8.235 Y69.851
X8.273 Y69.95
X8.403 Y70.264
X8.446 Y70.36
X8.598 Y70.673
X8.649 Y70.769
X8.822 Y71.078
X8.881 Y71.175
X9.076 Y71.477
X9.144 Y71.574
X9.361 Y71.864
X9.438 Y71.96
X9.675 Y72.236
X9.76 Y72.329
X10.016 Y72.588
X10.108 Y72.674
X10.203 Y72.757
X10.151 Y72.948
X10.127 Y73.049
X10.079 Y73.279
X10.063 Y73.371
X10.026 Y73.606
X10.015 Y73.696
X9.993 Y73.909
X9.986 Y73.997
X9.974 Y74.209
X9.972 Y74.301
X9.971 Y74.512
X9.973 Y74.603
X9.983 Y74.814
X9.99 Y74.907
X10.011 Y75.117
X10.023 Y75.21
X10.055 Y75.419
X10.072 Y75.513
X10.115 Y75.72
X10.137 Y75.813
X10.192 Y76.019
X10.219 Y76.112
X10.285 Y76.315
X10.316 Y76.405
X10.393 Y76.606
X10.43 Y76.695
X10.518 Y76.894
X10.558 Y76.978
X10.658 Y77.174
X10.702 Y77.257
X10.813 Y77.448
X10.861 Y77.528
X10.982 Y77.714
X11.035 Y77.792
X11.166 Y77.973
X11.224 Y78.049
X11.365 Y78.223
X11.426 Y78.295
X11.576 Y78.461
X11.644 Y78.533
X11.802 Y78.691
X11.876 Y78.76
X12.043 Y78.909
X12.121 Y78.974
X12.295 Y79.113
X12.38 Y79.176
X12.562 Y79.304
X12.651 Y79.363
X12.84 Y79.48
X12.934 Y79.534
X13.13 Y79.639
X13.228 Y79.688
X13.43 Y79.782
X13.529 Y79.823
X13.737 Y79.905
X13.836 Y79.941
X14.051 Y80.01
X14.151 Y80.04
X14.371 Y80.098
X14.468 Y80.12
X14.693 Y80.166
X14.789 Y80.183
X15.02 Y80.217
X15.112 Y80.229
X15.348 Y80.251
X15.437 Y80.258
X15.678 Y80.269
X15.764 Y80.271
X16.007
X16.098
G2 X16.325 Y80.117 I0. J-0.244
G3 X16.549 Y79.959 I0.235 J0.094
G1 X16.564 Y79.958
X16.638 Y79.953
X16.874 Y79.93
X16.951 Y79.921
X17.182 Y79.886
X17.261 Y79.872
X17.487 Y79.826
X17.568 Y79.807
X17.788 Y79.75
X17.871 Y79.725
X18.085 Y79.655
X18.168 Y79.626
X18.377 Y79.544
X18.459 Y79.509
X18.661 Y79.416
X18.742 Y79.375
X18.938 Y79.27
X19.017 Y79.224
X19.206 Y79.107
X19.28 Y79.059
X19.462 Y78.931
X19.533 Y78.878
X19.708 Y78.739
X19.772 Y78.685
X19.939 Y78.536
X20.001 Y78.478
X20.16 Y78.32
X20.215 Y78.261
X20.365 Y78.095
X20.417 Y78.034
X20.558 Y77.86
X20.606 Y77.797
X20.736 Y77.616
X20.78 Y77.552
X20.901 Y77.365
X20.942 Y77.299
X21.052 Y77.107
X21.09 Y77.038
X21.189 Y76.843
X21.223 Y76.772
X21.311 Y76.573
X21.341 Y76.499
X21.418 Y76.298
X21.445 Y76.223
X21.51 Y76.019
X21.533 Y75.942
X21.587 Y75.737
X21.605 Y75.659
X21.649 Y75.452
X21.663 Y75.374
X21.695 Y75.166
X21.705 Y75.087
X21.726 Y74.877
X21.732 Y74.8
X21.742 Y74.589
X21.743 Y74.512
Y74.301
X21.741 Y74.226
X21.729 Y74.014
X21.723 Y73.939
X21.701 Y73.726
X21.692 Y73.652
X21.656 Y73.417
X21.642 Y73.34
X21.594 Y73.11
X21.574 Y73.026
X21.513 Y72.802
X21.485 Y72.709
X21.468 Y72.66
X21.709 Y72.449
X21.785 Y72.377
X22.041 Y72.119
X22.113 Y72.041
X22.349 Y71.765
X22.414 Y71.685
X22.63 Y71.394
X22.687 Y71.313
X22.882 Y71.012
X22.931 Y70.931
X23.105 Y70.622
X23.147 Y70.542
X23.299 Y70.229
X23.335 Y70.148
X23.465 Y69.835
X23.496 Y69.753
X23.605 Y69.441
X23.632 Y69.356
X23.719 Y69.047
X23.731 Y69.002
X26.422 Y68.446
G2 X26.949 Y68.226 I-0.303 J-1.469
G1 X27.064 Y68.15
X27.148 Y68.089
X27.228 Y68.024
X27.325 Y67.937
X27.408 Y67.858
X27.484 Y67.773
X27.564 Y67.677
X27.637 Y67.582
X27.702 Y67.481
X27.765 Y67.374
X27.822 Y67.268
X27.871 Y67.158
X27.916 Y67.041
X27.954 Y66.933
X27.983 Y66.822
X28.011 Y66.695
X28.03 Y66.593
X28.042 Y66.491
X28.054 Y66.354
X28.058 Y66.263
X28.057 Y66.171
X28.052 Y66.025
X28.046 Y65.946
X28.037 Y65.869
X28.014 Y65.712
X27.99 Y65.582
X27.95 Y65.416
X27.92 Y65.309
X27.865 Y65.133
X27.834 Y65.046
X27.763 Y64.861
X27.733 Y64.789
X27.646 Y64.595
X27.618 Y64.537
X27.517 Y64.334
X27.492 Y64.287
X27.377 Y64.077
X27.355 Y64.037
X27.227 Y63.819
X27.208 Y63.788
X27.069 Y63.563
X27.053 Y63.538
X26.904 Y63.308
X26.885 Y63.28
X26.563 Y62.805
X26.546 Y62.782
X26.201 Y62.295
X26.195 Y62.286
X25.843 Y61.796
X25.503 Y61.319
X25.188 Y60.863
X25.05 Y60.655
X24.923 Y60.454
X24.809 Y60.266
X24.711 Y60.093
X24.63 Y59.938
X24.566 Y59.803
X24.519 Y59.69
X24.513 Y59.672
X24.558 Y59.636
X24.735 Y59.509
X25.15 Y59.215
X25.191 Y59.185
X25.39 Y59.033
X25.436 Y58.997
X25.605 Y58.857
X26.118
G2 X27.247 Y58.346 I0. J-1.5
G1 X27.35 Y58.228
X27.462 Y58.102
X27.588 Y57.963
X27.727 Y57.809
X27.88 Y57.643
X28.044 Y57.463
X28.046 Y57.461
X28.22 Y57.271
X28.226 Y57.265
X28.407 Y57.064
X28.425 Y57.044
X28.795 Y56.618
X28.84 Y56.564
X29.196 Y56.114
X29.248 Y56.043
X29.408 Y55.815
X29.455 Y55.744
X29.595 Y55.516
X29.65 Y55.42
X29.767 Y55.195
X29.826 Y55.067
X29.916 Y54.847
X29.947 Y54.765
X29.972 Y54.681
X30.031 Y54.468
X30.056 Y54.365
X30.073 Y54.261
X30.1 Y54.056
X30.11 Y53.938
X30.111 Y53.819
X30.106 Y53.624
X30.097 Y53.501
X30.079 Y53.38
X30.042 Y53.194
X30.016 Y53.082
X29.981 Y52.972
X29.917 Y52.797
X29.881 Y52.705
X29.838 Y52.615
X29.753 Y52.451
X29.714 Y52.382
X29.672 Y52.315
X29.57 Y52.16
X29.502 Y52.066
X29.389 Y51.92
X29.323 Y51.842
X29.086 Y51.577
X29.057 Y51.545
X28.841 Y51.318
X28.758 Y51.229
X28.694 Y51.156
X28.647 Y51.1
X28.596 Y51.035
G2 X27.413 Y50.458 I-1.183 J0.923
G1 X25.288
X23.02 Y48.907
X23.136 Y48.043
X23.26 Y47.175
X23.39 Y46.314
X23.523 Y45.462
X23.661 Y44.62
X23.804 Y43.789
X23.95 Y42.968
X24.102 Y42.157
X24.259 Y41.358
X24.42 Y40.571
X24.586 Y39.795
X24.758 Y39.031
X24.935 Y38.281
X25.117 Y37.543
X25.305 Y36.818
X25.498 Y36.106
X25.697 Y35.407
X25.902 Y34.722
X26.112 Y34.05
X26.328 Y33.39
X26.55 Y32.743
X26.777 Y32.108
X27.009 Y31.484
X27.247 Y30.873
X27.489 Y30.273
X27.737 Y29.684
X27.989 Y29.105
X28.247 Y28.538
X28.509 Y27.981
X28.775 Y27.435
X29.051 Y26.89
G2 X28.413 Y24.885 I-1.338 J-0.677
G1 X27.612 Y24.463
X27.63 Y24.372
X27.892 Y23.952
X27.916 Y23.911
X28.297 Y23.253
X28.321 Y23.21
X28.676 Y22.547
X28.699 Y22.502
X29.029 Y21.834
X29.051 Y21.787
X29.355 Y21.114
X29.376 Y21.066
X29.654 Y20.389
X29.674 Y20.339
X29.925 Y19.659
X29.943 Y19.608
X30.167 Y18.926
X30.183 Y18.874
X30.38 Y18.194
X30.394 Y18.14
X30.563 Y17.465
X30.575 Y17.41
X30.716 Y16.742
X30.726 Y16.686
X30.838 Y16.032
X30.847 Y15.973
X30.93 Y15.337
X30.937 Y15.276
X30.991 Y14.665
X30.995 Y14.617
X31.012 Y14.322
X31.013 Y14.288
X31.023 Y14.002
X31.024 Y13.966
X31.026 Y13.689
Y13.652
X31.022 Y13.384
X31.021 Y13.344
X31.011 Y13.086
X31.008 Y13.045
X30.991 Y12.798
X30.988 Y12.754
X30.965 Y12.517
X30.959 Y12.472
X30.93 Y12.245
X30.923 Y12.197
X30.888 Y11.981
X30.879 Y11.932
X30.839 Y11.726
X30.828 Y11.676
X30.783 Y11.48
X30.77 Y11.43
X30.72 Y11.243
X30.7 Y11.172
X30.587 Y10.821
X30.559 Y10.742
X30.433 Y10.414
X30.405 Y10.347
X30.129 Y9.72
X30.127 Y9.715
X29.99 Y9.409
X29.864 Y9.108
X29.744 Y8.793
X29.628 Y8.452
X29.516 Y8.077
X29.408 Y7.666
X29.303 Y7.214
X29.23 Y6.853
Y5.772
X29.653 Y5.501
X30.414
G2 X31.475 Y5.062 I0. J-1.5
G1 X32.075 Y4.462
G2 X32.515 Y3.401 I-1.061 J-1.061
G1 Y1.6
G2 X32.075 Y0.54 I-1.5 J0.
G1 X31.475 Y-0.061
G2 X30.414 Y-0.5 I-1.061 J1.061
G1 X1.6
G2 X0.54 Y-0.061 I0. J1.5
G1 X-0.061 Y0.54
G2 X-0.5 Y1.6 I1.061 J1.061
G1 Y3.401
G2 X-0.061 Y4.462 I1.5 J0.
G1 X0.54 Y5.062
G2 X1.6 Y5.501 I1.061 J-1.061
G1 X2.362
X2.784 Y5.772
Y6.853
X2.711 Y7.214
X2.607 Y7.665
X2.499 Y8.077
X2.386 Y8.452
X2.27 Y8.793
X2.15 Y9.108
X2.024 Y9.409
X1.888 Y9.715
X1.886 Y9.72
X1.609 Y10.347
X1.582 Y10.414
X1.456 Y10.741
X1.428 Y10.821
X1.315 Y11.173
X1.294 Y11.243
X1.244 Y11.43
X1.232 Y11.48
X1.186 Y11.676
X1.176 Y11.726
X1.135 Y11.932
X1.126 Y11.981
X1.091 Y12.197
X1.085 Y12.245
X1.055 Y12.471
X1.05 Y12.517
X1.027 Y12.754
X1.023 Y12.798
X1.006 Y13.045
X1.004 Y13.087
X0.993 Y13.345
X0.992 Y13.384
X0.988 Y13.652
Y13.689
X0.991 Y13.966
X0.992 Y14.002
X1.002 Y14.288
X1.003 Y14.322
X1.02 Y14.617
X1.023 Y14.665
X1.078 Y15.276
X1.085 Y15.337
X1.168 Y15.973
X1.176 Y16.031
X1.288 Y16.686
X1.299 Y16.742
X1.439 Y17.41
X1.452 Y17.465
X1.621 Y18.14
X1.635 Y18.194
X1.832 Y18.874
X1.848 Y18.926
X2.072 Y19.608
X2.09 Y19.659
X2.341 Y20.339
X2.361 Y20.389
X2.639 Y21.066
X2.659 Y21.114
X2.963 Y21.787
X2.985 Y21.834
X3.315 Y22.502
X3.338 Y22.547
X3.694 Y23.21
X3.718 Y23.253
X4.098 Y23.911
X4.123 Y23.952
X4.385 Y24.372
X4.403 Y24.463
X3.602 Y24.885
G2 X2.963 Y26.89 I0.7 J1.327
G1 X3.239 Y27.435
X3.506 Y27.981
X3.768 Y28.538
X4.025 Y29.105
X4.278 Y29.684
X4.525 Y30.273
X4.768 Y30.873
X5.006 Y31.484
X5.238 Y32.108
X5.465 Y32.743
X5.686 Y33.39
X5.902 Y34.05
X6.113 Y34.722
X6.317 Y35.407
X6.517 Y36.106
X6.71 Y36.818
X6.898 Y37.543
X7.08 Y38.281
X7.257 Y39.032
X7.428 Y39.795
X7.595 Y40.571
X7.756 Y41.358
X7.913 Y42.157
X8.064 Y42.967
X8.211 Y43.789
X8.354 Y44.62
X8.491 Y45.462
X8.625 Y46.314
X8.754 Y47.175
X8.879 Y48.043
X8.995 Y48.907
X6.727 Y50.458
X4.602
G2 X3.419 Y51.035 I0. J1.5
G1 X3.368 Y51.1
X3.321 Y51.156
X3.257 Y51.229
X3.174 Y51.317
X2.958 Y51.545
X2.928 Y51.577
X2.691 Y51.842
X2.626 Y51.92
X2.513 Y52.065
X2.444 Y52.16
X2.342 Y52.315
X2.3 Y52.382
X2.262 Y52.451
X2.177 Y52.615
X2.134 Y52.705
X2.097 Y52.797
X2.034 Y52.972
X1.999 Y53.082
X1.972 Y53.194
X1.936 Y53.379
X1.918 Y53.501
X1.909 Y53.623
X1.903 Y53.819
X1.904 Y53.938
X1.915 Y54.056
X1.942 Y54.261
X1.959 Y54.365
X1.983 Y54.468
X2.042 Y54.681
X2.068 Y54.765
X2.099 Y54.847
X2.188 Y55.067
X2.247 Y55.195
X2.365 Y55.42
X2.419 Y55.516
X2.56 Y55.744
X2.606 Y55.815
X2.766 Y56.043
X2.819 Y56.114
X3.175 Y56.564
X3.219 Y56.618
X3.59 Y57.044
X3.608 Y57.064
X3.789 Y57.265
X3.795 Y57.271
X3.968 Y57.461
X3.97 Y57.464
X4.135 Y57.643
X4.287 Y57.809
X4.427 Y57.962
X4.552 Y58.102
X4.665 Y58.228
X4.768 Y58.346
G2 X5.896 Y58.857 I1.128 J-0.989
G1 X6.41
X6.578 Y58.997
X6.625 Y59.033
X6.824 Y59.185
X6.865 Y59.215
X7.28 Y59.509
X7.457 Y59.636
X7.502 Y59.672
X7.495 Y59.69
X7.449 Y59.803
X7.385 Y59.938
X7.303 Y60.093
X7.205 Y60.266
X7.092 Y60.454
X6.964 Y60.655
X6.826 Y60.863
X6.512 Y61.319
X6.172 Y61.796
X5.819 Y62.286
X5.813 Y62.295
X5.468 Y62.782
X5.452 Y62.805
X5.129 Y63.28
X5.111 Y63.308
X4.962 Y63.538
X4.945 Y63.564
X4.806 Y63.788
X4.787 Y63.82
X4.66 Y64.037
X4.638 Y64.076
X4.523 Y64.287
X4.498 Y64.334
X4.396 Y64.537
X4.369 Y64.595
X4.282 Y64.789
X4.252 Y64.861
X4.181 Y65.046
X4.15 Y65.134
X4.094 Y65.309
X4.065 Y65.416
X4.025 Y65.582
X4. Y65.712
X3.978 Y65.869
X3.968 Y65.946
X3.963 Y66.024
X3.957 Y66.171
X3.956 Y66.262
X3.961 Y66.353
X3.972 Y66.49
X3.984 Y66.593
X4.003 Y66.696
X4.032 Y66.822
X4.061 Y66.933
X4.098 Y67.041
X4.144 Y67.158
X4.192 Y67.268
X4.249 Y67.374
X4.312 Y67.481
X4.377 Y67.581
X4.45 Y67.677
X4.53 Y67.773
X4.607 Y67.858
X4.69 Y67.937
X4.787 Y68.024
X4.867 Y68.09
X4.951 Y68.15
X5.065 Y68.226
G2 X5.593 Y68.446 I0.831 J-1.249
G1 X8.284 Y69.002
X8.296 Y69.047
X8.383 Y69.356
X8.41 Y69.441
X8.518 Y69.753
X8.55 Y69.835
X8.68 Y70.149
X8.716 Y70.229
X8.868 Y70.542
X8.91 Y70.622
X9.084 Y70.931
X9.133 Y71.012
X9.328 Y71.313
X9.384 Y71.394
X9.601 Y71.685
X9.665 Y71.765
X9.902 Y72.041
X9.974 Y72.118
X10.229 Y72.377
X10.306 Y72.449
X10.546 Y72.66
X10.53 Y72.709
X10.501 Y72.802
X10.441 Y73.026
X10.421 Y73.11
X10.373 Y73.34
X10.359 Y73.417
X10.323 Y73.652
X10.313 Y73.726
X10.291 Y73.939
X10.285 Y74.013
X10.274 Y74.225
X10.272 Y74.301
X10.271 Y74.513
X10.273 Y74.589
X10.283 Y74.8
X10.289 Y74.877
X10.31 Y75.087
X10.32 Y75.165
X10.352 Y75.373
X10.366 Y75.452
X10.409 Y75.659
X10.427 Y75.737
X10.482 Y75.942
X10.504 Y76.019
X10.57 Y76.223
X10.596 Y76.298
X10.673 Y76.499
X10.704 Y76.573
X10.792 Y76.772
X10.826 Y76.843
X10.925 Y77.038
X10.962 Y77.107
X11.073 Y77.299
X11.113 Y77.365
X11.234 Y77.551
X11.278 Y77.616
X11.409 Y77.797
X11.457 Y77.86
X11.598 Y78.034
X11.649 Y78.094
X11.799 Y78.261
X11.855 Y78.32
X12.014 Y78.478
X12.075 Y78.536
X12.242 Y78.685
X12.307 Y78.739
X12.482 Y78.878
X12.552 Y78.931
X12.735 Y79.059
X12.809 Y79.108
X12.998 Y79.225
X13.076 Y79.27
X13.272 Y79.375
X13.354 Y79.416
X13.556 Y79.509
X13.638 Y79.544
X13.847 Y79.626
X13.929 Y79.655
X14.144 Y79.725
X14.227 Y79.75
X14.447 Y79.807
X14.528 Y79.826
X14.753 Y79.872
X14.833 Y79.886
X15.064 Y79.921
X15.141 Y79.93
X15.376 Y79.953
X15.45 Y79.958
X15.692 Y79.969
X15.764 Y79.971
X16.007
X16.251
X16.323 Y79.969
X16.549 Y79.959
G3 X16.862 Y80.245 I0.014 J0.3
G1 X16.876 Y80.544
X16.879 Y80.611 Z0.258
X16.882 Y80.674 Z0.28
X16.885 Y80.731 Z0.315
X16.887 Y80.779 Z0.363
X16.889 Y80.814 Z0.42
X16.89 Y80.836 Z0.483
Y80.844 Z0.55
G0 Z31.007

(Parallel4)
G64
X32.073 Y0.244
Z31.007
Z8.27
G1 Z0.55 F266.7
X32.065 Z0.483 F800
X32.043 Z0.42
X32.007 Z0.363
X31.96 Z0.316
X31.903 Z0.28
X31.84 Z0.258
X31.773 Z0.25
X31.758 Z0.781
X31.696 Z1.555
X31.595 Z2.314
X31.455 Z3.069
X31.276 Z3.812
X31.059 Z4.547
X30.803 Z5.271
X30.514 Z5.973
X30.185 Z6.666
X29.825 Z7.337
X29.426 Z7.994
X28.992 Z8.633
X28.528 Z9.247
X28.029 Z9.841
X27.494 Z10.415
X26.932 Z10.959
X26.333 Z11.482
X25.711 Z11.972
X25.054 Z12.436
X24.371 Z12.867
X23.667 Z13.264
X22.94 Z13.623
X22.231 Z13.928
X21.509 Z14.196
X20.769 Z14.428
X20.022 Z14.621
X19.265 Z14.776
X18.511 Z14.89
X17.739 Z14.966
X16.996 Z15.002
X14.91 Z14.999
X14.139 Z14.955
X13.369 Z14.872
X12.606 Z14.749
X11.848 Z14.587
X11.1 Z14.386
X10.367 Z14.148
X9.647 Z13.873
X8.94 Z13.559
X8.246 Z13.208
X7.569 Z12.823
X6.894 Z12.391
X6.246 Z11.928
X5.63 Z11.439
X5.042 Z10.921
X4.48 Z10.373
X3.95 Z9.8
X3.455 Z9.206
X2.99 Z8.587
X2.559 Z7.947
X2.163 Z7.288
X1.798 Z6.603
X1.474 Z5.911
X1.186 Z5.204
X0.932 Z4.472
X0.721 Z3.749
X0.544 Z2.994
X0.41 Z2.258
X0.313 Z1.505
X0.255 Z0.743
X0.242 Z0.25
X0.07 Y0.415
X-0.1 Y0.588
X-0.248 Y0.778
X-0.311 Y0.883
X-0.365 Y0.994
X-0.354 Z0.704
X-0.298 Z1.471
X-0.202 Z2.242
X-0.068 Z2.997
X0.106 Z3.748
X0.318 Z4.491
X0.569 Z5.226
X0.856 Z5.94
X1.18 Z6.641
X1.54 Z7.326
X1.935 Z7.991
X2.362 Z8.633
X2.823 Z9.254
X3.315 Z9.849
X3.837 Z10.419
X4.388 Z10.961
X4.966 Z11.474
X5.568 Z11.956
X6.198 Z12.409
X6.847 Z12.826
X7.519 Z13.211
X8.209 Z13.56
X8.913 Z13.872
X9.637 Z14.149
X10.371 Z14.387
X11.119 Z14.588
X11.872 Z14.749
X12.639 Z14.872
X13.413 Z14.956
X14.184 Z14.999
X17.734 Z15.002
X18.476 Z14.966
X19.234 Z14.891
X20.003 Z14.775
X20.752 Z14.622
X21.504 Z14.428
X22.239 Z14.197
X22.965 Z13.927
X23.673 Z13.622
X24.367 Z13.279
X25.039 Z12.904
X25.693 Z12.492
X26.327 Z12.046
X26.935 Z11.57
X27.517 Z11.063
X28.074 Z10.526
X28.601 Z9.961
X29.099 Z9.37
X29.566 Z8.755
X30. Z8.117
X30.401 Z7.457
X30.768 Z6.775
X31.099 Z6.078
X31.395 Z5.361
X31.652 Z4.633
X31.871 Z3.893
X32.053 Z3.14
X32.195 Z2.381
X32.297 Z1.619
X32.361 Z0.851
X32.38 Z0.25
X32.447 Y1.175
X32.489 Y1.361
X32.507 Y1.551
X32.508 Y1.744
X32.494 Z0.789
X32.432 Z1.57
X32.331 Z2.338
X32.19 Z3.1
X32.009 Z3.86
X31.791 Z4.6
X31.536 Z5.329
X31.243 Z6.042
X30.912 Z6.746
X30.548 Z7.424
X30.146 Z8.09
X29.713 Z8.729
X29.249 Z9.344
X28.754 Z9.935
X28.228 Z10.5
X27.671 Z11.041
X27.09 Z11.548
X26.482 Z12.027
X25.85 Z12.473
X25.201 Z12.884
X24.524 Z13.265
X23.837 Z13.606
X23.129 Z13.914
X22.399 Z14.187
X21.67 Z14.418
X20.925 Z14.612
X20.173 Z14.768
X19.4 Z14.887
X18.656 Z14.963
X17.857 Z15.002
X14.058 Z14.999
X13.332 Z14.961
X12.546 Z14.878
X11.788 Z14.758
X11.021 Z14.596
X10.277 Z14.398
X9.539 Z14.16
X8.819 Z13.886
X8.111 Z13.575
X7.418 Z13.226
X6.747 Z12.844
X6.098 Z12.429
X5.467 Z11.978
X4.863 Z11.497
X4.286 Z10.987
X3.732 Z10.444
X3.208 Z9.875
X2.716 Z9.282
X2.254 Z8.663
X1.826 Z8.023
X1.429 Z7.359
X1.067 Z6.674
X0.743 Z5.977
X0.451 Z5.255
X0.2 Z4.525
X-0.014 Z3.783
X-0.189 Z3.034
X-0.326 Z2.27
X-0.421 Z1.533
X-0.48 Z0.775
X-0.494 Z0.25
Y2.493
X-0.48 Z0.775
X-0.421 Z1.533
X-0.326 Z2.27
X-0.189 Z3.034
X-0.014 Z3.783
X0.2 Z4.525
X0.451 Z5.255
X0.743 Z5.977
X1.067 Z6.674
X1.429 Z7.359
X1.826 Z8.023
X2.254 Z8.663
X2.716 Z9.282
X3.208 Z9.875
X3.732 Z10.444
X4.286 Z10.987
X4.863 Z11.497
X5.467 Z11.978
X6.098 Z12.429
X6.747 Z12.844
X7.418 Z13.226
X8.111 Z13.575
X8.819 Z13.886
X9.539 Z14.16
X10.277 Z14.398
X11.021 Z14.596
X11.788 Z14.758
X12.546 Z14.878
X13.332 Z14.961
X14.058 Z14.999
X17.857 Z15.002
X18.656 Z14.963
X19.4 Z14.887
X20.173 Z14.768
X20.925 Z14.612
X21.67 Z14.418
X22.399 Z14.187
X23.129 Z13.914
X23.837 Z13.606
X24.524 Z13.265
X25.201 Z12.884
X25.85 Z12.473
X26.482 Z12.027
X27.09 Z11.548
X27.671 Z11.041
X28.228 Z10.5
X28.754 Z9.935
X29.249 Z9.344
X29.713 Z8.729
X30.146 Z8.09
X30.548 Z7.424
X30.912 Z6.746
X31.243 Z6.042
X31.536 Z5.329
X31.791 Z4.6
X32.009 Z3.86
X32.19 Z3.1
X32.331 Z2.338
X32.432 Z1.57
X32.494 Z0.789
X32.508 Z0.25
Y3.243
X32.494 Z0.789
X32.432 Z1.57
X32.331 Z2.338
X32.19 Z3.1
X32.009 Z3.86
X31.791 Z4.6
X31.536 Z5.329
X31.243 Z6.042
X30.912 Z6.746
X30.548 Z7.424
X30.146 Z8.09
X29.713 Z8.729
X29.249 Z9.344
X28.754 Z9.935
X28.228 Z10.5
X27.671 Z11.041
X27.09 Z11.548
X26.482 Z12.027
X25.85 Z12.473
X25.201 Z12.884
X24.524 Z13.265
X23.837 Z13.606
X23.129 Z13.914
X22.399 Z14.187
X21.67 Z14.418
X20.925 Z14.612
X20.173 Z14.768
X19.4 Z14.887
X18.656 Z14.963
X17.857 Z15.002
X14.058 Z14.999
X13.332 Z14.961
X12.546 Z14.878
X11.788 Z14.758
X11.021 Z14.596
X10.277 Z14.398
X9.539 Z14.16
X8.819 Z13.886
X8.111 Z13.575
X7.418 Z13.226
X6.747 Z12.844
X6.098 Z12.429
X5.467 Z11.978
X4.863 Z11.497
X4.286 Z10.987
X3.732 Z10.444
X3.208 Z9.875
X2.716 Z9.282
X2.254 Z8.663
X1.826 Z8.023
X1.429 Z7.359
X1.067 Z6.674
X0.743 Z5.977
X0.451 Z5.255
X0.2 Z4.525
X-0.014 Z3.783
X-0.189 Z3.034
X-0.326 Z2.27
X-0.421 Z1.533
X-0.48 Z0.775
X-0.494 Z0.25
X-0.493 Y3.436
X-0.477 Y3.626
X-0.436 Y3.811
X-0.372 Y3.993
X-0.359 Z0.733
X-0.303 Z1.483
X-0.209 Z2.237
X-0.073 Z3.002
X0.1 Z3.752
X0.312 Z4.494
X0.562 Z5.224
X0.85 Z5.943
X1.174 Z6.643
X1.534 Z7.328
X1.927 Z7.99
X2.356 Z8.634
X2.818 Z9.255
X3.309 Z9.85
X3.832 Z10.42
X4.381 Z10.961
X4.961 Z11.475
X5.563 Z11.957
X6.191 Z12.408
X6.84 Z12.825
X7.511 Z13.21
X8.201 Z13.559
X8.909 Z13.873
X9.629 Z14.148
X10.362 Z14.386
X11.11 Z14.587
X11.868 Z14.749
X12.631 Z14.872
X13.401 Z14.955
X14.169 Z14.999
X17.728 Z15.002
X18.471 Z14.966
X19.243 Z14.89
X20.007 Z14.775
X20.761 Z14.621
X21.507 Z14.429
X22.248 Z14.196
X22.969 Z13.928
X23.678 Z13.622
X24.372 Z13.28
X25.047 Z12.903
X25.701 Z12.491
X26.332 Z12.047
X26.94 Z11.571
X27.524 Z11.062
X28.079 Z10.527
X28.606 Z9.963
X29.104 Z9.372
X29.573 Z8.754
X30.007 Z8.116
X30.408 Z7.456
X30.775 Z6.774
X31.105 Z6.077
X31.4 Z5.364
X31.657 Z4.636
X31.878 Z3.891
X32.059 Z3.138
X32.201 Z2.379
X32.304 Z1.616
X32.367 Z0.846
X32.386 Z0.25
X32.272 Y4.209
X32.127 Y4.4
X31.958 Y4.573
X31.787 Y4.743
X31.773 Z0.781
X31.711 Z1.555
X31.61 Z2.316
X31.469 Z3.071
X31.291 Z3.814
X31.073 Z4.549
X30.818 Z5.274
X30.528 Z5.976
X30.2 Z6.67
X29.836 Z7.346
X29.441 Z7.998
X29.007 Z8.637
X28.539 Z9.256
X28.04 Z9.85
X27.505 Z10.424
X26.939 Z10.972
X26.345 Z11.491
X25.717 Z11.985
X25.065 Z12.446
X24.381 Z12.879
X23.664 Z13.28
X22.97 Z13.622
X22.262 Z13.928
X21.54 Z14.196
X20.8 Z14.428
X20.055 Z14.621
X19.299 Z14.775
X18.53 Z14.891
X17.772 Z14.966
X17.03 Z15.002
X14.892 Z14.999
X14.11 Z14.955
X13.335 Z14.871
X12.579 Z14.75
X11.82 Z14.588
X11.071 Z14.386
X10.337 Z14.148
X9.614 Z13.871
X8.91 Z13.559
X8.22 Z13.21
X7.552 Z12.829
X6.88 Z12.399
X6.234 Z11.938
X5.614 Z11.444
X5.026 Z10.926
X4.465 Z10.378
X3.939 Z9.809
X3.44 Z9.21
X2.974 Z8.59
X2.544 Z7.95
X2.144 Z7.284
X1.786 Z6.611
X1.459 Z5.914
X1.168 Z5.198
X0.917 Z4.474
X0.707 Z3.751
X0.529 Z2.994
X0.395 Z2.257
X0.298 Z1.498
X0.242 Z0.787
X0.227 Z0.25
X0.358 Y4.874
X0.488 Y5.004
X0.62 Y5.131
X0.763 Y5.241
X0.917 Y5.333
X1.082 Y5.407
X1.259 Y5.461
X1.45 Y5.493
X1.461 Z0.708
X1.516 Z1.432
X1.611 Z2.18
X1.745 Z2.925
X1.917 Z3.657
X2.128 Z4.383
X2.375 Z5.093
X2.661 Z5.793
X2.982 Z6.476
X3.339 Z7.141
X3.729 Z7.784
X4.152 Z8.406
X4.609 Z9.009
X5.096 Z9.585
X5.612 Z10.134
X6.156 Z10.656
X6.727 Z11.149
X7.322 Z11.61
X7.943 Z12.041
X8.585 Z12.439
X9.244 Z12.801
X9.923 Z13.129
X10.621 Z13.423
X11.328 Z13.677
X12.052 Z13.896
X12.787 Z14.076
X13.528 Z14.217
X14.313 Z14.324
X15.134 Z14.391
X15.962 Z14.415
X16.795 Z14.395
X17.619 Z14.333
X18.349 Z14.239
X19.086 Z14.106
X19.826 Z13.932
X20.547 Z13.723
X21.257 Z13.475
X21.957 Z13.189
X22.64 Z12.868
X23.302 Z12.513
X23.949 Z12.121
X24.572 Z11.698
X25.172 Z11.242
X25.749 Z10.755
X26.298 Z10.238
X26.82 Z9.694
X27.313 Z9.123
X27.776 Z8.525
X28.206 Z7.907
X28.604 Z7.265
X28.966 Z6.606
X29.294 Z5.927
X29.586 Z5.232
X29.842 Z4.52
X30.061 Z3.797
X30.241 Z3.063
X30.381 Z2.324
X30.484 Z1.574
X30.544 Z0.851
X30.565 Z0.25
X30.35 Y5.501
X29.689
X29.516 Y5.585
X29.354 Y5.689
X29.223 Y5.849
Y6.243
X29.208 Z0.706
X29.146 Z1.393
X29.045 Z2.069
X28.907 Z2.731
X28.727 Z3.394
X28.51 Z4.042
X28.257 Z4.675
X27.968 Z5.29
X27.643 Z5.888
X27.283 Z6.468
X26.888 Z7.03
X26.463 Z7.563
X26.009 Z8.07
X25.525 Z8.551
X25.015 Z9.002
X24.482 Z9.421
X23.921 Z9.812
X23.336 Z10.17
X22.738 Z10.49
X22.123 Z10.775
X21.482 Z11.028
X20.842 Z11.238
X20.177 Z11.414
X19.625 Z11.532
X18.968 Z11.706
X18.236 Z11.855
X17.478 Z11.964
X16.722 Z12.028
X15.971 Z12.047
X15.221 Z12.023
X14.493 Z11.959
X13.752 Z11.85
X13.017 Z11.698
X12.264 Z11.502
X11.777 Z11.4
X11.114 Z11.22
X10.466 Z11.003
X9.833 Z10.75
X9.218 Z10.461
X8.614 Z10.133
X8.035 Z9.773
X7.479 Z9.381
X6.945 Z8.957
X6.438 Z8.503
X5.958 Z8.019
X5.506 Z7.509
X5.084 Z6.972
X4.694 Z6.411
X4.339 Z5.832
X4.016 Z5.227
X3.731 Z4.612
X3.481 Z3.979
X3.268 Z3.329
X3.095 Z2.677
X2.957 Z1.999
X2.862 Z1.343
X2.803 Z0.652
X2.792 Z0.257
Y6.807 Z0.267
X2.761 Y6.993 Z0.27
X2.766 Z0.43
X2.783 Z0.791
X2.833 Z1.342
X2.901 Z1.832
X2.958 Z2.165
X3.071 Z2.7
X3.216 Z3.255
X3.347 Z3.678
X3.483 Z4.071
X3.7 Z4.618
X3.931 Z5.126
X4.134 Z5.526
X4.358 Z5.931
X4.66 Z6.422
X4.976 Z6.883
X5.26 Z7.262
X5.566 Z7.638
X5.946 Z8.064
X6.322 Z8.448
X6.687 Z8.789
X7.085 Z9.131
X7.51 Z9.463
X7.957 Z9.783
X8.404 Z10.073
X8.861 Z10.342
X9.328 Z10.59
X9.817 Z10.824
X10.308 Z11.033
X10.82 Z11.226
X11.343 Z11.397
X11.946 Z11.568
X12.466 Z11.693
X12.845 Z11.771
X13.25 Z11.844
X13.671 Z11.908
X14.196 Z11.972
X15.004 Z12.037
X15.441 Z12.055
X16.085 Z12.068
X16.863 Z12.047
X17.662 Z11.987
X18.068 Z11.943
X18.506 Z11.885
X18.926 Z11.817
X19.318 Z11.742
X19.717 Z11.655
X20.105 Z11.559
X20.509 Z11.446
X20.868 Z11.335
X21.217 Z11.218
X21.563 Z11.089
X21.893 Z10.956
X22.223 Z10.812
X22.547 Z10.66
X22.865 Z10.498
X23.179 Z10.328
X23.488 Z10.148
X23.788 Z9.961
X24.086 Z9.764
X24.381 Z9.555
X24.645 Z9.357
X24.937 Z9.124
X25.174 Z8.924
X25.461 Z8.668
X25.67 Z8.469
X25.952 Z8.186
X26.15 Z7.975
X26.429 Z7.661
X26.613 Z7.44
X26.878 Z7.102
X27.082 Z6.822
X27.338 Z6.448
X27.612 Z6.007
X27.754 Z5.759
X27.977 Z5.342
X28.151 Z4.984
X28.318 Z4.611
X28.518 Z4.11
X28.633 Z3.783
X28.772 Z3.35
X28.903 Z2.868
X28.972 Z2.577
X29.08 Z2.038
X29.143 Z1.631
X29.184 Z1.316
X29.237 Z0.686
X29.252 Z0.25
X29.29 Y7.182
X29.333 Y7.369
X29.376 Y7.556
X29.422 Y7.743
X29.41 Z0.639
X29.36 Z1.266
X29.313 Z1.648
X29.263 Z1.976
X29.203 Z2.305
X29.137 Z2.618
X29.065 Z2.922
X28.98 Z3.241
X28.888 Z3.552
X28.783 Z3.874
X28.671 Z4.188
X28.548 Z4.503
X28.414 Z4.82
X28.275 Z5.124
X28.121 Z5.437
X27.962 Z5.739
X27.79 Z6.044
X27.608 Z6.345
X27.419 Z6.638
X27.22 Z6.929
X27.013 Z7.212
X26.793 Z7.495
X26.568 Z7.767
X26.33 Z8.039
X26.09 Z8.298
X25.838 Z8.553
X25.579 Z8.801
X25.312 Z9.042
X25.035 Z9.277
X24.752 Z9.502
X24.464 Z9.719
X24.169 Z9.928
X23.856 Z10.136
X23.539 Z10.333
X23.218 Z10.52
X22.899 Z10.694
X22.567 Z10.862
X22.23 Z11.021
X21.892 Z11.168
X21.539 Z11.311
X21.193 Z11.439
X20.827 Z11.563
X20.379 Z11.7
X20.016 Z11.801
X19.639 Z11.894
X19.242 Z11.982
X18.837 Z12.059
X18.417 Z12.127
X18.004 Z12.183
X17.597 Z12.227
X16.825 Z12.285
X16.094 Z12.304
X15.549 Z12.295
X15.104 Z12.28
X14.272 Z12.213
X13.781 Z12.154
X13.34 Z12.087
X12.92 Z12.011
X12.556 Z11.935
X12.022 Z11.808
X11.44 Z11.643
X10.856 Z11.451
X10.327 Z11.253
X9.813 Z11.034
X9.312 Z10.795
X8.826 Z10.537
X8.353 Z10.258
X7.876 Z9.948
X7.432 Z9.632
X7.009 Z9.301
X6.598 Z8.95
X6.203 Z8.58
X5.826 Z8.194
X5.472 Z7.798
X5.135 Z7.385
X4.816 Z6.958
X4.518 Z6.52
X4.242 Z6.073
X3.986 Z5.616
X3.753 Z5.152
X3.54 Z4.68
X3.348 Z4.199
X3.183 Z3.729
X3.036 Z3.247
X2.912 Z2.77
X2.808 Z2.285
X2.724 Z1.804
X2.663 Z1.339
X2.619 Z0.867
X2.595 Z0.458
X2.592 Z0.25
X2.542 Y7.932
X2.491 Y8.12
X2.435 Y8.307
X2.377 Y8.493
X2.382 Z0.491
X2.405 Z0.89
X2.449 Z1.364
X2.514 Z1.853
X2.597 Z2.33
X2.705 Z2.83
X2.832 Z3.319
X2.98 Z3.802
X3.15 Z4.288
X3.346 Z4.778
X3.562 Z5.257
X3.798 Z5.727
X4.06 Z6.196
X4.343 Z6.655
X4.648 Z7.104
X4.974 Z7.54
X5.319 Z7.962
X5.685 Z8.371
X6.07 Z8.766
X6.478 Z9.148
X6.919 Z9.525
X7.356 Z9.867
X7.815 Z10.194
X8.288 Z10.501
X8.777 Z10.789
X9.281 Z11.057
X9.796 Z11.302
X10.375 Z11.548
X10.92 Z11.753
X11.485 Z11.939
X12.058 Z12.101
X12.614 Z12.234
X12.995 Z12.313
X13.433 Z12.391
X13.857 Z12.456
X14.327 Z12.513
X15.145 Z12.579
X15.99 Z12.602
X16.78 Z12.583
X17.548 Z12.526
X17.921 Z12.486
X18.337 Z12.43
X18.754 Z12.362
X19.178 Z12.282
X19.589 Z12.191
X19.977 Z12.095
X20.371 Z11.986
X20.749 Z11.869
X21.134 Z11.739
X21.496 Z11.605
X21.879 Z11.45
X22.253 Z11.287
X22.603 Z11.121
X22.941 Z10.95
X23.272 Z10.769
X23.599 Z10.579
X23.921 Z10.378
X24.234 Z10.171
X24.54 Z9.955
X24.838 Z9.73
X25.13 Z9.497
X25.429 Z9.242
X25.705 Z8.994
X25.973 Z8.737
X26.233 Z8.474
X26.482 Z8.206
X26.72 Z7.934
X26.952 Z7.653
X27.175 Z7.365
X27.389 Z7.071
X27.593 Z6.775
X27.788 Z6.471
X27.97 Z6.169
X28.146 Z5.859
X28.312 Z5.544
X28.465 Z5.231
X28.611 Z4.913
X28.744 Z4.596
X28.871 Z4.272
X28.986 Z3.949
X29.091 Z3.627
X29.189 Z3.296
X29.274 Z2.976
X29.349 Z2.659
X29.418 Z2.328
X29.475 Z2.013
X29.525 Z1.686
X29.572 Z1.305
X29.625 Z0.646
X29.637 Z0.25
X29.701 Y8.683 Z0.253
X29.768 Y8.871 Z0.255
X29.838 Y9.058 Z0.258
X29.915 Y9.243 Z0.261
X29.9 Z0.694
X29.845 Z1.364
X29.791 Z1.786
X29.717 Z2.245
X29.628 Z2.688
X29.543 Z3.046
X29.455 Z3.378
X29.357 Z3.711
X29.249 Z4.043
X29.13 Z4.376
X29.001 Z4.708
X28.864 Z5.033
X28.712 Z5.366
X28.552 Z5.693
X28.382 Z6.015
X28.204 Z6.331
X28.012 Z6.65
X27.812 Z6.96
X27.602 Z7.266
X27.38 Z7.57
X27.154 Z7.862
X26.914 Z8.154
X26.664 Z8.439
X26.407 Z8.716
X26.14 Z8.988
X25.867 Z9.248
X25.582 Z9.505
X25.287 Z9.756
X24.991 Z9.993
X24.678 Z10.229
X24.363 Z10.452
X24.034 Z10.67
X23.701 Z10.878
X23.363 Z11.075
X23.02 Z11.262
X22.663 Z11.444
X22.305 Z11.613
X21.939 Z11.773
X21.57 Z11.922
X21.19 Z12.063
X20.807 Z12.193
X20.419 Z12.312
X20.027 Z12.422
X19.613 Z12.525
X19.218 Z12.612
X18.796 Z12.692
X18.379 Z12.76
X17.966 Z12.816
X17.578 Z12.859
X16.797 Z12.916
X15.977 Z12.936
X15.152 Z12.913
X14.309 Z12.847
X13.817 Z12.786
X13.393 Z12.722
X12.984 Z12.649
X12.603 Z12.57
X12.033 Z12.434
X11.447 Z12.268
X10.863 Z12.076
X10.301 Z11.865
X9.75 Z11.631
X9.215 Z11.376
X8.693 Z11.098
X8.192 Z10.804
X7.693 Z10.48
X7.219 Z10.142
X6.763 Z9.785
X6.327 Z9.412
X5.91 Z9.022
X5.513 Z8.616
X5.131 Z8.19
X4.775 Z7.754
X4.438 Z7.303
X4.123 Z6.839
X3.833 Z6.37
X3.564 Z5.888
X3.318 Z5.4
X3.093 Z4.901
X2.894 Z4.402
X2.717 Z3.898
X2.567 Z3.406
X2.434 Z2.891
X2.326 Z2.393
X2.24 Z1.897
X2.175 Z1.413
X2.128 Z0.911
X2.105 Z0.502
X2.098 Z0.25
X2.057 Y9.337 Z0.253
X2.018 Y9.431 Z0.256
X1.978 Y9.525 Z0.258
X1.936 Y9.619 Z0.261
X1.894 Y9.712 Z0.264
X1.811 Y9.899 Z0.27
X1.769 Y9.993 Z0.272
X1.772 Z0.438
X1.799 Z0.933
X1.845 Z1.437
X1.913 Z1.947
X2.002 Z2.461
X2.116 Z2.987
X2.249 Z3.499
X2.406 Z4.013
X2.586 Z4.526
X2.792 Z5.04
X3.02 Z5.546
X3.273 Z6.049
X3.548 Z6.542
X3.848 Z7.028
X4.171 Z7.502
X4.515 Z7.963
X4.883 Z8.413
X5.264 Z8.839
X5.642 Z9.226
X6.094 Z9.651
X6.543 Z10.035
X7.009 Z10.4
X7.492 Z10.744
X7.992 Z11.069
X8.505 Z11.37
X9.034 Z11.651
X9.555 Z11.9
X10.108 Z12.137
X10.656 Z12.342
X11.243 Z12.535
X11.847 Z12.706
X12.418 Z12.842
X12.799 Z12.921
X13.183 Z12.991
X13.654 Z13.064
X14.133 Z13.123
X15.003 Z13.192
X15.44 Z13.207
X16.09 Z13.219
X16.916 Z13.197
X17.736 Z13.136
X18.14 Z13.092
X18.531 Z13.039
X18.966 Z12.968
X19.386 Z12.887
X19.808 Z12.795
X20.22 Z12.692
X20.613 Z12.582
X20.991 Z12.466
X21.323 Z12.354
X21.647 Z12.237
X22.112 Z12.052
X22.479 Z11.892
X22.843 Z11.719
X23.206 Z11.535
X23.555 Z11.345
X23.899 Z11.144
X24.238 Z10.932
X24.567 Z10.714
X24.892 Z10.483
X25.209 Z10.245
X25.515 Z10.
X25.809 Z9.75
X26.082 Z9.504
X26.3 Z9.298
X26.648 Z8.948
X26.913 Z8.662
X27.166 Z8.372
X27.41 Z8.076
X27.648 Z7.769
X27.873 Z7.46
X28.09 Z7.144
X28.293 Z6.828
X28.492 Z6.499
X28.677 Z6.17
X28.85 Z5.841
X29.014 Z5.507
X29.165 Z5.174
X29.309 Z4.833
X29.441 Z4.492
X29.56 Z4.159
X29.671 Z3.817
X29.772 Z3.475
X29.863 Z3.133
X29.944 Z2.789
X30.013 Z2.457
X30.076 Z2.111
X30.129 Z1.761
X30.176 Z1.378
X30.232 Z0.683
X30.244 Z0.25
X30.326 Y10.178
X30.406 Y10.365
X30.481 Y10.553
X30.552 Y10.743
X30.537 Z0.705
X30.481 Z1.404
X30.431 Z1.807
X30.378 Z2.156
X30.315 Z2.504
X30.244 Z2.849
X30.162 Z3.195
X30.071 Z3.539
X29.967 Z3.892
X29.856 Z4.233
X29.731 Z4.584
X29.599 Z4.926
X29.452 Z5.274
X29.297 Z5.615
X29.13 Z5.956
X28.951 Z6.295
X28.762 Z6.631
X28.567 Z6.956
X28.357 Z7.281
X28.137 Z7.604
X27.908 Z7.918
X27.67 Z8.225
X27.417 Z8.532
X27.087 Z8.906
X26.734 Z9.277
X26.309 Z9.688
X25.951 Z10.006
X25.514 Z10.367
X25.137 Z10.652
X24.806 Z10.886
X24.472 Z11.109
X24.134 Z11.319
X23.79 Z11.52
X23.441 Z11.711
X23.078 Z11.895
X22.714 Z12.067
X22.341 Z12.231
X21.966 Z12.382
X21.59 Z12.522
X21.107 Z12.683
X20.532 Z12.85
X20.095 Z12.959
X19.672 Z13.052
X19.252 Z13.132
X18.802 Z13.206
X18.327 Z13.271
X17.952 Z13.312
X17.093 Z13.376
X16.125 Z13.403
X15.61 Z13.396
X14.903 Z13.375
X13.954 Z13.302
X13.439 Z13.239
X12.979 Z13.169
X12.552 Z13.093
X12.14 Z13.009
X11.555 Z12.869
X10.946 Z12.695
X10.45 Z12.531
X9.912 Z12.329
X9.352 Z12.091
X8.803 Z11.829
X8.274 Z11.548
X7.755 Z11.243
X7.255 Z10.918
X6.77 Z10.572
X6.303 Z10.207
X5.828 Z9.798
X5.401 Z9.396
X4.994 Z8.977
X4.629 Z8.569
X4.261 Z8.119
X3.91 Z7.649
X3.58 Z7.164
X3.276 Z6.672
X2.997 Z6.173
X2.738 Z5.657
X2.506 Z5.143
X2.297 Z4.621
X2.114 Z4.099
X1.951 Z3.566
X1.815 Z3.041
X1.701 Z2.515
X1.612 Z2.005
X1.541 Z1.473
X1.494 Z0.974
X1.468 Z0.519
X1.461 Z0.25
X1.397 Y10.928
X1.338 Y11.115
X1.283 Y11.303
X1.235 Y11.493
X1.24 Z0.474
X1.269 Z1.
X1.316 Z1.497
X1.387 Z2.026
X1.479 Z2.554
X1.593 Z3.079
X1.733 Z3.616
X1.895 Z4.149
X2.082 Z4.68
X2.293 Z5.21
X2.528 Z5.731
X2.788 Z6.247
X3.073 Z6.758
X3.38 Z7.254
X3.711 Z7.739
X4.066 Z8.216
X4.442 Z8.674
X4.836 Z9.114
X5.255 Z9.543
X5.689 Z9.949
X6.145 Z10.339
X6.616 Z10.707
X7.101 Z11.053
X7.591 Z11.371
X8.065 Z11.65
X8.578 Z11.925
X9.142 Z12.196
X9.692 Z12.43
X10.248 Z12.639
X10.79 Z12.817
X11.357 Z12.978
X11.899 Z13.108
X12.267 Z13.184
X12.671 Z13.258
X13.08 Z13.32
X13.624 Z13.386
X14.633 Z13.463
X15.551 Z13.489
X16.391 Z13.491
X17.378 Z13.463
X18.239 Z13.4
X18.633 Z13.358
X19.102 Z13.296
X19.467 Z13.236
X19.861 Z13.162
X20.209 Z13.087
X20.556 Z13.004
X21.048 Z12.87
X21.432 Z12.752
X21.814 Z12.622
X22.184 Z12.484
X22.561 Z12.332
X22.926 Z12.172
X23.373 Z11.959
X23.857 Z11.703
X24.292 Z11.452
X24.628 Z11.242
X24.963 Z11.019
X25.287 Z10.789
X25.605 Z10.55
X25.92 Z10.298
X26.223 Z10.039
X26.517 Z9.774
X26.806 Z9.497
X27.082 Z9.217
X27.354 Z8.923
X27.616 Z8.624
X27.863 Z8.323
X28.105 Z8.011
X28.337 Z7.692
X28.558 Z7.37
X28.768 Z7.043
X28.97 Z6.708
X29.159 Z6.373
X29.338 Z6.032
X29.508 Z5.685
X29.666 Z5.337
X29.813 Z4.989
X29.948 Z4.639
X30.073 Z4.288
X30.187 Z3.936
X30.292 Z3.582
X30.386 Z3.227
X30.467 Z2.881
X30.539 Z2.535
X30.605 Z2.17
X30.658 Z1.818
X30.708 Z1.41
X30.764 Z0.709
X30.779 Z0.25
X30.822 Y11.679
X30.86 Y11.866
X30.894 Y12.054
X30.924 Y12.243
X30.91 Z0.715
X30.854 Z1.421
X30.804 Z1.828
X30.747 Z2.2
X30.685 Z2.548
X30.613 Z2.897
X30.528 Z3.256
X30.434 Z3.613
X30.327 Z3.976
X30.212 Z4.328
X30.085 Z4.687
X29.95 Z5.035
X29.803 Z5.384
X29.645 Z5.733
X29.471 Z6.086
X29.292 Z6.428
X29.1 Z6.769
X28.838 Z7.198
X28.547 Z7.639
X28.202 Z8.115
X27.905 Z8.493
X27.537 Z8.928
X27.149 Z9.344
X26.917 Z9.578
X26.641 Z9.843
X26.343 Z10.112
X26.04 Z10.37
X25.729 Z10.618
X25.412 Z10.857
X25.087 Z11.088
X24.758 Z11.307
X24.42 Z11.518
X24.082 Z11.715
X23.733 Z11.906
X23.383 Z12.084
X23.026 Z12.253
X22.667 Z12.41
X22.299 Z12.559
X21.824 Z12.732
X21.274 Z12.91
X20.861 Z13.025
X20.472 Z13.122
X20.092 Z13.206
X19.696 Z13.282
X19.178 Z13.363
X18.699 Z13.422
X17.764 Z13.493
X16.678 Z13.518
X15.02 Z13.514
X14.116 Z13.486
X13.286 Z13.419
X12.843 Z13.364
X12.322 Z13.282
X11.845 Z13.19
X11.203 Z13.038
X10.649 Z12.881
X10.066 Z12.688
X9.559 Z12.497
X9.036 Z12.274
X8.505 Z12.021
X7.985 Z11.744
X7.475 Z11.445
X6.979 Z11.123
X6.493 Z10.777
X6.021 Z10.408
X5.57 Z10.022
X5.131 Z9.611
X4.684 Z9.152
X4.287 Z8.705
X3.912 Z8.244
X3.559 Z7.768
X3.227 Z7.277
X2.919 Z6.774
X2.651 Z6.295
X2.395 Z5.786
X2.157 Z5.257
X1.945 Z4.728
X1.755 Z4.187
X1.593 Z3.656
X1.45 Z3.107
X1.337 Z2.583
X1.242 Z2.039
X1.171 Z1.506
X1.124 Z1.013
X1.095 Z0.497
X1.09 Z0.265
X1.066 Y12.429 Z0.261
X1.045 Y12.617 Z0.257
X1.027 Y12.804 Z0.254
X1.015 Y12.992 Z0.25
X1.019 Z0.499
X1.048 Z1.01
X1.098 Z1.536
X1.169 Z2.063
X1.261 Z2.587
X1.378 Z3.128
X1.517 Z3.663
X1.683 Z4.206
X1.872 Z4.745
X2.087 Z5.283
X2.326 Z5.811
X2.588 Z6.333
X2.875 Z6.844
X3.185 Z7.347
X3.519 Z7.838
X3.878 Z8.319
X4.258 Z8.782
X4.656 Z9.227
X5.075 Z9.655
X5.513 Z10.065
X5.965 Z10.451
X6.437 Z10.821
X6.923 Z11.167
X7.408 Z11.482
X7.888 Z11.765
X8.402 Z12.04
X8.927 Z12.292
X9.456 Z12.52
X10.036 Z12.739
X10.573 Z12.916
X11.123 Z13.072
X11.642 Z13.195
X11.972 Z13.264
X12.318 Z13.326
X12.663 Z13.379
X13.082 Z13.433
X13.805 Z13.492
X14.517 Z13.515
X17.284 Z13.519
X18.032 Z13.502
X18.702 Z13.454
X19.083 Z13.415
X19.462 Z13.364
X19.823 Z13.304
X20.198 Z13.233
X20.566 Z13.152
X20.931 Z13.061
X21.292 Z12.961
X21.631 Z12.856
X21.913 Z12.762
X22.408 Z12.58
X22.954 Z12.353
X23.401 Z12.146
X23.929 Z11.875
X24.381 Z11.618
X24.81 Z11.353
X25.141 Z11.133
X25.467 Z10.902
X25.784 Z10.663
X26.098 Z10.411
X26.402 Z10.153
X26.696 Z9.888
X26.985 Z9.611
X27.265 Z9.326
X27.537 Z9.032
X27.798 Z8.733
X28.053 Z8.424
X28.299 Z8.107
X28.531 Z7.787
X28.755 Z7.46
X28.968 Z7.129
X29.171 Z6.792
X29.363 Z6.451
X29.542 Z6.11
X29.712 Z5.762
X29.873 Z5.407
X30.02 Z5.059
X30.159 Z4.702
X30.286 Z4.343
X30.401 Z3.99
X30.508 Z3.627
X30.602 Z3.27
X30.683 Z2.925
X30.758 Z2.563
X30.824 Z2.197
X30.877 Z1.845
X30.928 Z1.437
X30.984 Z0.732
X30.999 Z0.25
X31.008 Y13.18
X31.016 Y13.367
X31.019 Y13.555
X31.02 Y13.742
X31.005 Z0.734
X30.949 Z1.437
X30.899 Z1.843
X30.842 Z2.214
X30.78 Z2.562
X30.708 Z2.911
X30.623 Z3.27
X30.526 Z3.637
X30.422 Z3.991
X30.305 Z4.353
X30.177 Z4.712
X30.042 Z5.061
X29.892 Z5.417
X29.734 Z5.765
X29.561 Z6.119
X29.381 Z6.46
X29.189 Z6.801
X28.987 Z7.138
X28.774 Z7.47
X28.549 Z7.798
X28.317 Z8.117
X28.071 Z8.434
X27.816 Z8.744
X27.555 Z9.043
X27.282 Z9.337
X27.002 Z9.622
X26.713 Z9.899
X26.419 Z10.164
X26.115 Z10.422
X25.801 Z10.674
X25.483 Z10.914
X25.158 Z11.144
X24.83 Z11.362
X24.497 Z11.57
X24.154 Z11.771
X23.811 Z11.958
X23.462 Z12.136
X23.104 Z12.304
X22.753 Z12.458
X22.393 Z12.604
X22.039 Z12.735
X21.675 Z12.859
X21.307 Z12.973
X20.945 Z13.073
X20.592 Z13.161
X20.224 Z13.242
X19.865 Z13.311
X19.346 Z13.392
X18.82 Z13.453
X18.132 Z13.503
X17.499 Z13.519
X14.368 Z13.516
X13.738 Z13.495
X13.022 Z13.436
X12.489 Z13.367
X11.969 Z13.277
X11.62 Z13.205
X11.101 Z13.082
X10.56 Z12.929
X10.025 Z12.753
X9.489 Z12.552
X8.957 Z12.326
X8.431 Z12.075
X7.912 Z11.799
X7.401 Z11.499
X6.905 Z11.177
X6.42 Z10.831
X5.952 Z10.466
X5.495 Z10.075
X5.057 Z9.665
X4.638 Z9.237
X4.24 Z8.793
X3.861 Z8.329
X3.501 Z7.848
X3.167 Z7.357
X2.857 Z6.855
X2.567 Z6.338
X2.305 Z5.816
X2.066 Z5.287
X1.851 Z4.749
X1.662 Z4.209
X1.499 Z3.677
X1.357 Z3.129
X1.24 Z2.59
X1.148 Z2.064
X1.074 Z1.51
X1.027 Z1.01
X0.998 Z0.482
X0.994 Z0.25
X0.995 Y13.93 Z0.251
X1.001 Y14.118 Z0.252
X1.008 Y14.305 Z0.253
X1.017 Y14.492
X1.021 Z0.459
X1.052 Z1.017
X1.099 Z1.51
X1.17 Z2.044
X1.265 Z2.589
X1.382 Z3.129
X1.521 Z3.664
X1.686 Z4.206
X1.876 Z4.746
X2.088 Z5.276
X2.326 Z5.804
X2.589 Z6.327
X2.878 Z6.845
X3.189 Z7.347
X3.523 Z7.837
X3.878 Z8.312
X4.257 Z8.776
X4.655 Z9.221
X5.074 Z9.649
X5.512 Z10.059
X5.968 Z10.449
X6.436 Z10.814
X6.922 Z11.161
X7.419 Z11.483
X7.929 Z11.783
X8.442 Z12.055
X8.968 Z12.306
X9.501 Z12.533
X10.043 Z12.736
X10.579 Z12.912
X11.129 Z13.068
X11.645 Z13.191
X11.992 Z13.263
X12.358 Z13.328
X12.729 Z13.384
X13.153 Z13.437
X13.862 Z13.494
X14.525 Z13.514
X17.251 Z13.519
X18.023 Z13.501
X18.73 Z13.45
X19.074 Z13.412
X19.44 Z13.362
X19.821 Z13.3
X20.194 Z13.229
X20.561 Z13.148
X20.926 Z13.057
X21.288 Z12.956
X21.657 Z12.843
X22.021 Z12.719
X22.374 Z12.588
X22.735 Z12.442
X23.093 Z12.285
X23.444 Z12.119
X23.794 Z11.941
X24.138 Z11.754
X24.482 Z11.553
X24.814 Z11.345
X25.142 Z11.127
X25.468 Z10.896
X25.785 Z10.657
X26.095 Z10.409
X26.399 Z10.15
X26.697 Z9.881
X26.986 Z9.604
X27.266 Z9.32
X27.538 Z9.026
X27.8 Z8.726
X28.051 Z8.421
X28.296 Z8.104
X28.529 Z7.785
X28.753 Z7.457
X28.966 Z7.126
X29.168 Z6.79
X29.36 Z6.449
X29.539 Z6.108
X29.709 Z5.761
X29.87 Z5.407
X30.017 Z5.058
X30.156 Z4.7
X30.284 Z4.34
X30.398 Z3.988
X30.505 Z3.625
X30.599 Z3.268
X30.684 Z2.908
X30.756 Z2.56
X30.821 Z2.196
X30.874 Z1.844
X30.925 Z1.436
X30.981 Z0.73
X30.996 Z0.25
X30.983 Y14.68 Z0.253
X30.967 Y14.868 Z0.256
X30.934 Y15.242 Z0.262
X30.92 Z0.72
X30.864 Z1.425
X30.814 Z1.831
X30.757 Z2.203
X30.695 Z2.552
X30.62 Z2.913
X30.538 Z3.259
X30.444 Z3.615
X30.337 Z3.979
X30.222 Z4.331
X30.098 Z4.682
X29.959 Z5.04
X29.812 Z5.388
X29.602 Z5.845
X29.345 Z6.353
X29.068 Z6.842
X28.809 Z7.263
X28.457 Z7.783
X28.168 Z8.174
X27.838 Z8.59
X27.452 Z9.033
X27.121 Z9.385
X26.716 Z9.785
X26.295 Z10.163
X25.928 Z10.47
X25.703 Z10.648
X25.424 Z10.857
X25.104 Z11.084
X24.775 Z11.303
X24.437 Z11.514
X24.099 Z11.712
X23.756 Z11.899
X23.406 Z12.077
X23.049 Z12.246
X22.697 Z12.4
X22.337 Z12.545
X21.966 Z12.683
X21.6 Z12.807
X21.233 Z12.92
X20.861 Z13.024
X20.484 Z13.118
X20.101 Z13.202
X19.712 Z13.276
X19.315 Z13.341
X18.937 Z13.393
X18.556 Z13.432
X17.789 Z13.487
X16.716 Z13.517
X15.14 Z13.513
X14.205 Z13.486
X13.251 Z13.413
X12.837 Z13.361
X12.456 Z13.302
X12.077 Z13.234
X11.72 Z13.16
X11.191 Z13.034
X10.632 Z12.876
X10.087 Z12.697
X9.545 Z12.493
X9.012 Z12.267
X8.486 Z12.016
X7.967 Z11.741
X7.458 Z11.441
X6.962 Z11.119
X6.477 Z10.773
X6.007 Z10.406
X5.525 Z9.991
X5.09 Z9.582
X4.674 Z9.154
X4.277 Z8.707
X3.902 Z8.245
X3.547 Z7.767
X3.217 Z7.279
X2.908 Z6.776
X2.623 Z6.261
X2.364 Z5.741
X2.141 Z5.246
X1.933 Z4.724
X1.746 Z4.193
X1.581 Z3.651
X1.441 Z3.114
X1.324 Z2.574
X1.232 Z2.046
X1.161 Z1.518
X1.111 Z0.983
X1.083 Z0.472
X1.079 Z0.273
X1.09 Y15.336 Z0.27
X1.113 Y15.524 Z0.264
X1.125 Y15.618 Z0.261
X1.162 Y15.899 Z0.253
X1.176 Y15.992 Z0.25
X1.182 Z0.496
X1.21 Z1.005
X1.258 Z1.501
X1.329 Z2.033
X1.42 Z2.559
X1.537 Z3.098
X1.677 Z3.633
X1.839 Z4.166
X2.026 Z4.696
X2.238 Z5.225
X2.472 Z5.746
X2.732 Z6.262
X3.018 Z6.774
X3.325 Z7.271
X3.656 Z7.756
X4.011 Z8.232
X4.387 Z8.692
X4.781 Z9.132
X5.2 Z9.56
X5.63 Z9.962
X6.049 Z10.321
X6.513 Z10.686
X6.994 Z11.032
X7.521 Z11.376
X8.025 Z11.672
X8.545 Z11.948
X9.076 Z12.201
X9.608 Z12.427
X10.156 Z12.634
X10.71 Z12.815
X11.256 Z12.97
X11.509 Z13.033
X11.99 Z13.143
X12.436 Z13.228
X12.869 Z13.299
X13.424 Z13.37
X13.977 Z13.416
X14.588 Z13.459
X15.48 Z13.484
X16.157 Z13.492
X16.899 Z13.475
X17.49 Z13.456
X18.246 Z13.4
X18.645 Z13.364
X19.165 Z13.296
X19.591 Z13.226
X19.995 Z13.149
X20.39 Z13.062
X20.777 Z12.965
X21.16 Z12.859
X21.538 Z12.742
X21.902 Z12.618
X22.273 Z12.48
X22.633 Z12.334
X22.992 Z12.177
X23.342 Z12.012
X23.698 Z11.83
X24.108 Z11.606
X24.594 Z11.313
X25.001 Z11.045
X25.499 Z10.689
X25.895 Z10.379
X26.276 Z10.058
X26.572 Z9.791
X26.861 Z9.514
X27.137 Z9.234
X27.409 Z8.94
X27.667 Z8.645
X27.918 Z8.34
X28.16 Z8.028
X28.393 Z7.709
X28.613 Z7.387
X28.823 Z7.06
X29.025 Z6.725
X29.214 Z6.389
X29.393 Z6.049
X29.563 Z5.702
X29.722 Z5.353
X29.868 Z5.006
X30.004 Z4.656
X30.132 Z4.296
X30.246 Z3.945
X30.35 Z3.59
X30.444 Z3.234
X30.526 Z2.887
X30.598 Z2.54
X30.663 Z2.174
X30.717 Z1.822
X30.767 Z1.417
X30.823 Z0.712
X30.837 Z0.25
X30.807 Y16.18 Z0.251
X30.775 Y16.368
X30.743 Y16.555
X30.709 Y16.742
X30.694 Z0.706
X30.638 Z1.405
X30.588 Z1.81
X30.535 Z2.163
X30.472 Z2.511
X30.397 Z2.871
X30.316 Z3.216
X30.225 Z3.559
X30.121 Z3.912
X30.007 Z4.265
X29.882 Z4.614
X29.746 Z4.964
X29.6 Z5.311
X29.445 Z5.652
X29.278 Z5.993
X29.099 Z6.333
X28.911 Z6.668
X28.711 Z6.998
X28.502 Z7.324
X28.281 Z7.647
X28.052 Z7.96
X27.815 Z8.267
X27.563 Z8.572
X27.306 Z8.867
X27.037 Z9.157
X26.761 Z9.437
X26.476 Z9.71
X26.182 Z9.975
X25.883 Z10.229
X25.573 Z10.478
X25.261 Z10.713
X24.936 Z10.943
X24.516 Z11.22
X24.057 Z11.498
X23.621 Z11.738
X23.265 Z11.92
X22.907 Z12.089
X22.549 Z12.245
X22.181 Z12.394
X21.809 Z12.532
X21.435 Z12.659
X21.058 Z12.776
X20.675 Z12.882
X20.275 Z12.982
X19.865 Z13.072
X19.445 Z13.152
X19.01 Z13.224
X18.488 Z13.292
X18.053 Z13.332
X17.287 Z13.389
X16.618 Z13.41
X15.968 Z13.422
X14.904 Z13.397
X14.351 Z13.362
X13.644 Z13.305
X13.07 Z13.233
X12.639 Z13.164
X12.247 Z13.091
X11.927 Z13.024
X11.389 Z12.895
X10.811 Z12.732
X10.241 Z12.545
X9.692 Z12.338
X9.153 Z12.11
X8.623 Z11.856
X8.074 Z11.563
X7.575 Z11.267
X7.114 Z10.968
X6.645 Z10.633
X6.178 Z10.268
X5.726 Z9.881
X5.297 Z9.48
X4.882 Z9.055
X4.488 Z8.615
X4.116 Z8.161
X3.764 Z7.69
X3.434 Z7.205
X3.131 Z6.714
X2.849 Z6.209
X2.589 Z5.694
X2.357 Z5.179
X2.146 Z4.649
X1.962 Z4.128
X1.8 Z3.596
X1.661 Z3.06
X1.547 Z2.533
X1.455 Z2.002
X1.387 Z1.494
X1.337 Z0.959
X1.311 Z0.503
X1.305 Z0.27
X1.342 Y16.93 Z0.265
X1.381 Y17.118 Z0.26
X1.421 Y17.305 Z0.255
X1.464 Y17.492 Z0.25
X1.469 Z0.432
X1.498 Z0.977
X1.545 Z1.476
X1.613 Z1.982
X1.705 Z2.512
X1.816 Z3.024
X1.955 Z3.56
X2.114 Z4.082
X2.298 Z4.604
X2.503 Z5.117
X2.735 Z5.632
X2.992 Z6.141
X3.271 Z6.64
X3.571 Z7.126
X3.898 Z7.606
X4.246 Z8.072
X4.614 Z8.522
X5.003 Z8.958
X5.414 Z9.378
X5.844 Z9.779
X6.291 Z10.162
X6.753 Z10.523
X7.232 Z10.865
X7.711 Z11.176
X8.185 Z11.455
X8.724 Z11.744
X9.252 Z11.996
X9.79 Z12.224
X10.345 Z12.433
X10.915 Z12.62
X11.502 Z12.786
X12.063 Z12.92
X12.459 Z13.002
X12.88 Z13.077
X13.316 Z13.144
X13.895 Z13.214
X14.87 Z13.287
X15.625 Z13.309
X16.169 Z13.315
X17.132 Z13.288
X17.963 Z13.226
X18.447 Z13.177
X18.88 Z13.118
X19.313 Z13.047
X19.75 Z12.963
X20.158 Z12.873
X20.559 Z12.773
X20.952 Z12.664
X21.33 Z12.547
X21.714 Z12.417
X22.085 Z12.279
X22.453 Z12.13
X22.819 Z11.97
X23.242 Z11.769
X23.733 Z11.51
X24.166 Z11.26
X24.502 Z11.051
X24.83 Z10.832
X25.15 Z10.605
X25.463 Z10.37
X25.768 Z10.125
X26.068 Z9.871
X26.361 Z9.606
X26.641 Z9.337
X26.913 Z9.061
X27.182 Z8.772
X27.439 Z8.478
X27.683 Z8.182
X27.92 Z7.875
X28.15 Z7.56
X28.367 Z7.244
X28.573 Z6.923
X28.772 Z6.593
X28.957 Z6.263
X29.133 Z5.929
X29.3 Z5.588
X29.455 Z5.248
X29.598 Z4.907
X29.73 Z4.566
X29.855 Z4.217
X29.966 Z3.874
X30.07 Z3.522
X30.161 Z3.177
X30.243 Z2.831
X30.312 Z2.5
X30.369 Z2.182
X30.431 Z1.781
X30.48 Z1.383
X30.533 Z0.711
X30.549 Z0.25
X30.504 Y17.68
X30.457 Y17.868
X30.41 Y18.055
X30.359 Y18.242
X30.344 Z0.702
X30.29 Z1.371
X30.242 Z1.767
X30.182 Z2.152
X30.125 Z2.467
X30.056 Z2.799
X29.978 Z3.131
X29.887 Z3.474
X29.785 Z3.818
X29.674 Z4.16
X29.553 Z4.502
X29.42 Z4.843
X29.277 Z5.183
X29.125 Z5.517
X28.962 Z5.85
X28.789 Z6.179
X28.604 Z6.508
X28.408 Z6.833
X28.202 Z7.153
X27.988 Z7.465
X27.762 Z7.774
X27.528 Z8.076
X27.285 Z8.372
X27.035 Z8.658
X26.771 Z8.943
X26.498 Z9.219
X26.218 Z9.488
X25.933 Z9.745
X25.634 Z9.999
X25.333 Z10.24
X25.02 Z10.476
X24.705 Z10.699
X24.377 Z10.917
X24.044 Z11.125
X23.705 Z11.322
X23.367 Z11.506
X22.921 Z11.73
X22.649 Z11.856
X22.326 Z11.997
X21.966 Z12.142
X21.603 Z12.277
X21.219 Z12.407
X20.832 Z12.527
X20.437 Z12.637
X20.037 Z12.736
X19.628 Z12.826
X19.191 Z12.91
X18.756 Z12.981
X18.278 Z13.046
X17.894 Z13.088
X17.057 Z13.15
X16.153 Z13.176
X15.708 Z13.172
X14.92 Z13.148
X13.99 Z13.076
X13.48 Z13.013
X13.019 Z12.944
X12.58 Z12.865
X12.185 Z12.783
X11.614 Z12.646
X11.027 Z12.481
X10.459 Z12.294
X9.903 Z12.085
X9.361 Z11.854
X8.811 Z11.59
X8.334 Z11.336
X7.849 Z11.051
X7.359 Z10.733
X6.879 Z10.391
X6.423 Z10.034
X5.98 Z9.655
X5.555 Z9.258
X5.148 Z8.841
X4.763 Z8.41
X4.399 Z7.965
X4.058 Z7.509
X3.735 Z7.034
X3.438 Z6.553
X3.162 Z6.06
X2.908 Z5.557
X2.68 Z5.05
X2.475 Z4.535
X2.294 Z4.023
X2.138 Z3.51
X2.001 Z2.984
X1.891 Z2.473
X1.802 Z1.963
X1.734 Z1.455
X1.687 Z0.95
X1.661 Z0.501
X1.654 Z0.25
X1.706 Y18.43 Z0.254
X1.761 Y18.618 Z0.257
X1.817 Y18.805 Z0.261
X1.875 Y18.992 Z0.265
X1.88 Z0.492
X1.907 Z0.947
X1.951 Z1.413
X2.019 Z1.926
X2.108 Z2.439
X2.216 Z2.935
X2.349 Z3.449
X2.502 Z3.953
X2.683 Z4.466
X2.885 Z4.972
X3.11 Z5.473
X3.357 Z5.963
X3.629 Z6.45
X3.922 Z6.924
X4.239 Z7.389
X4.579 Z7.845
X4.935 Z8.28
X5.317 Z8.707
X5.719 Z9.118
X6.136 Z9.508
X6.573 Z9.882
X7.03 Z10.239
X7.498 Z10.574
X7.987 Z10.891
X8.484 Z11.183
X8.981 Z11.447
X9.495 Z11.693
X10.023 Z11.918
X10.584 Z12.128
X11.152 Z12.315
X11.738 Z12.481
X12.31 Z12.617
X12.706 Z12.699
X13.132 Z12.775
X13.592 Z12.845
X14.147 Z12.911
X15.085 Z12.983
X16.019 Z13.006
X16.927 Z12.983
X17.765 Z12.921
X18.218 Z12.871
X18.647 Z12.812
X19.082 Z12.741
X19.501 Z12.661
X19.91 Z12.571
X20.312 Z12.471
X20.707 Z12.361
X21.095 Z12.242
X21.469 Z12.115
X21.832 Z11.98
X22.148 Z11.854
X22.438 Z11.729
X22.887 Z11.52
X23.228 Z11.347
X23.572 Z11.16
X23.91 Z10.963
X24.237 Z10.758
X24.561 Z10.543
X24.87 Z10.324
X25.178 Z10.092
X25.479 Z9.851
X25.774 Z9.601
X26.058 Z9.344
X26.335 Z9.08
X26.603 Z8.807
X26.86 Z8.53
X27.109 Z8.245
X27.353 Z7.95
X27.583 Z7.652
X27.805 Z7.348
X28.015 Z7.042
X28.218 Z6.727
X28.409 Z6.408
X28.591 Z6.086
X28.76 Z5.764
X28.921 Z5.437
X29.073 Z5.105
X29.213 Z4.772
X29.345 Z4.432
X29.463 Z4.099
X29.572 Z3.767
X29.672 Z3.425
X29.763 Z3.082
X29.842 Z2.749
X29.92 Z2.371
X30.005 Z1.869
X30.068 Z1.378
X30.123 Z0.706
X30.139 Z0.25
X30.078 Y19.18 Z0.254
X30.016 Y19.368 Z0.258
X29.953 Y19.555 Z0.263
X29.888 Y19.742 Z0.267
X29.872 Z0.702
X29.822 Z1.329
X29.771 Z1.734
X29.718 Z2.078
X29.66 Z2.393
X29.594 Z2.709
X29.516 Z3.041
X29.428 Z3.371
X29.33 Z3.703
X29.222 Z4.034
X29.107 Z4.357
X28.977 Z4.689
X28.84 Z5.014
X28.692 Z5.34
X28.535 Z5.66
X28.365 Z5.981
X28.187 Z6.298
X27.998 Z6.611
X27.802 Z6.914
X27.592 Z7.221
X27.374 Z7.52
X27.147 Z7.812
X26.911 Z8.099
X26.665 Z8.38
X26.408 Z8.656
X26.145 Z8.924
X25.873 Z9.184
X25.592 Z9.437
X25.306 Z9.68
X25.01 Z9.917
X24.707 Z10.145
X24.397 Z10.365
X24.078 Z10.576
X23.751 Z10.78
X23.418 Z10.974
X23.081 Z11.158
X22.738 Z11.332
X22.386 Z11.498
X21.929 Z11.695
X21.621 Z11.816
X21.305 Z11.932
X20.957 Z12.05
X20.577 Z12.166
X20.183 Z12.276
X19.794 Z12.373
X19.383 Z12.463
X18.963 Z12.543
X18.526 Z12.614
X18.091 Z12.673
X17.68 Z12.717
X16.889 Z12.776
X15.991 Z12.798
X15.091 Z12.775
X14.194 Z12.704
X13.681 Z12.642
X13.238 Z12.575
X12.815 Z12.499
X12.421 Z12.418
X11.862 Z12.284
X11.276 Z12.118
X10.709 Z11.932
X10.161 Z11.726
X9.638 Z11.503
X9.145 Z11.267
X8.635 Z10.996
X8.139 Z10.704
X7.66 Z10.394
X7.196 Z10.063
X6.745 Z9.71
X6.316 Z9.343
X5.904 Z8.957
X5.506 Z8.551
X5.133 Z8.133
X4.78 Z7.702
X4.447 Z7.256
X4.135 Z6.796
X3.848 Z6.333
X3.579 Z5.852
X3.337 Z5.369
X3.115 Z4.876
X2.919 Z4.386
X2.742 Z3.881
X2.592 Z3.389
X2.461 Z2.889
X2.353 Z2.39
X2.267 Z1.898
X2.203 Z1.415
X2.156 Z0.911
X2.129 Z0.432
X2.125 Z0.25
X2.193 Y19.93 Z0.252
X2.263 Y20.118 Z0.253
X2.334 Y20.305 Z0.255
X2.406 Y20.492 Z0.257
X2.412 Z0.471
X2.435 Z0.875
X2.479 Z1.354
X2.544 Z1.844
X2.63 Z2.341
X2.735 Z2.825
X2.862 Z3.314
X3.009 Z3.797
X3.18 Z4.284
X3.376 Z4.774
X3.591 Z5.253
X3.831 Z5.73
X4.093 Z6.198
X4.375 Z6.656
X4.681 Z7.105
X5.007 Z7.542
X5.355 Z7.968
X5.721 Z8.377
X6.111 Z8.775
X6.514 Z9.153
X6.937 Z9.515
X7.379 Z9.861
X7.838 Z10.188
X8.31 Z10.495
X8.8 Z10.783
X9.304 Z11.051
X9.818 Z11.296
X10.323 Z11.511
X10.847 Z11.708
X11.405 Z11.892
X11.987 Z12.057
X12.534 Z12.187
X12.914 Z12.266
X13.335 Z12.342
X13.776 Z12.408
X14.271 Z12.468
X15.17 Z12.538
X16.039 Z12.558
X16.838 Z12.538
X17.621 Z12.48
X18.033 Z12.435
X18.444 Z12.379
X18.861 Z12.311
X19.267 Z12.233
X19.663 Z12.146
X20.065 Z12.046
X20.449 Z11.94
X20.828 Z11.823
X21.175 Z11.705
X21.536 Z11.572
X21.877 Z11.435
X22.229 Z11.281
X22.579 Z11.116
X22.917 Z10.944
X23.248 Z10.764
X23.581 Z10.57
X23.898 Z10.372
X24.211 Z10.165
X24.521 Z9.945
X24.819 Z9.721
X25.111 Z9.488
X25.392 Z9.249
X25.668 Z9.
X25.936 Z8.744
X26.196 Z8.48
X26.444 Z8.213
X26.687 Z7.936
X26.919 Z7.654
X27.142 Z7.367
X27.357 Z7.073
X27.56 Z6.777
X27.756 Z6.473
X27.941 Z6.166
X28.116 Z5.856
X28.282 Z5.54
X28.436 Z5.227
X28.581 Z4.908
X28.715 Z4.59
X28.841 Z4.266
X28.957 Z3.943
X29.062 Z3.62
X29.156 Z3.3
X29.241 Z2.981
X29.32 Z2.649
X29.386 Z2.334
X29.445 Z2.003
X29.496 Z1.671
X29.54 Z1.316
X29.593 Z0.662
X29.606 Z0.266
X29.452 Y20.868 Z0.258
X29.373 Y21.055 Z0.254
X29.293 Y21.242 Z0.25
X29.282 Z0.629
X29.229 Z1.283
X29.185 Z1.64
X29.134 Z1.968
X29.075 Z2.294
X29.009 Z2.609
X28.933 Z2.925
X28.851 Z3.232
X28.759 Z3.542
X28.658 Z3.854
X28.542 Z4.177
X28.419 Z4.491
X28.289 Z4.8
X28.15 Z5.105
X27.996 Z5.418
X27.833 Z5.726
X27.664 Z6.025
X27.482 Z6.326
X27.294 Z6.619
X27.094 Z6.909
X26.883 Z7.198
X26.667 Z7.476
X26.439 Z7.753
X26.205 Z8.02
X25.96 Z8.284
X25.704 Z8.543
X25.441 Z8.795
X25.173 Z9.037
X24.892 Z9.275
X24.609 Z9.501
X24.316 Z9.721
X24.011 Z9.937
X23.708 Z10.138
X23.391 Z10.335
X23.071 Z10.522
X22.745 Z10.7
X22.407 Z10.871
X22.063 Z11.033
X21.712 Z11.187
X21.358 Z11.329
X20.998 Z11.462
X20.664 Z11.575
X20.303 Z11.686
X19.931 Z11.789
X19.541 Z11.886
X19.157 Z11.97
X18.752 Z12.048
X18.351 Z12.113
X17.939 Z12.169
X17.548 Z12.211
X16.81 Z12.266
X16.025 Z12.286
X15.168 Z12.264
X14.335 Z12.199
X13.854 Z12.14
X13.43 Z12.076
X13.022 Z12.003
X12.655 Z11.927
X12.111 Z11.797
X11.541 Z11.636
X11.006 Z11.458
X10.503 Z11.269
X9.984 Z11.048
X9.469 Z10.803
X8.979 Z10.542
X8.496 Z10.257
X8.034 Z9.958
X7.585 Z9.638
X7.149 Z9.296
X6.734 Z8.942
X6.336 Z8.568
X5.959 Z8.183
X5.597 Z7.778
X5.26 Z7.365
X4.941 Z6.939
X4.64 Z6.495
X4.364 Z6.048
X4.109 Z5.591
X3.876 Z5.128
X3.663 Z4.655
X3.477 Z4.188
X3.309 Z3.71
X3.162 Z3.227
X3.038 Z2.748
X2.936 Z2.276
X2.853 Z1.797
X2.791 Z1.33
X2.747 Z0.854
X2.722 Z0.379
X2.72 Z0.277
X2.805 Y21.43 Z0.27
X2.848 Y21.524 Z0.267
X2.978 Y21.805 Z0.257
X3.021 Y21.899 Z0.253
X3.067 Y21.992 Z0.25
X3.069 Z0.415
X3.088 Z0.769
X3.128 Z1.227
X3.187 Z1.692
X3.265 Z2.16
X3.363 Z2.622
X3.482 Z3.092
X3.636 Z3.603
X3.8 Z4.073
X3.984 Z4.532
X4.189 Z4.99
X4.416 Z5.44
X4.664 Z5.885
X4.934 Z6.321
X5.225 Z6.75
X5.536 Z7.167
X5.868 Z7.574
X6.219 Z7.966
X6.587 Z8.343
X6.977 Z8.708
X7.382 Z9.055
X7.805 Z9.385
X8.247 Z9.701
X8.698 Z9.994
X9.169 Z10.271
X9.654 Z10.529
X10.154 Z10.768
X10.667 Z10.986
X11.194 Z11.184
X11.684 Z11.346
X12.246 Z11.507
X12.752 Z11.628
X13.115 Z11.704
X13.501 Z11.774
X13.916 Z11.837
X14.394 Z11.896
X15.187 Z11.959
X15.983 Z11.98
X16.779 Z11.961
X17.5 Z11.907
X17.871 Z11.867
X18.263 Z11.814
X18.645 Z11.751
X19.021 Z11.68
X19.407 Z11.596
X19.774 Z11.506
X20.115 Z11.411
X20.485 Z11.297
X20.842 Z11.177
X21.197 Z11.045
X21.542 Z10.906
X21.88 Z10.759
X22.218 Z10.6
X22.549 Z10.432
X22.869 Z10.258
X23.189 Z10.071
X23.495 Z9.881
X23.793 Z9.683
X24.088 Z9.475
X24.377 Z9.259
X24.655 Z9.037
X24.927 Z8.806
X25.191 Z8.568
X25.45 Z8.321
X25.698 Z8.07
X25.934 Z7.815
X26.165 Z7.552
X26.385 Z7.285
X26.601 Z7.007
X26.805 Z6.729
X26.997 Z6.449
X27.183 Z6.161
X27.358 Z5.872
X27.526 Z5.574
X27.686 Z5.272
X27.836 Z4.966
X27.985 Z4.64
X28.159 Z4.218
X28.289 Z3.867
X28.45 Z3.379
X28.592 Z2.87
X28.713 Z2.348
X28.809 Z1.828
X28.88 Z1.3
X28.934 Z0.648
X28.946 Z0.25
X28.853 Y22.18
X28.759 Y22.368
X28.665 Y22.556
X28.566 Y22.742
X28.558 Z0.59
X28.508 Z1.21
X28.464 Z1.562
X28.416 Z1.87
X28.36 Z2.179
X28.296 Z2.477
X28.227 Z2.767
X28.148 Z3.063
X28.059 Z3.36
X27.96 Z3.662
X27.851 Z3.965
X27.737 Z4.255
X27.613 Z4.549
X27.477 Z4.845
X27.336 Z5.131
X27.183 Z5.42
X26.939 Z5.845
X26.653 Z6.292
X26.478 Z6.546
X26.288 Z6.804
X26.083 Z7.067
X25.866 Z7.331
X25.643 Z7.584
X25.411 Z7.834
X25.167 Z8.081
X24.92 Z8.316
X24.661 Z8.549
X24.398 Z8.773
X24.124 Z8.991
X23.845 Z9.2
X23.56 Z9.402
X23.268 Z9.595
X22.967 Z9.782
X22.657 Z9.962
X22.343 Z10.133
X22.018 Z10.297
X21.695 Z10.45
X21.356 Z10.597
X21.017 Z10.733
X20.67 Z10.861
X20.321 Z10.979
X19.96 Z11.09
X19.608 Z11.187
X19.242 Z11.277
X18.856 Z11.361
X18.5 Z11.428
X18.097 Z11.492
X17.714 Z11.542
X17.367 Z11.577
X16.748 Z11.623
X15.993 Z11.641
X15.214 Z11.62
X14.445 Z11.559
X13.976 Z11.5
X13.588 Z11.441
X13.193 Z11.368
X12.879 Z11.301
X12.412 Z11.189
X11.881 Z11.039
X11.353 Z10.865
X10.835 Z10.67
X10.338 Z10.458
X9.852 Z10.226
X9.38 Z9.975
X8.92 Z9.704
X8.475 Z9.415
X8.047 Z9.11
X7.634 Z8.786
X7.238 Z8.447
X6.862 Z8.095
X6.501 Z7.726
X6.163 Z7.348
X5.838 Z6.949
X5.536 Z6.544
X5.231 Z6.092
X4.973 Z5.669
X4.753 Z5.274
X4.536 Z4.842
X4.337 Z4.4
X4.157 Z3.949
X4.002 Z3.506
X3.864 Z3.053
X3.746 Z2.598
X3.65 Z2.154
X3.57 Z1.692
X3.511 Z1.243
X3.473 Z0.834
X3.449 Z0.431
X3.447 Z0.281
X3.497 Y22.836 Z0.277
X3.548 Y22.93 Z0.273
X3.701 Y23.212 Z0.262
X3.753 Y23.306 Z0.258
X3.86 Y23.492 Z0.25
X3.864 Z0.434
X3.884 Z0.787
X3.922 Z1.199
X3.981 Z1.645
X4.055 Z2.073
X4.148 Z2.504
X4.263 Z2.947
X4.395 Z3.379
X4.547 Z3.813
X4.72 Z4.248
X4.913 Z4.677
X5.127 Z5.102
X5.359 Z5.518
X5.614 Z5.932
X5.887 Z6.333
X6.179 Z6.725
X6.482 Z7.097
X6.784 Z7.436
X7.159 Z7.823
X7.525 Z8.166
X7.907 Z8.493
X8.31 Z8.809
X8.723 Z9.103
X9.157 Z9.385
X9.599 Z9.646
X10.058 Z9.89
X10.537 Z10.119
X11.018 Z10.324
X11.52 Z10.513
X12.029 Z10.68
X12.537 Z10.824
X12.939 Z10.921
X13.274 Z10.995
X13.651 Z11.065
X14.079 Z11.132
X14.529 Z11.188
X15.256 Z11.246
X16.033 Z11.267
X16.687 Z11.25
X17.348 Z11.201
X17.649 Z11.169
X18.006 Z11.122
X18.379 Z11.063
X18.742 Z10.994
X19.103 Z10.916
X19.459 Z10.829
X19.811 Z10.732
X20.153 Z10.627
X20.503 Z10.51
X20.841 Z10.385
X21.164 Z10.255
X21.488 Z10.114
X21.806 Z9.965
X22.118 Z9.807
X22.426 Z9.64
X22.724 Z9.467
X23.014 Z9.287
X23.301 Z9.097
X23.582 Z8.899
X23.856 Z8.693
X24.12 Z8.483
X24.375 Z8.267
X24.63 Z8.038
X24.885 Z7.794
X25.208 Z7.462
X25.527 Z7.103
X25.737 Z6.85
X25.942 Z6.587
X26.135 Z6.324
X26.316 Z6.06
X26.491 Z5.79
X26.659 Z5.512
X26.815 Z5.238
X26.961 Z4.961
X27.102 Z4.676
X27.231 Z4.394
X27.355 Z4.101
X27.481 Z3.778
X27.627 Z3.357
X27.728 Z3.027
X27.813 Z2.717
X27.886 Z2.418
X27.952 Z2.11
X28.006 Z1.817
X28.053 Z1.512
X28.097 Z1.157
X28.144 Z0.57
X28.153 Z0.25
X28.044 Y23.68
X27.934 Y23.869
X27.821 Y24.056
X27.705 Y24.241
X27.691 Z0.639
X27.647 Z1.153
X27.609 Z1.453
X27.536 Z1.906
X27.446 Z2.331
X27.377 Z2.62
X27.23 Z3.132
X27.127 Z3.439
X27.006 Z3.773
X26.821 Z4.218
X26.695 Z4.493
X26.495 Z4.894
X26.296 Z5.251
X26.111 Z5.56
X25.908 Z5.872
X25.739 Z6.115
X25.534 Z6.391
X25.359 Z6.615
X25.159 Z6.853
X24.952 Z7.089
X24.742 Z7.313
X24.515 Z7.543
X24.284 Z7.762
X24.042 Z7.979
X23.794 Z8.189
X23.401 Z8.497
X23.052 Z8.745
X22.759 Z8.939
X22.47 Z9.119
X22.177 Z9.289
X21.881 Z9.449
X21.581 Z9.6
X21.269 Z9.746
X20.96 Z9.881
X20.636 Z10.01
X20.313 Z10.129
X19.982 Z10.241
X19.64 Z10.345
X19.308 Z10.436
X18.949 Z10.523
X18.6 Z10.598
X18.228 Z10.666
X17.847 Z10.725
X17.413 Z10.779
X16.659 Z10.837
X15.984 Z10.853
X15.283 Z10.834
X14.595 Z10.778
X14.172 Z10.726
X13.777 Z10.665
X13.427 Z10.6
X13.126 Z10.536
X12.681 Z10.429
X12.183 Z10.288
X11.693 Z10.127
X11.209 Z9.944
X10.742 Z9.745
X10.284 Z9.526
X9.838 Z9.289
X9.407 Z9.035
X8.99 Z8.764
X8.59 Z8.478
X8.203 Z8.174
X7.853 Z7.874
X7.498 Z7.541
X7.151 Z7.186
X6.837 Z6.834
X6.55 Z6.482
X6.247 Z6.076
X5.979 Z5.679
X5.765 Z5.331
X5.527 Z4.907
X5.295 Z4.442
X5.144 Z4.103
X4.977 Z3.689
X4.807 Z3.201
X4.696 Z2.832
X4.594 Z2.442
X4.486 Z1.941
X4.423 Z1.568
X4.374 Z1.207
X4.327 Z0.693
X4.309 Z0.303
X4.308 Z0.25
X4.406 Y24.465
X3.689 Y24.843
X3.559 Y24.913
X3.438 Y24.991
X3.449 Z0.639
X3.505 Z1.308
X3.6 Z1.975
X3.733 Z2.637
X3.906 Z3.297
X4.116 Z3.942
X4.364 Z4.576
X4.648 Z5.195
X4.968 Z5.796
X5.322 Z6.377
X5.708 Z6.935
X6.128 Z7.472
X6.578 Z7.984
X7.055 Z8.467
X7.563 Z8.923
X8.094 Z9.349
X8.649 Z9.741
X9.226 Z10.102
X9.823 Z10.429
X10.441 Z10.721
X11.07 Z10.975
X11.718 Z11.194
X12.375 Z11.374
X13.041 Z11.515
X13.712 Z11.617
X14.395 Z11.681
X14.989 Z11.701
X16.819 Z11.706
X17.527 Z11.687
X18.184 Z11.631
X18.854 Z11.536
X19.515 Z11.403
X20.175 Z11.23
X20.821 Z11.02
X21.454 Z10.773
X22.074 Z10.488
X22.674 Z10.168
X23.256 Z9.814
X23.814 Z9.428
X24.352 Z9.008
X24.863 Z8.557
X25.346 Z8.08
X25.801 Z7.574
X26.227 Z7.042
X26.621 Z6.486
X26.982 Z5.908
X27.309 Z5.31
X27.6 Z4.695
X27.854 Z4.066
X28.072 Z3.418
X28.252 Z2.761
X28.394 Z2.095
X28.496 Z1.421
X28.558 Z0.753
X28.577 Z0.251
X28.76 Y25.146
X28.913 Y25.322
X29.037 Y25.521
X29.13 Y25.741
X29.112 Z0.745
X29.048 Z1.426
X28.946 Z2.099
X28.804 Z2.764
X28.624 Z3.421
X28.407 Z4.064
X28.152 Z4.697
X27.861 Z5.312
X27.534 Z5.91
X27.173 Z6.487
X26.78 Z7.042
X26.355 Z7.573
X25.9 Z8.079
X25.415 Z8.559
X24.903 Z9.009
X24.368 Z9.427
X23.807 Z9.815
X23.225 Z10.169
X22.624 Z10.489
X22.005 Z10.773
X21.371 Z11.021
X20.724 Z11.231
X20.07 Z11.403
X19.398 Z11.538
X18.739 Z11.631
X18.082 Z11.687
X17.374 Z11.706
X14.439 Z11.702
X13.832 Z11.68
X13.166 Z11.618
X12.491 Z11.516
X11.819 Z11.373
X11.163 Z11.193
X10.52 Z10.976
X9.887 Z10.721
X9.272 Z10.429
X8.674 Z10.103
X8.097 Z9.742
X7.541 Z9.348
X7.009 Z8.922
X6.503 Z8.467
X6.026 Z7.985
X5.575 Z7.473
X5.156 Z6.936
X4.768 Z6.375
X4.415 Z5.796
X4.096 Z5.196
X3.811 Z4.577
X3.563 Z3.943
X3.352 Z3.293
X3.18 Z2.639
X3.046 Z1.967
X2.951 Z1.295
X2.896 Z0.65
X2.885 Z0.25
X2.836 Y25.926
X2.812 Y26.113
Y26.301
X2.835 Y26.491
X2.846 Z0.628
X2.902 Z1.304
X2.997 Z1.973
X3.13 Z2.635
X3.303 Z3.296
X3.513 Z3.942
X3.761 Z4.575
X4.045 Z5.194
X4.365 Z5.795
X4.719 Z6.377
X5.105 Z6.935
X5.525 Z7.472
X5.975 Z7.984
X6.453 Z8.467
X6.96 Z8.924
X7.492 Z9.349
X8.046 Z9.742
X8.623 Z10.102
X9.221 Z10.429
X9.836 Z10.72
X10.468 Z10.975
X11.116 Z11.194
X11.772 Z11.374
X12.437 Z11.515
X13.115 Z11.618
X13.791 Z11.681
X14.424 Z11.703
X17.422 Z11.706
X18.129 Z11.687
X18.787 Z11.631
X19.457 Z11.536
X20.118 Z11.403
X20.778 Z11.23
X21.424 Z11.02
X22.057 Z10.772
X22.677 Z10.488
X23.277 Z10.168
X23.856 Z9.815
X24.417 Z9.427
X24.955 Z9.007
X25.464 Z8.559
X25.949 Z8.079
X26.404 Z7.574
X26.83 Z7.042
X27.222 Z6.488
X27.585 Z5.908
X27.91 Z5.313
X28.201 Z4.698
X28.456 Z4.065
X28.675 Z3.417
X28.855 Z2.76
X28.996 Z2.094
X29.099 Z1.419
X29.161 Z0.75
X29.18 Z0.25
X29.128 Y26.69
X29.05 Y26.877
X28.959 Y27.059
X28.867 Y27.241
X28.851 Z0.689
X28.803 Z1.267
X28.725 Z1.837
X28.63 Z2.347
X28.573 Z2.607
X28.476 Z2.993
X28.4 Z3.263
X28.292 Z3.61
X28.193 Z3.898
X28.076 Z4.209
X27.949 Z4.519
X27.818 Z4.818
X27.664 Z5.138
X27.526 Z5.409
X27.348 Z5.732
X27.198 Z5.988
X26.948 Z6.386
X26.576 Z6.916
X26.17 Z7.431
X25.892 Z7.748
X25.654 Z8.01
X25.187 Z8.475
X24.66 Z8.942
X24.099 Z9.384
X23.512 Z9.792
X22.894 Z10.169
X22.293 Z10.488
X21.673 Z10.773
X21.04 Z11.021
X20.394 Z11.231
X19.734 Z11.404
X19.073 Z11.537
X18.403 Z11.631
X17.729 Z11.687
X17.072 Z11.706
X14.796 Z11.702
X14.169 Z11.68
X13.49 Z11.617
X12.817 Z11.514
X12.153 Z11.373
X11.497 Z11.193
X10.852 Z10.976
X10.22 Z10.721
X9.604 Z10.429
X9.007 Z10.103
X8.417 Z9.735
X7.864 Z9.345
X7.318 Z8.911
X6.805 Z8.453
X6.311 Z7.957
X5.868 Z7.458
X5.52 Z7.023
X5.343 Z6.783
X5.03 Z6.33
X4.7 Z5.792
X4.47 Z5.374
X4.3 Z5.037
X4.068 Z4.529
X3.851 Z3.982
X3.721 Z3.606
X3.596 Z3.203
X3.45 Z2.647
X3.342 Z2.14
X3.281 Z1.777
X3.216 Z1.303
X3.169 Z0.786
X3.151 Z0.435
X3.146 Z0.25
X3.24 Y27.428 Z0.255
X3.286 Y27.521 Z0.258
X3.47 Y27.897 Z0.269
X3.516 Y27.991 Z0.272
X3.518 Z0.41
X3.542 Z0.824
X3.58 Z1.233
X3.639 Z1.681
X3.716 Z2.127
X3.812 Z2.572
X3.927 Z3.017
X4.065 Z3.471
X4.221 Z3.915
X4.398 Z4.358
X4.597 Z4.802
X4.814 Z5.233
X5.056 Z5.666
X5.314 Z6.084
X5.594 Z6.497
X5.894 Z6.899
X6.215 Z7.292
X6.554 Z7.671
X6.91 Z8.036
X7.283 Z8.385
X7.674 Z8.72
X8.082 Z9.04
X8.509 Z9.345
X8.95 Z9.631
X9.404 Z9.898
X9.875 Z10.149
X10.355 Z10.378
X10.851 Z10.589
X11.376 Z10.787
X11.905 Z10.961
X12.379 Z11.096
X12.732 Z11.184
X13.091 Z11.264
X13.689 Z11.377
X14.287 Z11.46
X14.607 Z11.494
X15.254 Z11.545
X16.046 Z11.564
X16.784 Z11.544
X17.427 Z11.493
X17.722 Z11.461
X18.299 Z11.381
X18.908 Z11.268
X19.205 Z11.202
X19.717 Z11.074
X20.376 Z10.877
X21.072 Z10.626
X21.74 Z10.341
X22.375 Z10.027
X22.963 Z9.692
X23.23 Z9.526
X23.522 Z9.333
X23.808 Z9.132
X24.087 Z8.922
X24.355 Z8.708
X24.618 Z8.485
X24.873 Z8.256
X25.12 Z8.021
X25.359 Z7.778
X25.592 Z7.528
X25.815 Z7.274
X26.028 Z7.016
X26.233 Z6.753
X26.429 Z6.484
X26.622 Z6.205
X26.824 Z5.89
X27.16 Z5.308
X27.45 Z4.733
X27.706 Z4.141
X27.922 Z3.553
X28.103 Z2.959
X28.251 Z2.357
X28.361 Z1.771
X28.441 Z1.174
X28.485 Z0.63
X28.498 Z0.25
X28.322 Y28.365
X28.234 Y28.553
X28.148 Y28.741
X28.136 Z0.608
X28.095 Z1.131
X28.018 Z1.708
X27.908 Z2.288
X27.769 Z2.856
X27.594 Z3.43
X27.381 Z4.009
X27.138 Z4.572
X26.855 Z5.134
X26.533 Z5.692
X26.334 Z6.001
X26.148 Z6.271
X25.955 Z6.534
X25.758 Z6.787
X25.548 Z7.04
X25.333 Z7.285
X25.112 Z7.522
X24.881 Z7.756
X24.634 Z7.992
X24.388 Z8.213
X24.133 Z8.428
X23.874 Z8.635
X23.605 Z8.836
X23.33 Z9.031
X23.042 Z9.221
X22.792 Z9.376
X22.222 Z9.7
X21.606 Z10.005
X20.958 Z10.281
X20.295 Z10.52
X19.607 Z10.725
X18.901 Z10.894
X18.166 Z11.028
X17.431 Z11.122
X16.693 Z11.177
X16.038 Z11.193
X15.258 Z11.174
X14.517 Z11.115
X13.777 Z11.017
X13.038 Z10.878
X12.494 Z10.748
X11.975 Z10.601
X11.466 Z10.434
X10.965 Z10.245
X10.484 Z10.04
X10.019 Z9.817
X9.565 Z9.576
X9.123 Z9.316
X8.695 Z9.037
X8.287 Z8.746
X7.894 Z8.438
X7.511 Z8.111
X7.143 Z7.765
X6.799 Z7.414
X6.473 Z7.048
X6.163 Z6.668
X5.873 Z6.281
X5.601 Z5.879
X5.35 Z5.471
X5.121 Z5.062
X4.908 Z4.637
X4.718 Z4.215
X4.547 Z3.787
X4.395 Z3.353
X4.263 Z2.919
X4.151 Z2.486
X4.059 Z2.056
X3.985 Z1.63
X3.929 Z1.209
X3.89 Z0.802
X3.867 Z0.371
X3.865 Z0.25
X3.949 Y28.928
X4.034 Y29.115
X4.198 Y29.491
X4.202 Z0.41
X4.222 Z0.757
X4.26 Z1.168
X4.313 Z1.566
X4.387 Z1.997
X4.477 Z2.412
X4.582 Z2.819
X4.711 Z3.243
X4.857 Z3.66
X5.024 Z4.079
X5.207 Z4.488
X5.414 Z4.9
X5.636 Z5.297
X5.881 Z5.694
X6.143 Z6.081
X6.421 Z6.454
X6.721 Z6.821
X7.038 Z7.177
X7.371 Z7.517
X7.722 Z7.846
X8.086 Z8.158
X8.466 Z8.455
X8.863 Z8.739
X9.275 Z9.007
X9.712 Z9.265
X10.157 Z9.501
X10.609 Z9.717
X11.075 Z9.916
X11.559 Z10.099
X12.048 Z10.26
X12.555 Z10.403
X13.096 Z10.533
X13.803 Z10.666
X14.53 Z10.763
X15.242 Z10.82
X15.981 Z10.84
X16.688 Z10.824
X17.425 Z10.769
X18.136 Z10.678
X18.846 Z10.549
X19.533 Z10.385
X20.201 Z10.185
X20.849 Z9.952
X21.477 Z9.685
X22.073 Z9.39
X22.637 Z9.069
X22.882 Z8.918
X23.153 Z8.738
X23.419 Z8.551
X23.678 Z8.357
X23.932 Z8.155
X24.178 Z7.947
X24.416 Z7.734
X24.645 Z7.515
X24.869 Z7.289
X25.086 Z7.057
X25.297 Z6.817
X25.496 Z6.577
X25.689 Z6.329
X25.875 Z6.076
X26.057 Z5.812
X26.249 Z5.513
X26.561 Z4.973
X26.835 Z4.43
X27.071 Z3.884
X27.275 Z3.33
X27.447 Z2.766
X27.583 Z2.212
X27.685 Z1.675
X27.759 Z1.127
X27.804 Z0.583
X27.815 Z0.25
X27.733 Y29.678
X27.654 Y29.865
X27.496 Y30.241
X27.487 Z0.542
X27.446 Z1.062
X27.372 Z1.612
X27.271 Z2.148
X27.141 Z2.679
X26.975 Z3.223
X26.778 Z3.759
X26.547 Z4.292
X26.284 Z4.814
X25.978 Z5.343
X25.79 Z5.636
X25.611 Z5.894
X25.433 Z6.137
X25.247 Z6.375
X25.052 Z6.61
X24.849 Z6.841
X24.639 Z7.065
X24.42 Z7.286
X24.198 Z7.497
X23.965 Z7.705
X23.728 Z7.905
X23.483 Z8.1
X23.232 Z8.287
X22.977 Z8.466
X22.71 Z8.642
X22.476 Z8.787
X21.953 Z9.085
X21.371 Z9.373
X20.76 Z9.633
X20.12 Z9.863
X19.468 Z10.058
X18.792 Z10.219
X18.095 Z10.346
X17.389 Z10.435
X16.699 Z10.487
X16.028 Z10.504
X15.262 Z10.484
X14.552 Z10.428
X13.843 Z10.334
X13.146 Z10.203
X12.623 Z10.078
X12.127 Z9.937
X11.648 Z9.779
X11.163 Z9.596
X10.712 Z9.404
X10.268 Z9.191
X9.846 Z8.967
X9.431 Z8.723
X9.035 Z8.465
X8.648 Z8.188
X8.278 Z7.898
X7.927 Z7.597
X7.585 Z7.276
X7.262 Z6.945
X6.96 Z6.607
X6.668 Z6.249
X6.398 Z5.886
X6.143 Z5.511
X5.908 Z5.13
X5.694 Z4.745
X5.493 Z4.346
X5.316 Z3.952
X5.156 Z3.549
X5.013 Z3.14
X4.89 Z2.737
X4.785 Z2.328
X4.698 Z1.925
X4.63 Z1.533
X4.577 Z1.136
X4.539 Z0.72
X4.521 Z0.413
X4.517 Z0.25
X4.593 Y30.428
X4.745 Y30.803
X4.819 Y30.991
X4.822 Z0.391
X4.84 Z0.698
X4.875 Z1.082
X4.928 Z1.484
X4.993 Z1.858
X5.076 Z2.248
X5.179 Z2.647
X5.299 Z3.042
X5.435 Z3.432
X5.59 Z3.821
X5.764 Z4.208
X5.957 Z4.594
X6.166 Z4.968
X6.393 Z5.337
X6.638 Z5.697
X6.905 Z6.056
X7.184 Z6.398
X7.482 Z6.732
X7.793 Z7.051
X8.123 Z7.36
X8.465 Z7.653
X8.825 Z7.936
X9.193 Z8.198
X9.578 Z8.449
X9.979 Z8.686
X10.394 Z8.907
X10.818 Z9.11
X11.255 Z9.296
X11.705 Z9.466
X12.176 Z9.621
X12.67 Z9.762
X13.194 Z9.887
X13.876 Z10.015
X14.572 Z10.108
X15.285 Z10.164
X15.994 Z10.183
X16.675 Z10.167
X17.374 Z10.115
X18.067 Z10.027
X18.745 Z9.903
X19.425 Z9.741
X20.057 Z9.552
X20.669 Z9.332
X21.254 Z9.084
X21.818 Z8.805
X22.329 Z8.514
X22.547 Z8.38
X22.798 Z8.215
X23.049 Z8.039
X23.295 Z7.856
X23.536 Z7.665
X23.764 Z7.473
X23.989 Z7.272
X24.211 Z7.061
X24.422 Z6.849
X24.623 Z6.634
X24.819 Z6.412
X25.006 Z6.187
X25.189 Z5.953
X25.364 Z5.715
X25.539 Z5.462
X25.724 Z5.175
X26.019 Z4.665
X26.273 Z4.161
X26.497 Z3.644
X26.688 Z3.125
X26.848 Z2.602
X26.978 Z2.074
X27.077 Z1.55
X27.145 Z1.04
X27.186 Z0.528
X27.194 Z0.25
X27.049 Y31.365
X26.977 Y31.553
X26.907 Y31.741 Z0.251
X26.898 Z0.521
X26.86 Z0.999
X26.792 Z1.508
X26.697 Z2.015
X26.572 Z2.52
X26.416 Z3.032
X26.231 Z3.535
X26.013 Z4.036
X25.767 Z4.526
X25.482 Z5.018
X25.3 Z5.3
X25.132 Z5.543
X24.956 Z5.781
X24.777 Z6.009
X24.597 Z6.225
X24.405 Z6.442
X24.212 Z6.648
X24.009 Z6.851
X23.795 Z7.053
X23.579 Z7.246
X23.355 Z7.434
X23.114 Z7.624
X22.878 Z7.8
X22.636 Z7.969
X22.384 Z8.134
X22.182 Z8.258
X21.696 Z8.535
X21.152 Z8.804
X20.579 Z9.048
X19.985 Z9.261
X19.363 Z9.446
X18.724 Z9.598
X18.055 Z9.72
X17.352 Z9.81
X16.676 Z9.86
X16.04 Z9.877
X15.306 Z9.859
X14.592 Z9.802
X13.886 Z9.709
X13.213 Z9.582
X12.715 Z9.463
X12.24 Z9.328
X11.789 Z9.179
X11.347 Z9.012
X10.919 Z8.829
X10.508 Z8.632
X10.106 Z8.418
X9.721 Z8.191
X9.346 Z7.947
X8.985 Z7.689
X8.634 Z7.413
X8.302 Z7.128
X7.985 Z6.831
X7.683 Z6.521
X7.396 Z6.2
X7.124 Z5.866
X6.871 Z5.527
X6.631 Z5.172
X6.41 Z4.814
X6.209 Z4.453
X6.022 Z4.079
X5.855 Z3.708
X5.703 Z3.327
X5.57 Z2.944
X5.456 Z2.57
X5.357 Z2.184
X5.276 Z1.808
X5.21 Z1.43
X5.16 Z1.052
X5.128 Z0.707
X5.108 Z0.337
X5.106 Z0.25
X5.176 Y31.928
X5.245 Y32.115
X5.38 Y32.491
Z0.29
X5.399 Z0.646
X5.433 Z1.031
X5.481 Z1.386
X5.543 Z1.747
X5.624 Z2.123
X5.717 Z2.486
X5.83 Z2.86
X5.958 Z3.225
X6.103 Z3.589
X6.266 Z3.954
X6.446 Z4.315
X6.644 Z4.67
X6.858 Z5.017
X7.092 Z5.362
X7.337 Z5.691
X7.598 Z6.011
X7.876 Z6.324
X8.171 Z6.626
X8.479 Z6.915
X8.798 Z7.189
X9.135 Z7.453
X9.481 Z7.701
X9.84 Z7.935
X10.224 Z8.162
X10.619 Z8.372
X11.017 Z8.563
X11.431 Z8.74
X11.858 Z8.901
X12.301 Z9.047
X12.764 Z9.179
X13.253 Z9.296
X13.911 Z9.42
X14.595 Z9.511
X15.286 Z9.566
X15.986 Z9.585
X16.674 Z9.568
X17.363 Z9.517
X18.032 Z9.431
X18.685 Z9.313
X19.311 Z9.163
X19.914 Z8.984
X20.491 Z8.777
X21.047 Z8.541
X21.577 Z8.279
X22.064 Z8.002
X22.259 Z7.882
X22.506 Z7.72
X22.751 Z7.548
X23.011 Z7.354
X23.328 Z7.096
X23.577 Z6.878
X23.792 Z6.676
X23.996 Z6.473
X24.194 Z6.263
X24.383 Z6.051
X24.562 Z5.837
X24.735 Z5.618
X24.906 Z5.386
X25.074 Z5.144
X25.249 Z4.873
X25.527 Z4.391
X25.767 Z3.915
X25.979 Z3.427
X26.157 Z2.942
X26.308 Z2.449
X26.429 Z1.957
X26.521 Z1.468
X26.587 Z0.982
X26.624 Z0.514
X26.633 Z0.263
X26.566 Y32.678 Z0.26
X26.501 Y32.865 Z0.256
X26.373 Y33.241 Z0.25
X26.364 Z0.503
X26.329 Z0.945
X26.264 Z1.427
X26.172 Z1.912
X26.057 Z2.378
X25.909 Z2.86
X25.734 Z3.335
X25.533 Z3.8
X25.299 Z4.264
X25.027 Z4.733
X24.853 Z5.004
X24.688 Z5.241
X24.516 Z5.473
X24.325 Z5.713
X24.069 Z6.011
X23.848 Z6.248
X23.641 Z6.456
X23.435 Z6.65
X23.219 Z6.843
X22.994 Z7.03
X22.736 Z7.231
X22.408 Z7.466
X22.141 Z7.642
X21.934 Z7.77
X21.477 Z8.029
X20.966 Z8.282
X20.411 Z8.518
X19.851 Z8.719
X19.264 Z8.893
X18.652 Z9.039
X18.014 Z9.155
X17.348 Z9.24
X16.674 Z9.291
X15.991 Z9.308
X15.292 Z9.289
X14.602 Z9.234
X13.932 Z9.144
X13.291 Z9.024
X12.806 Z8.908
X12.363 Z8.782
X11.93 Z8.639
X11.514 Z8.482
X11.094 Z8.302
X10.704 Z8.115
X10.333 Z7.918
X9.972 Z7.704
X9.619 Z7.474
X9.282 Z7.233
X8.955 Z6.977
X8.645 Z6.71
X8.346 Z6.429
X8.064 Z6.14
X7.793 Z5.836
X7.536 Z5.52
X7.299 Z5.201
X7.076 Z4.872
X6.866 Z4.531
X6.678 Z4.193
X6.501 Z3.84
X6.343 Z3.488
X6.201 Z3.131
X6.077 Z2.776
X5.967 Z2.411
X5.874 Z2.047
X5.799 Z1.699
X5.737 Z1.337
X5.69 Z0.973
X5.66 Z0.655
X5.641 Z0.316
X5.64 Z0.25
X5.704 Y33.428
X5.888 Y33.991
Z0.272
X5.906 Z0.619
X5.938 Z0.968
X5.982 Z1.303
X6.041 Z1.648
X6.116 Z1.997
X6.204 Z2.338
X6.311 Z2.692
X6.432 Z3.04
X6.571 Z3.389
X6.722 Z3.726
X6.892 Z4.067
X7.08 Z4.405
X7.28 Z4.73
X7.496 Z5.049
X7.73 Z5.364
X7.976 Z5.666
X8.239 Z5.961
X8.513 Z6.242
X8.804 Z6.516
X9.109 Z6.778
X9.422 Z7.024
X9.753 Z7.261
X10.09 Z7.48
X10.44 Z7.687
X10.804 Z7.881
X11.182 Z8.062
X11.572 Z8.229
X11.975 Z8.381
X12.406 Z8.524
X12.846 Z8.649
X13.316 Z8.762
X13.956 Z8.883
X14.627 Z8.972
X15.348 Z9.027
X16.052 Z9.043
X16.67 Z9.027
X17.338 Z8.977
X17.985 Z8.894
X18.616 Z8.78
X19.217 Z8.637
X19.795 Z8.465
X20.354 Z8.264
X20.88 Z8.041
X21.357 Z7.805
X21.539 Z7.705
X21.924 Z7.481
X22.2 Z7.302
X22.441 Z7.135
X22.678 Z6.959
X22.923 Z6.764
X23.224 Z6.504
X23.448 Z6.295
X23.652 Z6.091
X23.853 Z5.877
X24.083 Z5.614
X24.309 Z5.333
X24.484 Z5.097
X24.646 Z4.865
X24.817 Z4.601
X25.082 Z4.143
X25.308 Z3.693
X25.504 Z3.243
X25.676 Z2.776
X25.817 Z2.314
X25.932 Z1.848
X26.019 Z1.39
X26.081 Z0.929
X26.116 Z0.494
X26.125 Z0.25
X26.066 Y34.178
X25.948 Y34.553
X25.89 Y34.74
X25.881 Z0.482
X25.846 Z0.908
X25.788 Z1.343
X25.701 Z1.803
X25.592 Z2.245
X25.454 Z2.697
X25.288 Z3.147
X25.093 Z3.597
X24.872 Z4.034
X24.618 Z4.473
X24.449 Z4.733
X24.285 Z4.969
X24.094 Z5.224
X23.863 Z5.507
X23.671 Z5.724
X23.477 Z5.93
X23.269 Z6.137
X23.001 Z6.385
X22.746 Z6.601
X22.519 Z6.78
X22.282 Z6.955
X21.98 Z7.162
X21.713 Z7.327
X21.273 Z7.577
X20.788 Z7.817
X20.285 Z8.03
X19.756 Z8.22
X19.184 Z8.39
X18.59 Z8.531
X17.975 Z8.643
X17.332 Z8.725
X16.655 Z8.776
X15.951 Z8.791
X15.282 Z8.772
X14.622 Z8.719
X13.973 Z8.633
X13.348 Z8.515
X12.885 Z8.404
X12.434 Z8.275
X12.029 Z8.141
X11.636 Z7.993
X11.259 Z7.832
X10.897 Z7.658
X10.544 Z7.47
X10.206 Z7.269
X9.874 Z7.053
X9.557 Z6.826
X9.25 Z6.585
X8.958 Z6.334
X8.676 Z6.069
X8.406 Z5.792
X8.151 Z5.505
X7.913 Z5.213
X7.686 Z4.908
X7.477 Z4.599
X7.281 Z4.28
X7.1 Z3.953
X6.935 Z3.625
X6.785 Z3.288
X6.652 Z2.954
X6.534 Z2.616
X6.43 Z2.272
X6.343 Z1.93
X6.271 Z1.595
X6.215 Z1.267
X6.17 Z0.93
X6.141 Z0.609
X6.124 Z0.276
X6.319 Y35.396 Z0.253
X6.346 Y35.49 Z0.25
X6.362 Z0.573
X6.391 Z0.898
X6.435 Z1.237
X6.492 Z1.562
X6.56 Z1.883
X6.645 Z2.211
X6.746 Z2.545
X6.861 Z2.875
X6.99 Z3.2
X7.134 Z3.523
X7.292 Z3.838
X7.469 Z4.157
X7.659 Z4.466
X7.864 Z4.769
X8.087 Z5.069
X8.317 Z5.353
X8.568 Z5.635
X8.826 Z5.9
X9.099 Z6.156
X9.386 Z6.403
X9.685 Z6.638
X9.991 Z6.857
X10.312 Z7.067
X10.644 Z7.263
X10.985 Z7.445
X11.334 Z7.613
X11.701 Z7.77
X12.086 Z7.916
X12.481 Z8.046
X12.891 Z8.163
X13.368 Z8.278
X13.984 Z8.394
X14.634 Z8.48
X15.297 Z8.533
X15.964 Z8.552
X16.659 Z8.536
X17.317 Z8.487
X17.955 Z8.406
X18.569 Z8.294
X19.164 Z8.153
X19.703 Z7.993
X20.217 Z7.808
X20.714 Z7.598
X21.177 Z7.369
X21.582 Z7.139
X21.758 Z7.032
X21.999 Z6.874
X22.284 Z6.673
X22.562 Z6.457
X22.782 Z6.274
X23.003 Z6.077
X23.261 Z5.829
X23.484 Z5.594
X23.673 Z5.382
X23.883 Z5.128
X24.096 Z4.846
X24.265 Z4.605
X24.432 Z4.346
X24.68 Z3.918
X24.894 Z3.494
X25.08 Z3.066
X25.243 Z2.625
X25.375 Z2.193
X25.481 Z1.762
X25.567 Z1.313
X25.626 Z0.872
X25.657 Z0.5
X25.667 Z0.25
X25.507 Y36.053
X25.455 Y36.24
X25.446 Z0.477
X25.413 Z0.87
X25.357 Z1.285
X25.269 Z1.738
X25.172 Z2.131
X25.04 Z2.562
X24.883 Z2.986
X24.701 Z3.406
X24.493 Z3.817
X24.252 Z4.233
X24.088 Z4.487
X23.919 Z4.727
X23.694 Z5.022
X23.506 Z5.247
X23.314 Z5.463
X23.057 Z5.729
X22.839 Z5.936
X22.623 Z6.128
X22.354 Z6.348
X22.085 Z6.55
X21.849 Z6.715
X21.556 Z6.904
X21.087 Z7.17
X20.636 Z7.393
X20.163 Z7.594
X19.656 Z7.776
X19.13 Z7.932
X18.572 Z8.065
X17.953 Z8.177
X17.317 Z8.258
X16.661 Z8.307
X16.06 Z8.323
X15.433 Z8.311
X15.059 Z8.287
X14.614 Z8.25
X13.994 Z8.167
X13.37 Z8.049
X12.925 Z7.942
X12.516 Z7.825
X12.139 Z7.701
X11.764 Z7.559
X11.409 Z7.407
X11.066 Z7.242
X10.732 Z7.063
X10.411 Z6.873
X10.102 Z6.671
X9.801 Z6.455
X9.513 Z6.229
X9.235 Z5.989
X8.969 Z5.74
X8.716 Z5.479
X8.476 Z5.209
X8.249 Z4.931
X8.034 Z4.64
X7.835 Z4.347
X7.65 Z4.045
X7.482 Z3.743
X7.325 Z3.428
X7.183 Z3.113
X7.057 Z2.794
X6.946 Z2.474
X6.848 Z2.149
X6.766 Z1.831
X6.697 Z1.509
X6.641 Z1.179
X6.6 Z0.86
X6.574 Z0.571
X6.558 Z0.275
X6.711 Y36.802 Z0.274
X6.76 Y36.99 Z0.273
X6.775 Z0.56
X6.802 Z0.85
X6.843 Z1.165
X6.896 Z1.476
X6.962 Z1.783
X7.04 Z2.088
X7.135 Z2.404
X7.244 Z2.717
X7.367 Z3.028
X7.505 Z3.337
X7.656 Z3.639
X7.823 Z3.941
X8.002 Z4.233
X8.197 Z4.521
X8.405 Z4.801
X8.625 Z5.071
X8.856 Z5.331
X9.101 Z5.584
X9.362 Z5.829
X9.635 Z6.065
X9.919 Z6.288
X10.21 Z6.497
X10.509 Z6.692
X10.824 Z6.878
X11.145 Z7.05
X11.481 Z7.211
X11.828 Z7.36
X12.179 Z7.493
X12.556 Z7.618
X12.944 Z7.729
X13.388 Z7.836
X13.999 Z7.95
X14.623 Z8.033
X15.193 Z8.08
X15.664 Z8.099
X16.109 Z8.106
X16.658 Z8.091
X17.313 Z8.042
X17.947 Z7.961
X18.554 Z7.851
X19.098 Z7.722
X19.61 Z7.57
X20.1 Z7.394
X20.566 Z7.197
X21.003 Z6.981
X21.401 Z6.755
X21.647 Z6.603
X21.932 Z6.407
X22.169 Z6.232
X22.437 Z6.018
X22.69 Z5.796
X22.895 Z5.602
X23.13 Z5.363
X23.347 Z5.122
X23.534 Z4.897
X23.752 Z4.612
X23.921 Z4.372
X24.078 Z4.129
X24.316 Z3.719
X24.52 Z3.314
X24.697 Z2.909
X24.85 Z2.493
X24.979 Z2.073
X25.079 Z1.667
X25.159 Z1.245
X25.216 Z0.826
X25.245 Z0.463
X25.254 Z0.25
X25.157 Y37.365
X25.108 Y37.552
X25.062 Y37.74
X25.051 Z0.478
X25.025 Z0.805
X24.969 Z1.221
X24.887 Z1.645
X24.794 Z2.022
X24.668 Z2.433
X24.52 Z2.832
X24.344 Z3.237
X24.147 Z3.628
X23.916 Z4.026
X23.758 Z4.269
X23.575 Z4.529
X23.374 Z4.788
X23.19 Z5.008
X22.96 Z5.261
X22.75 Z5.473
X22.539 Z5.671
X22.265 Z5.908
X22.034 Z6.09
X21.78 Z6.276
X21.491 Z6.47
X21.3 Z6.587
X20.925 Z6.8
X20.494 Z7.012
X20.043 Z7.204
X19.568 Z7.374
X19.068 Z7.522
X18.535 Z7.649
X17.959 Z7.753
X17.322 Z7.834
X16.673 Z7.883
X16.072 Z7.9
X15.39 Z7.885
X14.832 Z7.846
X14.464 Z7.807
X13.978 Z7.74
X13.401 Z7.632
X12.969 Z7.528
X12.592 Z7.42
X12.225 Z7.298
X11.882 Z7.168
X11.544 Z7.023
X11.221 Z6.868
X10.906 Z6.699
X10.603 Z6.52
X10.309 Z6.327
X10.028 Z6.126
X9.749 Z5.906
X9.484 Z5.678
X9.236 Z5.445
X8.995 Z5.197
X8.768 Z4.941
X8.553 Z4.676
X8.352 Z4.405
X8.164 Z4.128
X7.985 Z3.837
X7.824 Z3.546
X7.677 Z3.25
X7.542 Z2.947
X7.422 Z2.645
X7.317 Z2.342
X7.225 Z2.037
X7.147 Z1.729
X7.084 Z1.436
X7.031 Z1.123
X6.993 Z0.831
X6.966 Z0.537
X6.952 Z0.265
X7.044 Y38.115 Z0.257
X7.09 Y38.302 Z0.254
X7.134 Y38.49 Z0.25
X7.149 Z0.525
X7.175 Z0.815
X7.21 Z1.086
X7.263 Z1.399
X7.326 Z1.694
X7.402 Z1.988
X7.49 Z2.282
X7.595 Z2.585
X7.712 Z2.88
X7.84 Z3.167
X7.984 Z3.456
X8.142 Z3.741
X8.314 Z4.021
X8.498 Z4.294
X8.695 Z4.56
X8.907 Z4.821
X9.126 Z5.068
X9.359 Z5.307
X9.603 Z5.537
X9.859 Z5.757
X10.128 Z5.97
X10.404 Z6.168
X10.693 Z6.356
X10.985 Z6.529
X11.294 Z6.695
X11.604 Z6.844
X11.935 Z6.986
X12.27 Z7.113
X12.627 Z7.232
X12.994 Z7.337
X13.413 Z7.438
X13.997 Z7.548
X14.648 Z7.633
X15.322 Z7.686
X16.017 Z7.703
X16.671 Z7.687
X17.325 Z7.638
X17.956 Z7.557
X18.521 Z7.455
X19.042 Z7.331
X19.532 Z7.186
X19.992 Z7.021
X20.428 Z6.836
X20.833 Z6.636
X21.003 Z6.542
X21.324 Z6.355
X21.576 Z6.191
X21.848 Z5.999
X22.109 Z5.796
X22.341 Z5.6
X22.593 Z5.369
X22.796 Z5.165
X23.024 Z4.918
X23.22 Z4.686
X23.417 Z4.433
X23.604 Z4.169
X23.761 Z3.927
X23.986 Z3.54
X24.18 Z3.156
X24.35 Z2.765
X24.494 Z2.375
X24.617 Z1.976
X24.706 Z1.613
X24.788 Z1.193
X24.838 Z0.823
X24.866 Z0.508
X24.879 Z0.267
X24.79 Y38.865 Z0.259
X24.747 Y39.052 Z0.254
X24.705 Y39.24 Z0.25
X24.693 Z0.479
X24.667 Z0.784
X24.616 Z1.163
X24.543 Z1.546
X24.449 Z1.928
X24.329 Z2.319
X24.188 Z2.7
X24.021 Z3.083
X23.834 Z3.454
X23.613 Z3.834
X23.455 Z4.076
X23.265 Z4.344
X23.082 Z4.578
X22.875 Z4.822
X22.658 Z5.056
X22.441 Z5.271
X22.195 Z5.494
X21.975 Z5.677
X21.691 Z5.895
X21.455 Z6.059
X21.178 Z6.237
X20.773 Z6.467
X20.362 Z6.67
X19.94 Z6.848
X19.493 Z7.009
X19.017 Z7.149
X18.509 Z7.27
X17.951 Z7.371
X17.333 Z7.45
X16.688 Z7.499
X16.049 Z7.516
X15.36 Z7.5
X14.735 Z7.455
X14.3 Z7.402
X13.93 Z7.349
X13.423 Z7.252
X13.021 Z7.155
X12.655 Z7.051
X12.315 Z6.938
X11.981 Z6.811
X11.665 Z6.675
X11.356 Z6.526
X11.061 Z6.368
X10.775 Z6.198
X10.497 Z6.016
X10.225 Z5.821
X9.965 Z5.616
X9.718 Z5.403
X9.479 Z5.178
X9.25 Z4.943
X9.035 Z4.7
X8.831 Z4.449
X8.638 Z4.189
X8.457 Z3.921
X8.292 Z3.652
X8.138 Z3.373
X7.997 Z3.091
X7.869 Z2.802
X7.756 Z2.515
X7.656 Z2.229
X7.568 Z1.934
X7.496 Z1.652
X7.433 Z1.358
X7.383 Z1.059
X7.348 Z0.789
X7.321 Z0.491
X7.309 Z0.253
X7.393 Y39.615 Z0.252
X7.435 Y39.802
X7.475 Y39.99
X7.489 Z0.497
X7.512 Z0.757
X7.547 Z1.031
X7.597 Z1.329
X7.657 Z1.609
X7.729 Z1.892
X7.815 Z2.177
X7.914 Z2.462
X8.024 Z2.741
X8.149 Z3.022
X8.284 Z3.291
X8.434 Z3.563
X8.596 Z3.827
X8.772 Z4.089
X8.962 Z4.345
X9.162 Z4.591
X9.37 Z4.825
X9.59 Z5.053
X9.825 Z5.274
X10.067 Z5.483
X10.323 Z5.684
X10.584 Z5.872
X10.857 Z6.05
X11.137 Z6.217
X11.421 Z6.369
X11.723 Z6.514
X12.033 Z6.647
X12.352 Z6.769
X12.683 Z6.878
X13.037 Z6.98
X13.439 Z7.077
X13.982 Z7.18
X14.555 Z7.257
X14.975 Z7.295
X15.415 Z7.324
X16.067 Z7.337
X16.692 Z7.32
X17.341 Z7.271
X17.95 Z7.193
X18.494 Z7.095
X18.995 Z6.976
X19.455 Z6.84
X19.89 Z6.684
X20.304 Z6.509
X20.702 Z6.313
X21.071 Z6.103
X21.35 Z5.926
X21.587 Z5.762
X21.859 Z5.555
X22.083 Z5.368
X22.32 Z5.155
X22.536 Z4.94
X22.745 Z4.716
X22.95 Z4.475
X23.125 Z4.251
X23.316 Z3.983
X23.474 Z3.741
X23.688 Z3.372
X23.872 Z3.007
X24.032 Z2.64
X24.17 Z2.268
X24.287 Z1.888
X24.381 Z1.509
X24.453 Z1.131
X24.503 Z0.758
X24.532 Z0.4
X24.538 Z0.25
X24.417 Y40.552
X24.379 Y40.74
X24.373 Z0.395
X24.343 Z0.75
X24.293 Z1.117
X24.224 Z1.477
X24.134 Z1.843
X24.02 Z2.213
X23.886 Z2.578
X23.729 Z2.938
X23.547 Z3.296
X23.337 Z3.659
X23.183 Z3.896
X22.988 Z4.168
X22.816 Z4.386
X22.599 Z4.638
X22.406 Z4.844
X22.175 Z5.07
X21.959 Z5.263
X21.714 Z5.465
X21.47 Z5.648
X21.206 Z5.829
X20.977 Z5.971
X20.632 Z6.166
X20.246 Z6.356
X19.848 Z6.525
X19.422 Z6.677
X18.973 Z6.811
X18.483 Z6.927
X17.958 Z7.021
X17.352 Z7.099
X16.712 Z7.148
X16.092 Z7.166
X15.441 Z7.154
X15.005 Z7.127
X14.569 Z7.089
X13.993 Z7.011
X13.449 Z6.909
X13.061 Z6.815
X12.716 Z6.717
X12.387 Z6.607
X12.077 Z6.489
X11.775 Z6.359
X11.486 Z6.219
X11.208 Z6.071
X10.932 Z5.907
X10.671 Z5.736
X10.415 Z5.552
X10.164 Z5.354
X9.926 Z5.149
X9.7 Z4.935
X9.484 Z4.712
X9.276 Z4.478
X9.084 Z4.241
X8.901 Z3.995
X8.728 Z3.738
X8.57 Z3.48
X8.423 Z3.213
X8.292 Z2.95
X8.17 Z2.676
X8.06 Z2.397
X7.967 Z2.129
X7.881 Z1.843
X7.812 Z1.573
X7.752 Z1.29
X7.705 Z1.011
X7.67 Z0.736
X7.646 Z0.471
X7.635 Z0.267
X7.75 Y41.302 Z0.262
X7.787 Y41.49 Z0.261
X7.798 Z0.446
X7.821 Z0.713
X7.856 Z0.991
X7.903 Z1.271
X7.96 Z1.537
X8.026 Z1.797
X8.109 Z2.073
X8.202 Z2.342
X8.309 Z2.614
X8.428 Z2.881
X8.559 Z3.144
X8.703 Z3.404
X8.858 Z3.657
X9.024 Z3.904
X9.203 Z4.145
X9.391 Z4.377
X9.592 Z4.603
X9.804 Z4.822
X10.026 Z5.032
X10.259 Z5.233
X10.5 Z5.424
X10.75 Z5.603
X11.006 Z5.771
X11.274 Z5.93
X11.546 Z6.076
X11.828 Z6.212
X12.122 Z6.339
X12.423 Z6.453
X12.743 Z6.56
X13.077 Z6.656
X13.458 Z6.748
X13.986 Z6.848
X14.514 Z6.92
X14.932 Z6.959
X15.411 Z6.99
X16.081 Z7.003
X16.703 Z6.986
X17.351 Z6.937
X17.945 Z6.861
X18.473 Z6.766
X18.944 Z6.654
X19.392 Z6.522
X19.801 Z6.375
X20.192 Z6.21
X20.564 Z6.027
X20.886 Z5.844
X21.073 Z5.731
X21.341 Z5.55
X21.573 Z5.379
X21.83 Z5.171
X22.042 Z4.983
X22.271 Z4.763
X22.469 Z4.554
X22.682 Z4.308
X22.858 Z4.085
X23.053 Z3.814
X23.207 Z3.578
X23.411 Z3.227
X23.589 Z2.876
X23.743 Z2.523
X23.874 Z2.168
X23.985 Z1.808
X24.07 Z1.466
X24.14 Z1.107
X24.185 Z0.786
X24.206 Z0.577
X24.226 Z0.25
X24.116 Y42.052
X24.08 Y42.24
X24.071 Z0.423
X24.045 Z0.729
X24.001 Z1.056
X23.932 Z1.416
X23.845 Z1.768
X23.737 Z2.118
X23.609 Z2.465
X23.458 Z2.81
X23.284 Z3.155
X23.083 Z3.5
X22.929 Z3.736
X22.741 Z3.997
X22.561 Z4.224
X22.355 Z4.461
X22.148 Z4.678
X21.928 Z4.889
X21.698 Z5.091
X21.461 Z5.28
X21.212 Z5.462
X20.962 Z5.626
X20.784 Z5.733
X20.503 Z5.891
X20.137 Z6.071
X19.753 Z6.234
X19.352 Z6.377
X18.924 Z6.503
X18.466 Z6.611
X17.939 Z6.706
X17.363 Z6.78
X16.713 Z6.829
X16.093 Z6.846
X15.614 Z6.839
X15.134 Z6.818
X14.592 Z6.773
X14.013 Z6.697
X13.466 Z6.594
X13.096 Z6.504
X12.772 Z6.411
X12.461 Z6.308
X12.161 Z6.193
X11.881 Z6.073
X11.605 Z5.94
X11.334 Z5.794
X11.077 Z5.641
X10.826 Z5.477
X10.586 Z5.304
X10.349 Z5.117
X10.121 Z4.92
X9.907 Z4.718
X9.698 Z4.503
X9.503 Z4.282
X9.314 Z4.049
X9.139 Z3.812
X8.977 Z3.571
X8.825 Z3.323
X8.685 Z3.069
X8.557 Z2.812
X8.442 Z2.552
X8.338 Z2.288
X8.248 Z2.029
X8.169 Z1.764
X8.1 Z1.491
X8.043 Z1.22
X7.999 Z0.956
X7.966 Z0.701
X7.943 Z0.434
X7.933 Z0.258
X8.038 Y42.802 Z0.252
X8.073 Y42.99 Z0.25
X8.084 Z0.447
X8.105 Z0.68
X8.137 Z0.936
X8.182 Z1.202
X8.235 Z1.456
X8.302 Z1.718
X8.381 Z1.985
X8.471 Z2.244
X8.572 Z2.499
X8.684 Z2.752
X8.809 Z3.003
X8.946 Z3.251
X9.093 Z3.493
X9.256 Z3.735
X9.427 Z3.966
X9.608 Z4.189
X9.8 Z4.406
X10.001 Z4.613
X10.214 Z4.814
X10.434 Z5.004
X10.665 Z5.187
X10.901 Z5.356
X11.145 Z5.517
X11.397 Z5.666
X11.662 Z5.809
X11.93 Z5.939
X12.203 Z6.056
X12.496 Z6.168
X12.797 Z6.268
X13.11 Z6.358
X13.479 Z6.447
X14.008 Z6.547
X14.548 Z6.62
X14.985 Z6.658
X15.444 Z6.685
X16.102 Z6.696
X16.729 Z6.679
X17.372 Z6.63
X17.938 Z6.558
X18.454 Z6.465
X18.904 Z6.358
X19.326 Z6.234
X19.718 Z6.093
X20.087 Z5.938
X20.445 Z5.761
X20.842 Z5.534
X21.09 Z5.373
X21.351 Z5.186
X21.575 Z5.01
X21.816 Z4.801
X22.025 Z4.603
X22.237 Z4.382
X22.436 Z4.156
X22.624 Z3.919
X22.808 Z3.664
X22.963 Z3.428
X23.16 Z3.089
X23.331 Z2.751
X23.479 Z2.412
X23.604 Z2.074
X23.711 Z1.726
X23.795 Z1.388
X23.86 Z1.046
X23.909 Z0.689
X23.94 Z0.267
X23.805 Y43.74 Z0.27
X23.781 Z0.623
X23.729 Z1.019
X23.663 Z1.364
X23.58 Z1.695
X23.476 Z2.034
X23.353 Z2.364
X23.209 Z2.695
X23.041 Z3.026
X22.851 Z3.353
X22.69 Z3.599
X22.512 Z3.844
X22.328 Z4.075
X22.132 Z4.296
X21.916 Z4.52
X21.711 Z4.714
X21.472 Z4.919
X21.239 Z5.102
X20.994 Z5.274
X20.745 Z5.435
X20.388 Z5.637
X20.035 Z5.811
X19.673 Z5.964
X19.299 Z6.098
X18.884 Z6.22
X18.445 Z6.324
X17.938 Z6.415
X17.371 Z6.487
X16.739 Z6.535
X16.131 Z6.552
X15.648 Z6.547
X15.143 Z6.527
X14.576 Z6.48
X14.009 Z6.405
X13.482 Z6.305
X13.125 Z6.218
X12.813 Z6.128
X12.529 Z6.033
X12.244 Z5.925
X11.972 Z5.807
X11.712 Z5.681
X11.459 Z5.545
X11.213 Z5.399
X10.972 Z5.241
X10.742 Z5.075
X10.515 Z4.896
X10.3 Z4.71
X10.095 Z4.516
X9.895 Z4.31
X9.707 Z4.097
X9.53 Z3.879
X9.362 Z3.652
X9.207 Z3.42
X9.06 Z3.179
X8.929 Z2.943
X8.805 Z2.693
X8.693 Z2.44
X8.595 Z2.192
X8.508 Z1.941
X8.432 Z1.685
X8.369 Z1.437
X8.312 Z1.166
X8.271 Z0.92
X8.238 Z0.664
X8.218 Z0.432
X8.207 Z0.25
X8.24 Y43.927
X8.336 Y44.49
X8.345 Z0.402
X8.368 Z0.67
X8.398 Z0.898
X8.439 Z1.145
X8.492 Z1.4
X8.555 Z1.648
X8.629 Z1.894
X8.715 Z2.145
X8.813 Z2.393
X8.918 Z2.631
X9.039 Z2.875
X9.17 Z3.112
X9.313 Z3.347
X9.465 Z3.574
X9.63 Z3.796
X9.803 Z4.01
X9.987 Z4.219
X10.182 Z4.421
X10.383 Z4.61
X10.594 Z4.793
X10.816 Z4.968
X11.041 Z5.13
X11.275 Z5.284
X11.516 Z5.427
X11.762 Z5.56
X12.018 Z5.684
X12.282 Z5.798
X12.551 Z5.901
X12.842 Z5.998
X13.143 Z6.085
X13.5 Z6.172
X14.002 Z6.267
X14.567 Z6.342
X15.115 Z6.387
X15.605 Z6.408
X16.129 Z6.414
X16.748 Z6.397
X17.392 Z6.348
X17.937 Z6.279
X18.424 Z6.191
X18.87 Z6.086
X19.263 Z5.97
X19.637 Z5.836
X19.991 Z5.687
X20.33 Z5.52
X20.646 Z5.341
X20.889 Z5.188
X21.129 Z5.021
X21.37 Z4.835
X21.597 Z4.643
X21.812 Z4.441
X22.036 Z4.21
X22.228 Z3.993
X22.412 Z3.762
X22.586 Z3.523
X22.74 Z3.287
X22.931 Z2.96
X23.092 Z2.641
X23.233 Z2.318
X23.355 Z1.988
X23.456 Z1.659
X23.538 Z1.331
X23.6 Z1.005
X23.645 Z0.683
X23.665 Z0.447
X23.677 Z0.25
X23.645 Y44.677
X23.553 Y45.239
X23.539 Z0.477
X23.521 Z0.673
X23.48 Z0.976
X23.417 Z1.303
X23.336 Z1.631
X23.237 Z1.95
X23.118 Z2.271
X22.981 Z2.586
X22.822 Z2.899
X22.636 Z3.22
X22.478 Z3.46
X22.307 Z3.694
X22.122 Z3.925
X21.938 Z4.133
X21.721 Z4.356
X21.506 Z4.557
X21.278 Z4.748
X21.027 Z4.94
X20.781 Z5.11
X20.572 Z5.239
X20.279 Z5.404
X19.947 Z5.568
X19.601 Z5.714
X19.235 Z5.845
X18.846 Z5.96
X18.407 Z6.063
X17.936 Z6.147
X17.387 Z6.216
X16.782 Z6.263
X16.15 Z6.282
X15.677 Z6.277
X15.119 Z6.255
X14.555 Z6.209
X14. Z6.135
X13.513 Z6.043
X13.161 Z5.957
X12.86 Z5.87
X12.586 Z5.779
X12.325 Z5.679
X12.061 Z5.565
X11.814 Z5.445
X11.573 Z5.315
X11.334 Z5.173
X11.105 Z5.022
X10.884 Z4.863
X10.671 Z4.695
X10.465 Z4.516
X10.265 Z4.327
X10.077 Z4.133
X9.897 Z3.929
X9.727 Z3.719
X9.564 Z3.498
X9.416 Z3.278
X9.276 Z3.048
X9.149 Z2.817
X9.031 Z2.579
X8.925 Z2.34
X8.831 Z2.101
X8.747 Z1.858
X8.674 Z1.613
X8.611 Z1.363
X8.561 Z1.122
X8.519 Z0.873
X8.49 Z0.643
X8.47 Z0.41
X8.46 Z0.25
X8.491 Y45.427
X8.521 Y45.614
X8.58 Y45.989
X8.589 Z0.404
X8.609 Z0.633
X8.638 Z0.864
X8.676 Z1.092
X8.727 Z1.335
X8.787 Z1.574
X8.86 Z1.82
X8.941 Z2.054
X9.035 Z2.295
X9.141 Z2.533
X9.252 Z2.757
X9.379 Z2.988
X9.517 Z3.213
X9.662 Z3.429
X9.818 Z3.641
X9.988 Z3.851
X10.164 Z4.05
X10.347 Z4.24
X10.543 Z4.425
X10.745 Z4.6
X10.953 Z4.764
X11.168 Z4.919
X11.392 Z5.067
X11.626 Z5.206
X11.866 Z5.336
X12.108 Z5.453
X12.357 Z5.561
X12.617 Z5.66
X12.881 Z5.748
X13.193 Z5.839
X13.524 Z5.919
X13.998 Z6.009
X14.542 Z6.081
X15.106 Z6.128
X15.657 Z6.149
X16.14 Z6.154
X16.777 Z6.136
X17.407 Z6.088
X17.941 Z6.021
X18.405 Z5.937
X18.819 Z5.84
X19.212 Z5.724
X19.56 Z5.6
X19.9 Z5.456
X20.225 Z5.296
X20.494 Z5.144
X20.664 Z5.041
X20.921 Z4.868
X21.152 Z4.696
X21.377 Z4.509
X21.608 Z4.298
X21.811 Z4.094
X22.004 Z3.879
X22.197 Z3.641
X22.371 Z3.404
X22.533 Z3.159
X22.717 Z2.843
X22.871 Z2.538
X23.006 Z2.229
X23.125 Z1.909
X23.22 Z1.601
X23.3 Z1.281
X23.361 Z0.964
X23.405 Z0.64
X23.434 Z0.25
X23.405 Y46.177 Z0.254
X23.375 Y46.364 Z0.258
X23.319 Y46.739 Z0.267
X23.288 Z0.649
X23.243 Z0.968
X23.178 Z1.298
X23.111 Z1.564
X23.016 Z1.873
X22.9 Z2.185
X22.769 Z2.486
X22.614 Z2.791
X22.437 Z3.095
X22.279 Z3.335
X22.108 Z3.568
X21.915 Z3.805
X21.726 Z4.016
X21.523 Z4.22
X21.301 Z4.422
X21.08 Z4.605
X20.844 Z4.781
X20.597 Z4.947
X20.432 Z5.046
X20.175 Z5.191
X19.856 Z5.348
X19.524 Z5.488
X19.175 Z5.612
X18.802 Z5.722
X18.394 Z5.818
X17.948 Z5.898
X17.425 Z5.964
X16.803 Z6.012
X16.175 Z6.031
X15.686 Z6.027
X15.173 Z6.01
X14.554 Z5.961
X13.996 Z5.887
X13.531 Z5.799
