(Resterende heste)
(Machine)
(  vendor: Autodesk)
(  model: Generic 3-axis)
(  description: This machine has XYZ axis on the Head)
(T2  D=3. CR=0. - ZMIN=0. - flat end mill)
G90

(2D Contour3)
T2 M6 (flat end mill D=3.)
S15000 M3
G64
G54
G43 H2
G0 Z30.
G0 X35.923 Y40.025
Z30.992
Z20.992
G1 Z16.992 F133.3
Z0.55
X35.916 Z0.483 F400
X35.894 Y40.028 Z0.42
X35.858 Y40.032 Z0.363
X35.811 Y40.038 Z0.315
X35.754 Y40.044 Z0.28
X35.691 Y40.052 Z0.258
X35.625 Y40.06 Z0.25
X35.327 Y40.095
G3 X35.106 Y40.032 I-0.035 J-0.298
X34.994 Y39.832 I0.186 J-0.235
G1 X34.93 Y39.282
X34.926 Y39.257
X34.777 Y38.123
X34.774 Y38.102
X34.456 Y35.877
X34.306 Y34.761
X34.238 Y34.202
X34.175 Y33.634
X34.118 Y33.058
X34.067 Y32.473
X34.022 Y31.877
X33.985 Y31.272
X33.954 Y30.656
X33.931 Y30.036
X33.903 Y28.757
X33.899 Y27.46
X33.91 Y26.156
X33.926 Y24.866
Y24.858
X33.931 Y24.23
Y24.216
Y23.603
Y23.581
X33.923 Y22.987
Y22.955
X33.906 Y22.384
X33.904 Y22.343
X33.875 Y21.796
X33.871 Y21.742
X33.828 Y21.224
X33.821 Y21.158
X33.762 Y20.669
X33.75 Y20.588
X33.674 Y20.13
X33.655 Y20.035
X33.56 Y19.61
X33.532 Y19.5
X33.418 Y19.108
X33.378 Y18.988
X33.246 Y18.628
X33.194 Y18.502
X33.043 Y18.172
X32.98 Y18.048
X32.813 Y17.747
X32.743 Y17.631
X32.562 Y17.355
X32.489 Y17.252
X32.296 Y16.998
X32.226 Y16.913
X32.023 Y16.678
X31.962 Y16.61
X31.751 Y16.39
X31.7 Y16.338
X31.62 Y16.262
G2 X31.253 Y15.438 I-1.775 J0.296
G1 X31.266 Y15.403
X31.327 Y15.265
X31.404 Y15.109
X31.491 Y14.948
X31.722 Y14.561
X31.985 Y14.162
X32.273 Y13.746
X32.57 Y13.323
X32.584 Y13.303
X32.871 Y12.883
X32.904 Y12.833
X33.171 Y12.413
X33.218 Y12.336
X33.459 Y11.911
X33.513 Y11.809
X33.723 Y11.377
X33.775 Y11.259
X33.951 Y10.821
X33.986 Y10.726
X34.06 Y10.507
X34.081 Y10.44
X34.145 Y10.223
X34.164 Y10.154
X34.218 Y9.941
X34.234 Y9.867
X34.277 Y9.659
X34.292 Y9.582
X34.324 Y9.382
X34.336 Y9.299
X34.357 Y9.108
X34.366 Y9.014
X34.377 Y8.834
X34.38 Y8.733
X34.381 Y8.566
X34.378 Y8.454
X34.369 Y8.299
X34.358 Y8.173
X34.34 Y8.032
X34.317 Y7.896
X34.291 Y7.769
X34.255 Y7.625
X34.221 Y7.511
X34.171 Y7.364
X34.131 Y7.262
X34.073 Y7.129
X34.028 Y7.037
X33.95 Y6.893
X33.849 Y6.726
X33.827 Y6.69
X33.751 Y6.57
X33.748 Y6.564
X33.736 Y6.526
X33.718 Y6.452
X33.696 Y6.338
X33.673 Y6.184
X33.652 Y5.988
X33.633 Y5.753
X33.629 Y5.686
G2 X34.274 Y5.271 I-0.627 J-1.687
G1 X34.874 Y4.672
G2 X35.401 Y3.399 I-1.273 J-1.273
G1 Y1.6
G2 X34.874 Y0.327 I-1.8 J0.
G1 X34.274 Y-0.273
G2 X33.002 Y-0.8 I-1.273 J1.273
G1 X4.218
G2 X2.945 Y-0.273 I0. J1.8
G1 X2.345 Y0.327
G2 X1.818 Y1.6 I1.273 J1.273
G1 Y3.399
G2 X2.345 Y4.671 I1.8 J0.
G1 X2.945 Y5.271
G2 X3.591 Y5.686 I1.273 J-1.273
G1 X3.582 Y5.82
X3.565 Y6.019
X3.545 Y6.188
X3.525 Y6.325
X3.506 Y6.431
X3.489 Y6.505
X3.476 Y6.55
X3.469 Y6.57
X3.308 Y6.826
X3.259 Y6.908
X3.215 Y6.993
X3.136 Y7.154
X3.096 Y7.241
X3.061 Y7.33
X3.027 Y7.422
X2.986 Y7.55
X2.957 Y7.652
X2.926 Y7.778
X2.903 Y7.89
X2.883 Y8.01
X2.866 Y8.133
X2.854 Y8.244
X2.845 Y8.377
X2.84 Y8.479
X2.838 Y8.622
X2.839 Y8.716
X2.844 Y8.868
X2.849 Y8.954
X2.863 Y9.116
X2.871 Y9.194
X2.893 Y9.364
X2.903 Y9.436
X2.933 Y9.613
X2.953 Y9.714
X3.037 Y10.083
X3.07 Y10.206
X3.186 Y10.588
X3.225 Y10.702
X3.371 Y11.087
X3.416 Y11.194
X3.589 Y11.576
X3.636 Y11.672
X3.835 Y12.048
X3.88 Y12.129
X4.101 Y12.5
X4.139 Y12.561
X4.379 Y12.929
X4.405 Y12.967
X4.659 Y13.337
X4.667 Y13.349
X5.188 Y14.093
X5.37 Y14.365
X5.337 Y14.384
X5.125 Y14.51
X5.056 Y14.553
X4.86 Y14.682
X4.79 Y14.73
X4.61 Y14.861
X4.54 Y14.914
X4.378 Y15.045
X4.309 Y15.103
X4.163 Y15.233
X4.099 Y15.292
X3.967 Y15.422
X3.912 Y15.479
X3.791 Y15.608
X3.724 Y15.683
X3.506 Y15.945
X3.436 Y16.034
X3.236 Y16.308
X3.161 Y16.419
X2.975 Y16.717
X2.907 Y16.836
X2.822 Y16.997
X2.773 Y17.099
X2.697 Y17.271
X2.649 Y17.388
X2.583 Y17.571
X2.543 Y17.697
X2.488 Y17.889
X2.457 Y18.017
X2.416 Y18.219
X2.395 Y18.341
X2.367 Y18.551
X2.356 Y18.662
X2.341 Y18.878
X2.336 Y18.975
X2.333 Y19.194
X2.335 Y19.312
X2.356 Y19.75
X2.365 Y19.867
X2.414 Y20.288
X2.425 Y20.372
X2.489 Y20.765
X2.503 Y20.84
X2.579 Y21.207
X2.597 Y21.286
X2.688 Y21.642
X2.71 Y21.721
X2.819 Y22.082
X2.841 Y22.15
X2.971 Y22.524
X2.99 Y22.576
X3.136 Y22.958
X3.151 Y22.996
X3.305 Y23.373
X3.316 Y23.4
X3.467 Y23.755
X3.474 Y23.771
X3.615 Y24.092
X3.616 Y24.095
X3.74 Y24.377
X3.85 Y24.63
X3.957 Y24.878
X3.97 Y24.907
X4.09 Y25.173
X4.109 Y25.214
X4.181 Y25.362
X4.198 Y25.395
X4.281 Y25.559
X4.297 Y25.59
X4.395 Y25.773
X4.411 Y25.802
X4.524 Y26.006
X4.539 Y26.031
X4.67 Y26.258
X4.682 Y26.279
X4.833 Y26.531
X4.842 Y26.547
X5.012 Y26.824
X5.02 Y26.838
X5.209 Y27.141
X5.215 Y27.151
X5.423 Y27.479
X5.428 Y27.487
X5.653 Y27.839
X5.657 Y27.845
X5.899 Y28.22
X5.901 Y28.224
X6.158 Y28.62
X6.159 Y28.622
X6.429 Y29.037
X6.43 Y29.038
X6.712 Y29.47
X7.002 Y29.916
X7.298 Y30.371
X7.902 Y31.306
X8.508 Y32.252
X9.1 Y33.193
X9.67 Y34.115
X9.942 Y34.563
X10.207 Y35.003
X10.464 Y35.433
X10.712 Y35.853
X10.951 Y36.262
X11.181 Y36.66
X11.403 Y37.047
X11.617 Y37.424
X11.823 Y37.79
X12.021 Y38.145
X12.211 Y38.49
X12.394 Y38.824
X12.741 Y39.471
X13.063 Y40.085
X13.359 Y40.676
X13.632 Y41.251
X13.883 Y41.82
X14.113 Y42.392
X14.321 Y42.974
X14.508 Y43.567
X14.671 Y44.166
X14.808 Y44.767
X14.863 Y45.045
X14.91 Y45.322
X14.949 Y45.585
X14.972 Y45.777
X14.603 Y45.796
X14.591 Y45.797
X13.69 Y45.85
X13.677 Y45.851
X12.786 Y45.911
X12.772 Y45.912
X11.89 Y45.978
X11.874 Y45.979
X11.002 Y46.052
X10.986 Y46.054
X10.125 Y46.134
X10.107 Y46.136
X9.257 Y46.223
X9.238 Y46.225
X8.399 Y46.32
X8.38 Y46.323
X7.552 Y46.425
X7.533 Y46.428
X6.716 Y46.538
X6.698 Y46.541
X5.891 Y46.658
X5.873 Y46.661
X5.076 Y46.785
X5.059 Y46.788
X4.271 Y46.918
X4.254 Y46.921
X3.476 Y47.058
X3.459 Y47.061
X2.69 Y47.204
G2 X1.831 Y47.62 I0.329 J1.77
G1 X1.635 Y47.792
X1.603 Y47.821
X1.418 Y47.992
X1.384 Y48.024
X1.208 Y48.194
X1.174 Y48.228
X1.008 Y48.398
X0.972 Y48.436
X0.816 Y48.605
X0.779 Y48.646
X0.634 Y48.814
X0.596 Y48.859
X0.46 Y49.027
X0.421 Y49.076
X0.296 Y49.243
X0.256 Y49.297
X0.141 Y49.463
X0.101 Y49.523
X-0.005 Y49.688
X-0.064 Y49.787
X-0.245 Y50.115
X-0.285 Y50.19
X-0.32 Y50.267
X-0.462 Y50.592
X-0.497 Y50.679
X-0.527 Y50.768
X-0.629 Y51.09
X-0.657 Y51.187
X-0.679 Y51.286
X-0.742 Y51.605
X-0.76 Y51.71
X-0.771 Y51.816
X-0.795 Y52.133
X-0.8 Y52.242
X-0.798 Y52.35
X-0.784 Y52.664
X-0.775 Y52.771
X-0.761 Y52.878
X-0.709 Y53.189
X-0.689 Y53.29
X-0.664 Y53.389
X-0.575 Y53.698
X-0.547 Y53.789
X-0.513 Y53.878
X-0.389 Y54.184
X-0.355 Y54.263
X-0.317 Y54.34
X-0.158 Y54.644
X-0.082 Y54.776
X0.11 Y55.078
X0.185 Y55.187
X0.408 Y55.487
X0.479 Y55.576
X0.731 Y55.874
X0.796 Y55.946
X1.076 Y56.242
X1.133 Y56.3
X1.438 Y56.595
X1.487 Y56.641
X1.815 Y56.935
X1.856 Y56.971
X2.204 Y57.265
X2.238 Y57.293
X2.603 Y57.586
X2.63 Y57.607
X3.01 Y57.9
X3.037 Y57.921
X3.827 Y58.507
X3.844 Y58.519
X4.653 Y59.105
X5.449 Y59.686
X6.208 Y60.26
X6.558 Y60.537
X6.894 Y60.813
X7.211 Y61.086
X7.507 Y61.354
X7.78 Y61.616
X8.031 Y61.873
X8.259 Y62.123
X8.465 Y62.366
X8.649 Y62.602
X8.813 Y62.831
X8.958 Y63.052
X9.087 Y63.267
X9.201 Y63.477
X9.303 Y63.682
X9.395 Y63.883
X9.48 Y64.084
X9.56 Y64.284
X9.638 Y64.489
X9.715 Y64.69
X9.724 Y64.712
X9.798 Y64.899
X9.819 Y64.949
X9.894 Y65.122
X9.932 Y65.205
X10.01 Y65.363
X10.072 Y65.478
X10.156 Y65.622
X10.202 Y65.695
X10.251 Y65.766
X10.345 Y65.895
X10.408 Y65.977
X10.475 Y66.055
X10.581 Y66.17
X10.66 Y66.251
X10.744 Y66.327
X10.864 Y66.429
X10.952 Y66.499
X11.045 Y66.563
X11.183 Y66.653
X11.269 Y66.706
X11.358 Y66.754
X11.515 Y66.833
X11.593 Y66.87
X11.673 Y66.903
X11.851 Y66.971
X11.983 Y67.017
X12.182 Y67.076
X12.29 Y67.105
X12.51 Y67.156
X12.595 Y67.174
X12.835 Y67.218
X12.904 Y67.229
X13.162 Y67.266
X13.217 Y67.273
X13.491 Y67.304
X13.559 Y67.31
X14.138 Y67.353
X14.212 Y67.357
X14.803 Y67.376
X14.853 Y67.377
X15.141 Y67.378
X15.175
X15.452 Y67.374
X15.485 Y67.373
X15.746 Y67.364
X15.78 Y67.363
X15.939 Y67.355
X15.941 Y67.45
X15.932 Y67.82
X15.917 Y68.246
X15.916 Y68.288
X15.91 Y68.729
X15.911 Y68.833
X15.931 Y69.267
X15.94 Y69.383
X15.963 Y69.593
X15.976 Y69.691
X16.01 Y69.894
X16.033 Y70.009
X16.078 Y70.203
X16.113 Y70.332
X16.171 Y70.516
X16.223 Y70.661
X16.293 Y70.833
X16.328 Y70.912
X16.366 Y70.989
X16.449 Y71.147
X16.495 Y71.23
X16.546 Y71.31
X16.642 Y71.454
X16.701 Y71.537
X16.765 Y71.617
X16.873 Y71.744
X16.944 Y71.823
X17.02 Y71.898
X17.138 Y72.009
X17.221 Y72.081
X17.307 Y72.147
X17.436 Y72.241
X17.523 Y72.301
X17.614 Y72.355
X17.75 Y72.432
X17.841 Y72.479
X17.935 Y72.521
X18.078 Y72.581
X18.168 Y72.616
X18.259 Y72.646
X18.406 Y72.69
X18.495 Y72.714
X18.584 Y72.734
X18.735 Y72.762
X18.82 Y72.776
X18.906 Y72.786
X19.057 Y72.8
X19.222 Y72.808
X19.372
X19.534 Y72.8
X19.681 Y72.787
X19.839 Y72.766
X19.982 Y72.74
X20.141 Y72.704
X20.28 Y72.665
X20.436 Y72.615
X20.569 Y72.564
X20.721 Y72.499
X20.849 Y72.437
X20.995 Y72.357
X21.117 Y72.283
X21.254 Y72.191
X21.37 Y72.106
X21.493 Y72.006
X21.602 Y71.909
X21.699 Y71.817
X22.343 Y71.155
X22.35 Y71.147
X22.981 Y70.491
X22.989 Y70.482
X23.607 Y69.831
X23.616 Y69.822
X24.22 Y69.176
X24.228 Y69.167
X24.819 Y68.526
X24.829 Y68.516
X25.406 Y67.881
X25.415 Y67.871
X25.978 Y67.241
X25.988 Y67.23
X26.537 Y66.606
X26.548 Y66.594
X27.081 Y65.976
X27.092 Y65.963
X27.61 Y65.351
X27.622 Y65.337
X28.124 Y64.732
X28.137 Y64.716
X28.622 Y64.118
X28.636 Y64.101
X29.104 Y63.509
X29.118 Y63.491
X29.569 Y62.906
X29.584 Y62.886
X30.017 Y62.308
X30.033 Y62.286
X30.446 Y61.716
X30.463 Y61.693
X30.858 Y61.13
X30.875 Y61.105
X31.25 Y60.55
X31.269 Y60.522
X31.624 Y59.975
X31.643 Y59.946
X31.978 Y59.407
X31.997 Y59.375
X32.313 Y58.844
X32.332 Y58.81
X32.628 Y58.287
X32.648 Y58.251
X32.924 Y57.736
X32.943 Y57.699
X33.201 Y57.191
X33.22 Y57.151
X33.458 Y56.651
X33.477 Y56.61
X33.697 Y56.116
X33.716 Y56.074
X33.918 Y55.588
X33.935 Y55.543
X34.119 Y55.064
X34.137 Y55.017
X34.303 Y54.545
X34.32 Y54.496
X34.469 Y54.031
X34.484 Y53.98
X34.616 Y53.521
X34.631 Y53.467
X34.746 Y53.016
G2 X34.791 Y52.763 I-1.744 J-0.444
G1 X34.888 Y51.862
X34.89 Y51.845
X34.975 Y50.965
X34.977 Y50.947
X35.052 Y50.089
X35.053 Y50.069
X35.117 Y49.233
X35.118 Y49.213
X35.171 Y48.398
X35.173 Y48.376
X35.214 Y47.583
X35.215 Y47.56
X35.246 Y46.789
X35.247 Y46.764
X35.267 Y46.014
X35.268 Y45.989
X35.277 Y45.26
X35.278 Y45.234
X35.277 Y44.525
X35.276 Y44.498
X35.265 Y43.809
Y43.781
X35.244 Y43.112
X35.243 Y43.084
X35.212 Y42.432
X35.211 Y42.405
X35.171 Y41.771
X35.17 Y41.744
X35.122 Y41.126
X35.12 Y41.1
X35.064 Y40.497
X35.062 Y40.473
X35. Y39.882
X34.998 Y39.861
X34.994 Y39.832
G2 X34.819 Y39.626 I-0.242 J0.028
G3 X34.644 Y39.42 I0.067 J-0.234
G1 X34.632 Y39.317
X34.629 Y39.296
X34.48 Y38.162
X34.477 Y38.145
X34.158 Y35.918
X34.009 Y34.799
X33.94 Y34.237
X33.877 Y33.666
X33.819 Y33.086
X33.768 Y32.497
X33.723 Y31.898
X33.685 Y31.288
X33.654 Y30.669
X33.631 Y30.045
X33.603 Y28.76
X33.599 Y27.459
X33.61 Y26.152
X33.626 Y24.863
Y24.856
X33.631 Y24.227
Y24.216
Y23.603
Y23.584
X33.623 Y22.991
Y22.964
X33.606 Y22.393
X33.604 Y22.358
X33.575 Y21.812
X33.572 Y21.767
X33.529 Y21.249
X33.523 Y21.194
X33.464 Y20.705
X33.454 Y20.637
X33.378 Y20.18
X33.362 Y20.1
X33.267 Y19.675
X33.244 Y19.584
X33.13 Y19.192
X33.097 Y19.092
X32.964 Y18.732
X32.921 Y18.627
X32.77 Y18.297
X32.718 Y18.194
X32.551 Y17.892
X32.492 Y17.796
X32.311 Y17.52
X32.25 Y17.434
X32.057 Y17.18
X31.999 Y17.109
X31.796 Y16.874
X31.745 Y16.818
X31.535 Y16.598
X31.491 Y16.554
X31.337 Y16.405
G2 X30.914 Y15.506 I-1.492 J0.153
G1 X30.939 Y15.421
X30.988 Y15.29
X31.055 Y15.139
X31.137 Y14.971
X31.23 Y14.799
X31.468 Y14.401
X31.736 Y13.994
X32.027 Y13.574
X32.325 Y13.15
X32.336 Y13.134
X32.624 Y12.713
X32.651 Y12.672
X32.918 Y12.252
X32.957 Y12.187
X33.198 Y11.763
X33.243 Y11.678
X33.453 Y11.245
X33.497 Y11.148
X33.673 Y10.709
X33.702 Y10.63
X33.776 Y10.411
X33.793 Y10.355
X33.857 Y10.138
X33.873 Y10.081
X33.927 Y9.867
X33.941 Y9.806
X33.984 Y9.598
X33.996 Y9.534
X34.028 Y9.334
X34.038 Y9.264
X34.059 Y9.074
X34.066 Y8.996
X34.077 Y8.816
X34.08 Y8.732
X34.081 Y8.564
X34.079 Y8.471
X34.07 Y8.316
X34.06 Y8.211
X34.042 Y8.07
X34.023 Y7.957
X33.997 Y7.83
X33.967 Y7.71
X33.933 Y7.596
X33.892 Y7.473
X33.852 Y7.371
X33.803 Y7.26
X33.758 Y7.168
X33.693 Y7.048
X33.593 Y6.881
X33.574 Y6.851
X33.491 Y6.72
X33.483 Y6.708
X33.476 Y6.692
X33.465 Y6.662
X33.447 Y6.606
X33.425 Y6.516
X33.4 Y6.388
X33.376 Y6.222
X33.353 Y6.017
X33.333 Y5.774
X33.317 Y5.494
X33.316 Y5.465
G2 X34.062 Y5.059 I-0.315 J-1.467
G1 X34.662 Y4.459
G2 X35.101 Y3.399 I-1.061 J-1.061
G1 Y1.6
G2 X34.662 Y0.539 I-1.5 J0.
G1 X34.062 Y-0.061
G2 X33.002 Y-0.5 I-1.061 J1.061
G1 X4.218
G2 X3.157 Y-0.061 I0. J1.5
G1 X2.557 Y0.539
G2 X2.118 Y1.6 I1.061 J1.061
G1 Y3.399
G2 X2.557 Y4.459 I1.5 J0.
G1 X3.157 Y5.059
G2 X3.903 Y5.465 I1.061 J-1.061
G1 X3.896 Y5.608
X3.881 Y5.843
X3.863 Y6.049
X3.843 Y6.226
X3.821 Y6.374
X3.8 Y6.491
X3.78 Y6.58
X3.762 Y6.64
X3.75 Y6.677
X3.741 Y6.697
X3.735 Y6.71
X3.727 Y6.724
X3.562 Y6.986
X3.521 Y7.054
X3.485 Y7.125
X3.405 Y7.287
X3.372 Y7.359
X3.343 Y7.433
X3.309 Y7.525
X3.275 Y7.632
X3.246 Y7.734
X3.22 Y7.839
X3.197 Y7.951
X3.18 Y8.051
X3.163 Y8.173
X3.154 Y8.266
X3.144 Y8.399
X3.14 Y8.484
X3.138 Y8.627
Y8.705
X3.144 Y8.858
X3.148 Y8.929
X3.162 Y9.091
X3.168 Y9.156
X3.19 Y9.326
X3.199 Y9.386
X3.229 Y9.563
X3.246 Y9.647
X3.33 Y10.016
X3.357 Y10.118
X3.473 Y10.5
X3.506 Y10.595
X3.652 Y10.981
X3.689 Y11.07
X3.862 Y11.452
X3.902 Y11.532
X4.1 Y11.908
X4.138 Y11.976
X4.359 Y12.346
X4.391 Y12.397
X4.63 Y12.765
X4.652 Y12.797
X4.906 Y13.167
X4.913 Y13.177
X5.435 Y13.924
X5.675 Y14.283
X5.796 Y14.476
X5.772 Y14.489
X5.547 Y14.609
X5.491 Y14.642
X5.279 Y14.768
X5.221 Y14.803
X5.024 Y14.933
X4.966 Y14.973
X4.786 Y15.104
X4.728 Y15.148
X4.566 Y15.279
X4.509 Y15.327
X4.362 Y15.457
X4.309 Y15.506
X4.177 Y15.636
X4.131 Y15.683
X4.01 Y15.813
X3.955 Y15.876
X3.737 Y16.137
X3.678 Y16.211
X3.478 Y16.485
X3.416 Y16.577
X3.229 Y16.876
X3.173 Y16.975
X3.088 Y17.136
X3.047 Y17.221
X2.971 Y17.393
X2.931 Y17.491
X2.865 Y17.673
X2.831 Y17.778
X2.777 Y17.97
X2.751 Y18.077
X2.71 Y18.279
X2.693 Y18.381
X2.665 Y18.591
X2.655 Y18.684
X2.64 Y18.899
X2.636 Y18.98
X2.633 Y19.199
X2.634 Y19.298
X2.656 Y19.735
X2.664 Y19.833
X2.712 Y20.253
X2.721 Y20.324
X2.785 Y20.717
X2.797 Y20.779
X2.873 Y21.147
X2.888 Y21.212
X2.978 Y21.568
X2.997 Y21.634
X3.106 Y21.995
X3.124 Y22.052
X3.254 Y22.425
X3.27 Y22.469
X3.416 Y22.851
X3.428 Y22.883
X3.582 Y23.26
X3.592 Y23.282
X3.743 Y23.638
X3.749 Y23.65
X3.89 Y23.972
Y23.974
X4.015 Y24.257
X4.125 Y24.511
X4.232 Y24.759
X4.243 Y24.783
X4.364 Y25.049
X4.379 Y25.083
X4.451 Y25.232
X4.465 Y25.259
X4.548 Y25.423
X4.562 Y25.449
X4.66 Y25.632
X4.673 Y25.656
X4.786 Y25.86
X4.798 Y25.88
X4.93 Y26.108
X4.94 Y26.125
X5.09 Y26.377
X5.098 Y26.39
X5.268 Y26.668
X5.275 Y26.679
X5.464 Y26.982
X5.469 Y26.99
X5.676 Y27.319
X5.68 Y27.325
X5.906 Y27.677
X5.909 Y27.682
X6.151 Y28.057
X6.153 Y28.06
X6.41 Y28.456
X6.411 Y28.458
X6.681 Y28.873
Y28.874
X6.963 Y29.306
X7.253 Y29.752
X7.55 Y30.208
X8.155 Y31.143
X8.761 Y32.092
X9.354 Y33.035
X9.925 Y33.959
X10.199 Y34.407
X10.464 Y34.848
X10.722 Y35.28
X10.97 Y35.701
X11.21 Y36.111
X11.441 Y36.51
X11.664 Y36.899
X11.878 Y37.276
X12.085 Y37.643
X12.283 Y37.999
X12.474 Y38.345
X12.658 Y38.681
X13.007 Y39.33
X13.33 Y39.948
X13.629 Y40.544
X13.905 Y41.126
X14.16 Y41.704
X14.393 Y42.286
X14.606 Y42.878
X14.796 Y43.482
X14.962 Y44.093
X15.102 Y44.705
X15.158 Y44.991
X15.207 Y45.274
X15.246 Y45.545
X15.277 Y45.799
X15.298 Y46.031
X15.3 Y46.06
X14.619 Y46.096
X14.608
X13.708 Y46.15
X13.697 Y46.151
X12.806 Y46.21
X12.794 Y46.211
X11.912 Y46.277
X11.899 Y46.278
X11.027 Y46.351
X11.014 Y46.352
X10.152 Y46.433
X10.138 Y46.434
X9.287 Y46.521
X9.272 Y46.523
X8.433 Y46.618
X8.417 Y46.62
X7.589 Y46.723
X7.573 Y46.725
X6.756 Y46.835
X6.741 Y46.838
X5.934 Y46.955
X5.919 Y46.957
X5.122 Y47.081
X5.108 Y47.083
X4.32 Y47.214
X4.306 Y47.216
X3.528 Y47.353
X3.514 Y47.356
X2.745 Y47.499
G2 X2.029 Y47.846 I0.274 J1.475
G1 X1.833 Y48.018
X1.807 Y48.042
X1.621 Y48.213
X1.593 Y48.239
X1.417 Y48.409
X1.388 Y48.438
X1.223 Y48.607
X1.193 Y48.639
X1.037 Y48.808
X1.006 Y48.843
X0.86 Y49.011
X0.829 Y49.048
X0.693 Y49.216
X0.661 Y49.257
X0.535 Y49.423
X0.502 Y49.469
X0.387 Y49.635
X0.353 Y49.684
X0.248 Y49.849
X0.199 Y49.932
X0.017 Y50.26
X-0.045 Y50.387
X-0.187 Y50.712
X-0.216 Y50.784
X-0.241 Y50.858
X-0.343 Y51.18
X-0.366 Y51.261
X-0.385 Y51.344
X-0.448 Y51.663
X-0.462 Y51.751
X-0.472 Y51.839
X-0.495 Y52.155
X-0.5 Y52.246
X-0.498 Y52.337
X-0.484 Y52.65
X-0.477 Y52.74
X-0.465 Y52.829
X-0.413 Y53.14
X-0.397 Y53.224
X-0.375 Y53.307
X-0.287 Y53.615
X-0.263 Y53.691
X-0.235 Y53.765
X-0.111 Y54.071
X-0.051 Y54.202
X0.108 Y54.505
X0.171 Y54.616
X0.363 Y54.917
X0.426 Y55.008
X0.648 Y55.308
X0.708 Y55.382
X0.96 Y55.68
X1.014 Y55.74
X1.294 Y56.036
X1.341 Y56.084
X1.646 Y56.38
X1.687 Y56.418
X2.015 Y56.712
X2.05 Y56.742
X2.398 Y57.035
X2.426 Y57.059
X2.791 Y57.352
X2.813 Y57.37
X3.193 Y57.662
X3.216 Y57.68
X4.006 Y58.266
X4.02 Y58.276
X4.83 Y58.863
X5.628 Y59.445
X6.392 Y60.023
X6.746 Y60.303
X7.087 Y60.584
X7.409 Y60.861
X7.711 Y61.134
X7.991 Y61.403
X8.249 Y61.667
X8.485 Y61.925
X8.698 Y62.177
X8.889 Y62.422
X9.06 Y62.661
X9.212 Y62.893
X9.347 Y63.119
X9.467 Y63.339
X9.574 Y63.553
X9.669 Y63.763
X9.757 Y63.969
X9.839 Y64.175
X9.918 Y64.381
X9.995 Y64.583
X10.002 Y64.601
X10.077 Y64.789
X10.094 Y64.83
X10.169 Y65.003
X10.201 Y65.072
X10.279 Y65.23
X10.331 Y65.326
X10.415 Y65.469
X10.494 Y65.59
X10.587 Y65.719
X10.64 Y65.787
X10.696 Y65.852
X10.802 Y65.967
X10.868 Y66.035
X10.938 Y66.098
X11.058 Y66.2
X11.132 Y66.258
X11.209 Y66.312
X11.347 Y66.402
X11.418 Y66.446
X11.493 Y66.486
X11.649 Y66.564
X11.782 Y66.623
X11.959 Y66.692
X12.07 Y66.729
X12.268 Y66.789
X12.358 Y66.813
X12.578 Y66.864
X12.649 Y66.879
X12.889 Y66.923
X12.946 Y66.932
X13.205 Y66.969
X13.251 Y66.975
X13.525 Y67.005
X13.581 Y67.011
X14.16 Y67.053
X14.222 Y67.057
X14.812 Y67.076
X14.855 Y67.077
X15.143 Y67.078
X15.17
X15.447 Y67.074
X15.475 Y67.073
X15.736 Y67.064
X15.764 Y67.063
X16.007 Y67.051
X16.033 Y67.049
X16.226 Y67.036
X16.233 Y67.124
X16.241 Y67.45
X16.232 Y67.829
X16.217 Y68.257
X16.216 Y68.292
X16.21 Y68.732
X16.211 Y68.819
X16.231 Y69.253
X16.238 Y69.35
X16.261 Y69.56
X16.272 Y69.642
X16.306 Y69.845
X16.325 Y69.94
X16.37 Y70.135
X16.4 Y70.242
X16.457 Y70.427
X16.5 Y70.547
X16.571 Y70.719
X16.631 Y70.849
X16.715 Y71.008
X16.753 Y71.077
X16.795 Y71.144
X16.891 Y71.287
X16.941 Y71.357
X16.994 Y71.423
X17.102 Y71.55
X17.161 Y71.616
X17.224 Y71.678
X17.343 Y71.789
X17.411 Y71.849
X17.483 Y71.905
X17.612 Y71.998
X17.685 Y72.048
X17.76 Y72.093
X17.897 Y72.17
X17.973 Y72.21
X18.051 Y72.245
X18.194 Y72.305
X18.269 Y72.334
X18.345 Y72.359
X18.492 Y72.403
X18.64 Y72.439
X18.791 Y72.467
X18.933 Y72.488
X19.084 Y72.501
X19.222 Y72.508
X19.372
X19.507 Y72.502
X19.654 Y72.488
X19.785 Y72.471
X19.929 Y72.445
X20.061 Y72.414
X20.2 Y72.376
X20.33 Y72.334
X20.463 Y72.284
X20.59 Y72.229
X20.718 Y72.167
X20.84 Y72.101
X20.961 Y72.027
X21.076 Y71.95
X21.191 Y71.865
X21.294 Y71.781
X21.403 Y71.684
X21.484 Y71.608
X22.128 Y70.946
X22.134 Y70.939
X22.765 Y70.283
X22.772 Y70.276
X23.389 Y69.625
X23.396 Y69.617
X24.001 Y68.971
X24.008 Y68.963
X24.599 Y68.323
X24.607 Y68.314
X25.184 Y67.679
X25.192 Y67.671
X25.755 Y67.041
X25.763 Y67.032
X26.312 Y66.408
X26.32 Y66.398
X26.854 Y65.78
X26.863 Y65.769
X27.381 Y65.157
X27.391 Y65.145
X27.893 Y64.54
X27.904 Y64.527
X28.389 Y63.929
X28.401 Y63.915
X28.869 Y63.323
X28.881 Y63.307
X29.331 Y62.723
X29.344 Y62.706
X29.776 Y62.128
X29.79 Y62.11
X30.203 Y61.54
X30.217 Y61.521
X30.612 Y60.958
X30.627 Y60.937
X31.002 Y60.382
X31.017 Y60.359
X31.372 Y59.812
X31.388 Y59.787
X31.723 Y59.248
X31.739 Y59.222
X32.055 Y58.69
X32.071 Y58.663
X32.367 Y58.139
X32.383 Y58.109
X32.66 Y57.594
X32.676 Y57.563
X32.933 Y57.055
X32.949 Y57.022
X33.188 Y56.522
X33.203 Y56.487
X33.423 Y55.994
X33.439 Y55.959
X33.641 Y55.473
X33.655 Y55.435
X33.839 Y54.956
X33.854 Y54.917
X34.02 Y54.445
X34.034 Y54.404
X34.183 Y53.939
X34.196 Y53.897
X34.328 Y53.438
X34.34 Y53.393
X34.455 Y52.942
X34.478 Y52.837
X34.493 Y52.731
X34.59 Y51.83
X34.591 Y51.816
X34.677 Y50.936
X34.678 Y50.921
X34.753 Y50.063
X34.754 Y50.046
X34.818 Y49.21
X34.819 Y49.193
X34.872 Y48.378
X34.873 Y48.36
X34.915 Y47.567
X34.916 Y47.548
X34.947 Y46.777
Y46.756
X34.967 Y46.006
X34.968 Y45.985
X34.977 Y45.256
Y45.234
Y44.525
X34.976 Y44.503
X34.965 Y43.813
Y43.791
X34.944 Y43.121
X34.943 Y43.098
X34.913 Y42.446
X34.911 Y42.423
X34.872 Y41.789
X34.87 Y41.767
X34.823 Y41.149
X34.821 Y41.127
X34.766 Y40.524
X34.764 Y40.504
X34.702 Y39.914
X34.7 Y39.896
X34.644 Y39.42
G3 X34.907 Y39.087 I0.298 J-0.035
G1 X35.205 Y39.052
X35.271 Y39.044 Z0.258
X35.334 Y39.037 Z0.28
X35.39 Y39.03 Z0.315
X35.438 Y39.024 Z0.363
X35.473 Y39.02 Z0.42
X35.495 Y39.018 Z0.483
X35.503 Y39.017 Z0.55
G0 Z20.992
X49.093 Y34.898
G1 Z16.992 F133.3
Z0.55
X49.1 Y34.894 Z0.483 F400
X49.119 Y34.883 Z0.42
X49.149 Y34.864 Z0.363
X49.19 Y34.84 Z0.315
X49.239 Y34.811 Z0.28
X49.293 Y34.778 Z0.258
X49.35 Y34.743 Z0.25
X49.607 Y34.589
G3 X50.019 Y34.691 I0.155 J0.257
G1 X50.207 Y35.003
X50.464 Y35.433
X50.712 Y35.853
X50.951 Y36.262
X51.181 Y36.66
X51.403 Y37.047
X51.617 Y37.424
X51.823 Y37.79
X52.021 Y38.145
X52.211 Y38.49
X52.394 Y38.824
X52.741 Y39.471
X53.063 Y40.085
X53.359 Y40.676
X53.632 Y41.251
X53.883 Y41.82
X54.113 Y42.392
X54.321 Y42.974
X54.508 Y43.567
X54.671 Y44.166
X54.808 Y44.767
X54.863 Y45.045
X54.91 Y45.322
X54.949 Y45.585
X54.972 Y45.777
X54.603 Y45.796
X54.591 Y45.797
X53.69 Y45.85
X53.677 Y45.851
X52.786 Y45.911
X52.772 Y45.912
X51.89 Y45.978
X51.874 Y45.979
X51.002 Y46.052
X50.986 Y46.054
X50.125 Y46.134
X50.107 Y46.136
X49.257 Y46.223
X49.238 Y46.225
X48.399 Y46.32
X48.38 Y46.323
X47.552 Y46.425
X47.533 Y46.428
X46.716 Y46.538
X46.698 Y46.541
X45.891 Y46.658
X45.873 Y46.661
X45.076 Y46.785
X45.059 Y46.788
X44.271 Y46.918
X44.254 Y46.921
X43.476 Y47.058
X43.459 Y47.061
X42.69 Y47.204
G2 X41.831 Y47.62 I0.329 J1.77
G1 X41.635 Y47.792
X41.604 Y47.821
X41.418 Y47.992
X41.384 Y48.024
X41.208 Y48.194
X41.174 Y48.228
X41.008 Y48.398
X40.972 Y48.436
X40.817 Y48.604
X40.779 Y48.646
X40.634 Y48.814
X40.596 Y48.86
X40.46 Y49.027
X40.421 Y49.076
X40.296 Y49.243
X40.256 Y49.297
X40.141 Y49.463
X40.101 Y49.523
X39.995 Y49.688
X39.936 Y49.787
X39.755 Y50.115
X39.68 Y50.267
X39.538 Y50.592
X39.503 Y50.679
X39.473 Y50.768
X39.371 Y51.09
X39.343 Y51.187
X39.321 Y51.286
X39.258 Y51.605
X39.24 Y51.71
X39.229 Y51.816
X39.205 Y52.133
X39.201 Y52.242
X39.202 Y52.35
X39.216 Y52.664
X39.225 Y52.771
X39.239 Y52.878
X39.291 Y53.189
X39.311 Y53.29
X39.336 Y53.39
X39.425 Y53.698
X39.453 Y53.789
X39.487 Y53.878
X39.611 Y54.184
X39.645 Y54.263
X39.683 Y54.34
X39.842 Y54.644
X39.918 Y54.776
X40.11 Y55.078
X40.185 Y55.187
X40.408 Y55.487
X40.479 Y55.576
X40.731 Y55.874
X40.796 Y55.946
X41.076 Y56.242
X41.133 Y56.3
X41.438 Y56.595
X41.487 Y56.641
X41.815 Y56.935
X41.856 Y56.971
X42.204 Y57.265
X42.238 Y57.293
X42.603 Y57.586
X42.63 Y57.607
X43.009 Y57.9
X43.037 Y57.921
X43.827 Y58.507
X43.844 Y58.519
X44.653 Y59.105
X45.449 Y59.686
X46.208 Y60.26
X46.558 Y60.537
X46.894 Y60.813
X47.211 Y61.086
X47.507 Y61.354
X47.78 Y61.616
X48.031 Y61.873
X48.259 Y62.123
X48.465 Y62.366
X48.649 Y62.602
X48.813 Y62.831
X48.958 Y63.052
X49.087 Y63.267
X49.201 Y63.477
X49.303 Y63.682
X49.395 Y63.883
X49.48 Y64.084
X49.56 Y64.284
X49.638 Y64.489
X49.715 Y64.69
X49.724 Y64.712
X49.798 Y64.899
X49.819 Y64.949
X49.894 Y65.122
X49.932 Y65.205
X50.01 Y65.363
X50.072 Y65.478
X50.156 Y65.622
X50.202 Y65.695
X50.251 Y65.766
X50.345 Y65.895
X50.408 Y65.977
X50.475 Y66.055
X50.581 Y66.17
X50.66 Y66.251
X50.744 Y66.327
X50.864 Y66.429
X50.952 Y66.499
X51.045 Y66.563
X51.183 Y66.653
X51.269 Y66.706
X51.358 Y66.754
X51.515 Y66.833
X51.593 Y66.87
X51.673 Y66.903
X51.851 Y66.971
X51.983 Y67.017
X52.182 Y67.076
X52.29 Y67.105
X52.51 Y67.156
X52.595 Y67.174
X52.835 Y67.218
X52.904 Y67.229
X53.162 Y67.266
X53.217 Y67.273
X53.491 Y67.304
X53.559 Y67.31
X54.138 Y67.353
X54.212 Y67.357
X54.803 Y67.376
X54.853 Y67.377
X55.141 Y67.378
X55.175
X55.452 Y67.374
X55.485 Y67.373
X55.746 Y67.364
X55.78 Y67.363
X55.939 Y67.355
X55.941 Y67.45
X55.932 Y67.82
X55.917 Y68.246
X55.916 Y68.288
X55.91 Y68.729
X55.911 Y68.833
X55.931 Y69.267
X55.94 Y69.383
X55.963 Y69.593
X55.976 Y69.691
X56.01 Y69.894
X56.033 Y70.009
X56.078 Y70.203
X56.113 Y70.332
X56.171 Y70.516
X56.223 Y70.661
X56.293 Y70.833
X56.328 Y70.912
X56.366 Y70.989
X56.449 Y71.147
X56.495 Y71.23
X56.546 Y71.31
X56.642 Y71.454
X56.701 Y71.537
X56.765 Y71.617
X56.873 Y71.744
X56.944 Y71.823
X57.02 Y71.898
X57.138 Y72.009
X57.221 Y72.081
X57.307 Y72.147
X57.436 Y72.241
X57.523 Y72.301
X57.614 Y72.355
X57.75 Y72.432
X57.841 Y72.479
X57.935 Y72.521
X58.078 Y72.581
X58.168 Y72.616
X58.259 Y72.646
X58.406 Y72.69
X58.495 Y72.714
X58.584 Y72.734
X58.735 Y72.762
X58.82 Y72.776
X58.906 Y72.786
X59.057 Y72.8
X59.222 Y72.808
X59.372
X59.534 Y72.8
X59.681 Y72.787
X59.839 Y72.766
X59.982 Y72.74
X60.141 Y72.704
X60.28 Y72.665
X60.436 Y72.615
X60.569 Y72.564
X60.721 Y72.499
X60.849 Y72.437
X60.995 Y72.357
X61.117 Y72.283
X61.254 Y72.191
X61.37 Y72.106
X61.493 Y72.006
X61.602 Y71.909
X61.699 Y71.817
X62.343 Y71.155
X62.35 Y71.147
X62.981 Y70.491
X62.989 Y70.482
X63.607 Y69.831
X63.616 Y69.822
X64.22 Y69.176
X64.228 Y69.167
X64.819 Y68.526
X64.829 Y68.516
X65.406 Y67.881
X65.415 Y67.871
X65.978 Y67.241
X65.988 Y67.23
X66.537 Y66.606
X66.548 Y66.594
X67.081 Y65.976
X67.092 Y65.963
X67.61 Y65.351
X67.622 Y65.337
X68.124 Y64.732
X68.137 Y64.716
X68.622 Y64.118
X68.636 Y64.101
X69.104 Y63.509
X69.118 Y63.491
X69.569 Y62.906
X69.584 Y62.886
X70.017 Y62.308
X70.033 Y62.286
X70.446 Y61.716
X70.463 Y61.693
X70.858 Y61.13
X70.875 Y61.105
X71.25 Y60.55
X71.269 Y60.522
X71.624 Y59.975
X71.643 Y59.946
X71.978 Y59.407
X71.997 Y59.375
X72.313 Y58.844
X72.332 Y58.81
X72.628 Y58.287
X72.648 Y58.251
X72.924 Y57.736
X72.943 Y57.699
X73.201 Y57.191
X73.22 Y57.151
X73.458 Y56.651
X73.477 Y56.61
X73.697 Y56.116
X73.716 Y56.074
X73.918 Y55.588
X73.935 Y55.543
X74.119 Y55.064
X74.137 Y55.017
X74.303 Y54.545
X74.32 Y54.496
X74.469 Y54.031
X74.484 Y53.98
X74.616 Y53.521
X74.631 Y53.467
X74.746 Y53.016
G2 X74.791 Y52.763 I-1.744 J-0.444
G1 X74.888 Y51.862
X74.89 Y51.845
X74.975 Y50.965
X74.977 Y50.947
X75.052 Y50.089
X75.053 Y50.069
X75.117 Y49.233
X75.118 Y49.213
X75.171 Y48.398
X75.173 Y48.376
X75.214 Y47.583
X75.215 Y47.56
X75.246 Y46.789
X75.247 Y46.764
X75.267 Y46.014
X75.268 Y45.989
X75.277 Y45.26
Y45.234
Y44.525
X75.276 Y44.498
X75.265 Y43.809
Y43.781
X75.244 Y43.112
X75.243 Y43.084
X75.212 Y42.432
X75.211 Y42.405
X75.171 Y41.771
X75.17 Y41.744
X75.122 Y41.126
X75.12 Y41.1
X75.064 Y40.497
X75.062 Y40.473
X75. Y39.882
X74.998 Y39.861
X74.93 Y39.282
X74.926 Y39.257
X74.777 Y38.123
X74.774 Y38.102
X74.456 Y35.877
X74.306 Y34.761
X74.238 Y34.202
X74.175 Y33.634
X74.118 Y33.058
X74.067 Y32.473
X74.022 Y31.877
X73.985 Y31.272
X73.954 Y30.656
X73.931 Y30.036
X73.903 Y28.757
X73.899 Y27.46
X73.91 Y26.156
X73.926 Y24.866
Y24.858
X73.931 Y24.23
Y24.216
Y23.603
Y23.581
X73.923 Y22.987
Y22.955
X73.906 Y22.384
X73.904 Y22.343
X73.875 Y21.796
X73.871 Y21.742
X73.828 Y21.224
X73.821 Y21.158
X73.762 Y20.669
X73.75 Y20.588
X73.674 Y20.13
X73.655 Y20.035
X73.56 Y19.61
X73.532 Y19.5
X73.418 Y19.108
X73.378 Y18.988
X73.246 Y18.628
X73.194 Y18.502
X73.043 Y18.172
X72.98 Y18.048
X72.813 Y17.747
X72.743 Y17.631
X72.562 Y17.355
X72.489 Y17.252
X72.296 Y16.998
X72.226 Y16.913
X72.023 Y16.678
X71.962 Y16.61
X71.751 Y16.39
X71.7 Y16.338
X71.62 Y16.262
G2 X71.253 Y15.438 I-1.775 J0.296
G1 X71.266 Y15.403
X71.327 Y15.265
X71.404 Y15.109
X71.491 Y14.948
X71.722 Y14.561
X71.985 Y14.162
X72.273 Y13.746
X72.57 Y13.323
X72.584 Y13.303
X72.871 Y12.883
X72.904 Y12.833
X73.171 Y12.413
X73.218 Y12.336
X73.459 Y11.911
X73.513 Y11.809
X73.723 Y11.377
X73.775 Y11.259
X73.951 Y10.821
X73.986 Y10.726
X74.06 Y10.507
X74.081 Y10.44
X74.145 Y10.223
X74.164 Y10.154
X74.218 Y9.941
X74.234 Y9.867
X74.277 Y9.659
X74.292 Y9.582
X74.324 Y9.382
X74.336 Y9.299
X74.357 Y9.108
X74.366 Y9.014
X74.377 Y8.834
X74.38 Y8.733
X74.381 Y8.566
X74.378 Y8.454
X74.369 Y8.299
X74.358 Y8.173
X74.34 Y8.032
X74.317 Y7.896
X74.291 Y7.769
X74.255 Y7.625
X74.221 Y7.511
X74.171 Y7.364
X74.131 Y7.262
X74.073 Y7.129
X74.028 Y7.037
X73.95 Y6.893
X73.849 Y6.726
X73.827 Y6.69
X73.751 Y6.57
X73.748 Y6.564
X73.736 Y6.526
X73.718 Y6.452
X73.696 Y6.338
X73.673 Y6.184
X73.652 Y5.988
X73.633 Y5.753
X73.629 Y5.686
G2 X74.274 Y5.271 I-0.627 J-1.687
G1 X74.874 Y4.672
G2 X75.401 Y3.399 I-1.273 J-1.273
G1 Y1.6
G2 X74.874 Y0.327 I-1.8 J0.
G1 X74.274 Y-0.273
G2 X73.002 Y-0.8 I-1.273 J1.273
G1 X44.218
G2 X42.945 Y-0.273 I0. J1.8
G1 X42.345 Y0.327
G2 X41.818 Y1.6 I1.273 J1.273
G1 Y3.399
G2 X42.345 Y4.671 I1.8 J0.
G1 X42.945 Y5.271
G2 X43.591 Y5.686 I1.273 J-1.273
G1 X43.582 Y5.82
X43.565 Y6.019
X43.545 Y6.188
X43.525 Y6.325
X43.506 Y6.431
X43.489 Y6.506
X43.476 Y6.55
X43.469 Y6.57
X43.308 Y6.826
X43.259 Y6.908
X43.215 Y6.993
X43.136 Y7.155
X43.096 Y7.242
X43.061 Y7.331
X43.027 Y7.423
X42.986 Y7.549
X42.957 Y7.651
X42.926 Y7.779
X42.903 Y7.891
X42.883 Y8.01
X42.866 Y8.132
X42.854 Y8.245
X42.845 Y8.377
X42.84 Y8.478
X42.838 Y8.622
X42.839 Y8.716
X42.844 Y8.869
X42.849 Y8.953
X42.863 Y9.115
X42.871 Y9.195
X42.893 Y9.364
X42.903 Y9.436
X42.933 Y9.612
X42.953 Y9.714
X43.038 Y10.083
X43.07 Y10.206
X43.186 Y10.587
X43.225 Y10.701
X43.371 Y11.087
X43.416 Y11.194
X43.589 Y11.576
X43.636 Y11.672
X43.835 Y12.048
X43.88 Y12.129
X44.101 Y12.5
X44.139 Y12.561
X44.379 Y12.929
X44.405 Y12.967
X44.659 Y13.337
X44.667 Y13.349
X45.188 Y14.093
X45.37 Y14.365
X45.337 Y14.384
X45.125 Y14.51
X45.056 Y14.553
X44.86 Y14.682
X44.79 Y14.73
X44.61 Y14.861
X44.54 Y14.914
X44.378 Y15.045
X44.309 Y15.103
X44.163 Y15.233
X44.1 Y15.292
X43.968 Y15.421
X43.911 Y15.479
X43.791 Y15.608
X43.724 Y15.683
X43.506 Y15.945
X43.437 Y16.034
X43.236 Y16.308
X43.161 Y16.419
X42.975 Y16.717
X42.907 Y16.836
X42.822 Y16.997
X42.773 Y17.099
X42.697 Y17.271
X42.649 Y17.389
X42.583 Y17.571
X42.543 Y17.696
X42.488 Y17.889
X42.457 Y18.018
X42.416 Y18.22
X42.395 Y18.341
X42.367 Y18.551
X42.356 Y18.662
X42.341 Y18.878
X42.336 Y18.976
X42.333 Y19.195
X42.335 Y19.312
X42.356 Y19.75
X42.366 Y19.867
X42.414 Y20.288
X42.425 Y20.372
X42.489 Y20.765
X42.503 Y20.839
X42.579 Y21.207
X42.597 Y21.286
X42.688 Y21.642
X42.71 Y21.721
X42.819 Y22.082
X42.841 Y22.15
X42.971 Y22.523
X42.99 Y22.576
X43.136 Y22.959
X43.151 Y22.996
X43.305 Y23.373
X43.316 Y23.4
X43.467 Y23.755
X43.474 Y23.771
X43.615 Y24.092
X43.616 Y24.095
X43.74 Y24.377
X43.85 Y24.63
X43.957 Y24.878
X43.97 Y24.907
X44.091 Y25.173
X44.109 Y25.213
X44.181 Y25.362
X44.198 Y25.395
X44.281 Y25.559
X44.297 Y25.59
X44.395 Y25.773
X44.411 Y25.802
X44.525 Y26.006
X44.538 Y26.03
X44.67 Y26.258
X44.682 Y26.278
X44.832 Y26.53
X44.842 Y26.547
X45.012 Y26.824
X45.02 Y26.838
X45.209 Y27.141
X45.215 Y27.151
X45.423 Y27.479
X45.428 Y27.486
X45.653 Y27.839
X45.657 Y27.845
X45.898 Y28.22
X45.901 Y28.224
X46.158 Y28.62
X46.159 Y28.622
X46.429 Y29.037
X46.43 Y29.038
X46.712 Y29.47
X47.002 Y29.915
X47.298 Y30.371
X47.902 Y31.306
X48.508 Y32.252
X49.1 Y33.193
X49.67 Y34.115
X49.942 Y34.563
X50.019 Y34.691
G2 X50.264 Y34.806 I0.209 J-0.126
G3 X50.508 Y34.921 I0.036 J0.239
G1 X50.722 Y35.28
X50.97 Y35.701
X51.21 Y36.111
X51.441 Y36.51
X51.664 Y36.899
X51.878 Y37.276
X52.085 Y37.643
X52.283 Y37.999
X52.474 Y38.345
X52.658 Y38.681
X53.007 Y39.33
X53.33 Y39.948
X53.629 Y40.544
X53.905 Y41.126
X54.16 Y41.704
X54.393 Y42.286
X54.606 Y42.878
X54.796 Y43.482
X54.962 Y44.093
X55.102 Y44.705
X55.158 Y44.991
X55.207 Y45.274
X55.246 Y45.545
X55.277 Y45.799
X55.298 Y46.031
X55.3 Y46.06
X54.619 Y46.096
X54.608
X53.708 Y46.15
X53.697 Y46.151
X52.806 Y46.21
X52.794 Y46.211
X51.912 Y46.277
X51.899 Y46.278
X51.027 Y46.351
X51.014 Y46.352
X50.152 Y46.433
X50.138 Y46.434
X49.287 Y46.521
X49.272 Y46.523
X48.433 Y46.618
X48.417 Y46.62
X47.589 Y46.723
X47.573 Y46.725
X46.756 Y46.835
X46.741 Y46.838
X45.934 Y46.955
X45.919 Y46.957
X45.122 Y47.081
X45.108 Y47.083
X44.321 Y47.214
X44.306 Y47.216
X43.528 Y47.353
X43.514 Y47.356
X42.745 Y47.499
G2 X42.029 Y47.846 I0.274 J1.475
G1 X41.833 Y48.018
X41.807 Y48.042
X41.621 Y48.213
X41.593 Y48.239
X41.417 Y48.41
X41.388 Y48.438
X41.223 Y48.608
X41.193 Y48.639
X41.037 Y48.808
X41.006 Y48.842
X40.86 Y49.011
X40.829 Y49.049
X40.693 Y49.216
X40.661 Y49.257
X40.535 Y49.423
X40.502 Y49.469
X40.387 Y49.635
X40.353 Y49.684
X40.248 Y49.849
X40.199 Y49.932
X40.017 Y50.26
X39.955 Y50.387
X39.813 Y50.712
X39.784 Y50.784
X39.759 Y50.858
X39.657 Y51.18
X39.634 Y51.261
X39.615 Y51.344
X39.552 Y51.663
X39.538 Y51.751
X39.528 Y51.839
X39.505 Y52.155
X39.5 Y52.246
X39.502 Y52.337
X39.516 Y52.65
X39.523 Y52.74
X39.535 Y52.829
X39.587 Y53.14
X39.603 Y53.224
X39.625 Y53.307
X39.713 Y53.615
X39.737 Y53.691
X39.765 Y53.765
X39.889 Y54.071
X39.949 Y54.202
X40.108 Y54.505
X40.171 Y54.615
X40.363 Y54.917
X40.426 Y55.008
X40.648 Y55.308
X40.708 Y55.382
X40.96 Y55.68
X41.014 Y55.74
X41.294 Y56.036
X41.341 Y56.084
X41.646 Y56.38
X41.688 Y56.418
X42.015 Y56.712
X42.05 Y56.742
X42.397 Y57.035
X42.426 Y57.059
X42.791 Y57.352
X42.813 Y57.369
X43.193 Y57.662
X43.216 Y57.68
X44.006 Y58.266
X44.02 Y58.276
X44.83 Y58.863
X45.628 Y59.445
X46.392 Y60.023
X46.746 Y60.303
X47.087 Y60.584
X47.409 Y60.861
X47.711 Y61.134
X47.991 Y61.403
X48.249 Y61.667
X48.485 Y61.925
X48.698 Y62.177
X48.889 Y62.422
X49.06 Y62.661
X49.212 Y62.893
X49.347 Y63.119
X49.467 Y63.339
X49.574 Y63.553
X49.669 Y63.763
X49.757 Y63.969
X49.839 Y64.175
X49.918 Y64.381
X49.995 Y64.583
X50.002 Y64.601
X50.077 Y64.789
X50.094 Y64.83
X50.169 Y65.003
X50.201 Y65.072
X50.279 Y65.23
X50.331 Y65.326
X50.415 Y65.469
X50.494 Y65.59
X50.587 Y65.719
X50.64 Y65.787
X50.696 Y65.852
X50.802 Y65.967
X50.868 Y66.035
X50.938 Y66.098
X51.058 Y66.2
X51.132 Y66.258
X51.209 Y66.312
X51.347 Y66.402
X51.418 Y66.446
X51.493 Y66.486
X51.649 Y66.564
X51.782 Y66.623
X51.959 Y66.692
X52.07 Y66.729
X52.268 Y66.789
X52.358 Y66.813
X52.578 Y66.864
X52.649 Y66.879
X52.889 Y66.923
X52.946 Y66.932
X53.205 Y66.969
X53.251 Y66.975
X53.525 Y67.005
X53.581 Y67.011
X54.16 Y67.053
X54.222 Y67.057
X54.812 Y67.076
X54.855 Y67.077
X55.143 Y67.078
X55.17
X55.447 Y67.074
X55.475 Y67.073
X55.736 Y67.064
X55.764 Y67.063
X56.007 Y67.051
X56.033 Y67.049
X56.226 Y67.036
X56.233 Y67.124
X56.241 Y67.45
X56.232 Y67.829
X56.217 Y68.257
X56.216 Y68.292
X56.21 Y68.732
X56.211 Y68.819
X56.231 Y69.253
X56.238 Y69.35
X56.261 Y69.56
X56.272 Y69.642
X56.306 Y69.845
X56.325 Y69.94
X56.37 Y70.135
X56.4 Y70.242
X56.457 Y70.427
X56.5 Y70.547
X56.571 Y70.719
X56.631 Y70.849
X56.715 Y71.008
X56.753 Y71.077
X56.795 Y71.144
X56.891 Y71.287
X56.941 Y71.357
X56.994 Y71.423
X57.102 Y71.55
X57.161 Y71.616
X57.224 Y71.678
X57.343 Y71.789
X57.411 Y71.849
X57.483 Y71.905
X57.612 Y71.998
X57.685 Y72.048
X57.76 Y72.093
X57.897 Y72.17
X57.973 Y72.21
X58.051 Y72.245
X58.194 Y72.305
X58.269 Y72.334
X58.345 Y72.359
X58.492 Y72.403
X58.64 Y72.439
X58.791 Y72.467
X58.933 Y72.488
X59.084 Y72.501
X59.222 Y72.508
X59.372
X59.507 Y72.502
X59.654 Y72.488
X59.785 Y72.471
X59.929 Y72.445
X60.061 Y72.414
X60.2 Y72.376
X60.33 Y72.334
X60.463 Y72.284
X60.59 Y72.229
X60.718 Y72.167
X60.84 Y72.101
X60.961 Y72.027
X61.076 Y71.95
X61.191 Y71.865
X61.294 Y71.781
X61.403 Y71.684
X61.484 Y71.608
X62.128 Y70.946
X62.134 Y70.939
X62.765 Y70.283
X62.772 Y70.276
X63.389 Y69.625
X63.396 Y69.617
X64.001 Y68.971
X64.008 Y68.963
X64.599 Y68.323
X64.607 Y68.314
X65.184 Y67.679
X65.192 Y67.671
X65.755 Y67.041
X65.763 Y67.032
X66.312 Y66.408
X66.32 Y66.398
X66.854 Y65.78
X66.863 Y65.769
X67.381 Y65.157
X67.391 Y65.145
X67.893 Y64.54
X67.904 Y64.527
X68.389 Y63.929
X68.401 Y63.915
X68.869 Y63.323
X68.881 Y63.307
X69.331 Y62.723
X69.344 Y62.706
X69.776 Y62.128
X69.79 Y62.11
X70.203 Y61.54
X70.217 Y61.521
X70.612 Y60.958
X70.627 Y60.937
X71.002 Y60.382
X71.017 Y60.359
X71.372 Y59.812
X71.388 Y59.787
X71.723 Y59.248
X71.739 Y59.222
X72.055 Y58.69
X72.071 Y58.663
X72.367 Y58.139
X72.383 Y58.109
X72.66 Y57.594
X72.676 Y57.563
X72.933 Y57.055
X72.949 Y57.022
X73.188 Y56.522
X73.203 Y56.487
X73.423 Y55.994
X73.439 Y55.959
X73.641 Y55.473
X73.655 Y55.435
X73.839 Y54.956
X73.854 Y54.917
X74.02 Y54.445
X74.034 Y54.404
X74.183 Y53.939
X74.196 Y53.897
X74.328 Y53.438
X74.34 Y53.393
X74.455 Y52.942
X74.478 Y52.837
X74.493 Y52.731
X74.59 Y51.83
X74.591 Y51.816
X74.677 Y50.936
X74.678 Y50.921
X74.753 Y50.063
X74.754 Y50.046
X74.818 Y49.21
X74.819 Y49.193
X74.872 Y48.378
X74.873 Y48.36
X74.915 Y47.567
X74.916 Y47.548
X74.947 Y46.777
Y46.756
X74.967 Y46.006
X74.968 Y45.985
X74.977 Y45.256
X74.978 Y45.234
X74.977 Y44.525
X74.976 Y44.503
X74.965 Y43.813
Y43.791
X74.944 Y43.121
X74.943 Y43.098
X74.913 Y42.446
X74.911 Y42.423
X74.872 Y41.789
X74.87 Y41.767
X74.823 Y41.149
X74.821 Y41.127
X74.766 Y40.524
X74.764 Y40.504
X74.702 Y39.914
X74.7 Y39.896
X74.632 Y39.317
X74.629 Y39.296
X74.48 Y38.162
X74.477 Y38.145
X74.158 Y35.918
X74.009 Y34.799
X73.94 Y34.237
X73.877 Y33.666
X73.819 Y33.086
X73.768 Y32.497
X73.723 Y31.898
X73.685 Y31.288
X73.654 Y30.669
X73.631 Y30.045
X73.603 Y28.76
X73.599 Y27.459
X73.61 Y26.152
X73.626 Y24.863
Y24.856
X73.631 Y24.227
Y24.216
Y23.603
Y23.584
X73.623 Y22.991
Y22.964
X73.606 Y22.393
X73.604 Y22.358
X73.575 Y21.812
X73.572 Y21.767
X73.529 Y21.249
X73.523 Y21.194
X73.464 Y20.705
X73.454 Y20.637
X73.378 Y20.18
X73.362 Y20.1
X73.267 Y19.675
X73.244 Y19.584
X73.13 Y19.192
X73.097 Y19.092
X72.964 Y18.732
X72.921 Y18.627
X72.77 Y18.297
X72.718 Y18.194
X72.551 Y17.892
X72.492 Y17.796
X72.311 Y17.52
X72.25 Y17.434
X72.057 Y17.18
X71.999 Y17.109
X71.796 Y16.874
X71.745 Y16.818
X71.535 Y16.598
X71.491 Y16.554
X71.337 Y16.405
G2 X70.914 Y15.506 I-1.492 J0.153
G1 X70.939 Y15.421
X70.988 Y15.29
X71.055 Y15.139
X71.137 Y14.971
X71.23 Y14.799
X71.468 Y14.401
X71.736 Y13.994
X72.027 Y13.574
X72.325 Y13.15
X72.336 Y13.134
X72.624 Y12.713
X72.651 Y12.672
X72.918 Y12.252
X72.957 Y12.187
X73.198 Y11.763
X73.243 Y11.678
X73.453 Y11.245
X73.497 Y11.148
X73.673 Y10.709
X73.702 Y10.63
X73.776 Y10.411
X73.793 Y10.355
X73.857 Y10.138
X73.873 Y10.081
X73.927 Y9.867
X73.941 Y9.806
X73.984 Y9.598
X73.996 Y9.534
X74.028 Y9.334
X74.038 Y9.264
X74.059 Y9.074
X74.066 Y8.996
X74.077 Y8.816
X74.08 Y8.732
X74.081 Y8.564
X74.079 Y8.471
X74.07 Y8.316
X74.06 Y8.211
X74.042 Y8.07
X74.023 Y7.957
X73.997 Y7.83
X73.967 Y7.71
X73.933 Y7.596
X73.892 Y7.473
X73.852 Y7.371
X73.803 Y7.26
X73.758 Y7.168
X73.693 Y7.048
X73.593 Y6.881
X73.574 Y6.851
X73.491 Y6.72
X73.483 Y6.708
X73.476 Y6.692
X73.465 Y6.662
X73.447 Y6.606
X73.425 Y6.516
X73.4 Y6.388
X73.376 Y6.222
X73.353 Y6.017
X73.333 Y5.774
X73.317 Y5.494
X73.316 Y5.465
G2 X74.062 Y5.059 I-0.315 J-1.467
G1 X74.662 Y4.459
G2 X75.101 Y3.399 I-1.061 J-1.061
G1 Y1.6
G2 X74.662 Y0.539 I-1.5 J0.
G1 X74.062 Y-0.061
G2 X73.002 Y-0.5 I-1.061 J1.061
G1 X44.218
G2 X43.157 Y-0.061 I0. J1.5
G1 X42.557 Y0.539
G2 X42.118 Y1.6 I1.061 J1.061
G1 Y3.399
G2 X42.557 Y4.459 I1.5 J0.
G1 X43.157 Y5.059
G2 X43.903 Y5.465 I1.061 J-1.061
G1 X43.896 Y5.608
X43.881 Y5.843
X43.863 Y6.049
X43.843 Y6.226
X43.821 Y6.374
X43.8 Y6.491
X43.779 Y6.58
X43.762 Y6.64
X43.75 Y6.677
X43.741 Y6.697
X43.735 Y6.71
X43.727 Y6.724
X43.562 Y6.986
X43.521 Y7.054
X43.484 Y7.125
X43.405 Y7.287
X43.372 Y7.359
X43.343 Y7.433
X43.309 Y7.526
X43.275 Y7.631
X43.246 Y7.733
X43.22 Y7.839
X43.197 Y7.951
X43.18 Y8.05
X43.163 Y8.173
X43.154 Y8.266
X43.144 Y8.399
X43.14 Y8.483
X43.138 Y8.627
Y8.706
X43.144 Y8.858
X43.148 Y8.928
X43.162 Y9.09
X43.168 Y9.157
X43.19 Y9.326
X43.199 Y9.386
X43.229 Y9.562
X43.246 Y9.647
X43.33 Y10.016
X43.357 Y10.118
X43.473 Y10.5
X43.506 Y10.595
X43.652 Y10.981
X43.689 Y11.07
X43.862 Y11.452
X43.902 Y11.532
X44.1 Y11.908
X44.138 Y11.976
X44.359 Y12.346
X44.391 Y12.397
X44.63 Y12.765
X44.652 Y12.797
X44.906 Y13.167
X44.913 Y13.177
X45.435 Y13.924
X45.675 Y14.282
X45.796 Y14.476
X45.772 Y14.489
X45.547 Y14.609
X45.491 Y14.642
X45.279 Y14.767
X45.221 Y14.803
X45.024 Y14.933
X44.966 Y14.973
X44.786 Y15.103
X44.728 Y15.148
X44.566 Y15.279
X44.508 Y15.327
X44.362 Y15.457
X44.31 Y15.506
X44.178 Y15.636
X44.131 Y15.684
X44.01 Y15.813
X43.955 Y15.875
X43.737 Y16.137
X43.679 Y16.211
X43.478 Y16.485
X43.415 Y16.578
X43.229 Y16.876
X43.173 Y16.975
X43.088 Y17.136
X43.047 Y17.221
X42.971 Y17.393
X42.931 Y17.491
X42.865 Y17.673
X42.831 Y17.778
X42.777 Y17.97
X42.751 Y18.078
X42.71 Y18.28
X42.693 Y18.381
X42.665 Y18.591
X42.655 Y18.683
X42.64 Y18.899
X42.636 Y18.981
X42.633 Y19.2
X42.634 Y19.298
X42.656 Y19.735
X42.664 Y19.833
X42.712 Y20.254
X42.722 Y20.324
X42.786 Y20.717
X42.797 Y20.779
X42.873 Y21.146
X42.888 Y21.212
X42.978 Y21.568
X42.997 Y21.634
X43.106 Y21.995
X43.124 Y22.052
X43.254 Y22.425
X43.27 Y22.469
X43.416 Y22.852
X43.428 Y22.883
X43.582 Y23.26
X43.592 Y23.282
X43.743 Y23.638
X43.749 Y23.65
X43.889 Y23.972
X43.89 Y23.974
X44.015 Y24.257
X44.125 Y24.511
X44.232 Y24.759
X44.243 Y24.783
X44.364 Y25.049
X44.379 Y25.082
X44.451 Y25.231
X44.465 Y25.259
X44.548 Y25.423
X44.562 Y25.449
X44.66 Y25.632
X44.673 Y25.656
X44.787 Y25.86
X44.798 Y25.88
X44.93 Y26.107
X44.94 Y26.125
X45.09 Y26.377
X45.098 Y26.391
X45.268 Y26.668
X45.275 Y26.679
X45.464 Y26.982
X45.469 Y26.991
X45.676 Y27.319
X45.68 Y27.325
X45.906 Y27.677
X45.909 Y27.682
X46.151 Y28.057
X46.153 Y28.06
X46.41 Y28.457
X46.411 Y28.458
X46.681 Y28.873
X46.682 Y28.875
X46.963 Y29.306
X47.253 Y29.752
X47.55 Y30.208
X48.155 Y31.143
X48.761 Y32.092
X49.354 Y33.035
X49.925 Y33.959
X50.199 Y34.407
X50.464 Y34.848
X50.508 Y34.921
G3 X50.404 Y35.333 I-0.258 J0.154
G1 X50.146 Y35.486
X50.089 Y35.52 Z0.258
X50.035 Y35.553 Z0.28
X49.986 Y35.582 Z0.315
X49.945 Y35.606 Z0.363
X49.914 Y35.625 Z0.42
X49.895 Y35.636 Z0.483
X49.889 Y35.64 Z0.55
G0 Z30.992

(Parallel4)
G64
X74.66 Y0.244
Z30.992
Z8.265
G1 Z0.55 F200
X74.653 Z0.483 F600
X74.631 Z0.42
X74.595 Z0.363
X74.547 Z0.316
X74.49 Z0.28
X74.427 Z0.258
X74.36 Z0.25
X74.346 Z0.78
X74.284 Z1.554
X74.183 Z2.313
X74.042 Z3.068
X73.864 Z3.81
X73.646 Z4.545
X73.39 Z5.268
X73.101 Z5.97
X72.776 Z6.657
X72.412 Z7.333
X72.016 Z7.985
X71.583 Z8.624
X71.118 Z9.238
X70.619 Z9.832
X70.085 Z10.405
X69.523 Z10.95
X68.928 Z11.469
X68.306 Z11.959
X67.649 Z12.423
X66.967 Z12.854
X66.265 Z13.249
X65.539 Z13.608
X64.83 Z13.913
X64.108 Z14.181
X63.373 Z14.412
X62.621 Z14.606
X61.872 Z14.759
X61.103 Z14.875
X60.345 Z14.95
X59.603 Z14.987
X57.517 Z14.983
X56.74 Z14.94
X55.975 Z14.857
X55.207 Z14.733
X54.455 Z14.572
X53.706 Z14.371
X52.973 Z14.133
X52.253 Z13.858
X51.545 Z13.544
X50.855 Z13.195
X50.178 Z12.809
X49.503 Z12.377
X48.86 Z11.918
X48.244 Z11.429
X47.651 Z10.907
X47.095 Z10.364
X46.565 Z9.791
X46.069 Z9.197
X45.604 Z8.578
X45.173 Z7.937
X44.777 Z7.278
X44.415 Z6.598
X44.088 Z5.9
X43.8 Z5.191
X43.549 Z4.468
X43.338 Z3.745
X43.161 Z2.99
X43.027 Z2.253
X42.929 Z1.494
X42.874 Z0.784
X42.859 Z0.25
X42.688 Y0.415
X42.517 Y0.588
X42.369 Y0.778
X42.307 Y0.883
X42.252 Y0.994
X42.264 Z0.718
X42.32 Z1.477
X42.415 Z2.234
X42.551 Z2.999
X42.724 Z3.749
X42.936 Z4.491
X43.186 Z5.221
X43.472 Z5.935
X43.796 Z6.635
X44.155 Z7.317
X44.549 Z7.982
X44.977 Z8.624
X45.438 Z9.245
X45.93 Z9.84
X46.45 Z10.408
X47.001 Z10.95
X47.579 Z11.463
X48.181 Z11.945
X48.809 Z12.396
X49.458 Z12.813
X50.127 Z13.196
X50.817 Z13.545
X51.521 Z13.857
X52.241 Z14.133
X52.979 Z14.372
X53.722 Z14.572
X54.48 Z14.734
X55.243 Z14.857
X56.013 Z14.94
X56.785 Z14.983
X60.321 Z14.987
X61.064 Z14.951
X61.836 Z14.875
X62.6 Z14.76
X63.354 Z14.606
X64.1 Z14.413
X64.836 Z14.182
X65.558 Z13.914
X66.268 Z13.608
X66.962 Z13.266
X67.633 Z12.89
X68.288 Z12.478
X68.919 Z12.034
X69.527 Z11.558
X70.109 Z11.051
X70.664 Z10.516
X71.192 Z9.952
X71.69 Z9.361
X72.156 Z8.745
X72.59 Z8.107
X72.991 Z7.447
X73.357 Z6.768
X73.687 Z6.071
X73.981 Z5.358
X74.239 Z4.63
X74.458 Z3.891
X74.64 Z3.139
X74.782 Z2.38
X74.886 Z1.607
X74.947 Z0.851
X74.967 Z0.251
X75.034 Y1.175 Z0.25
X75.076 Y1.361
X75.094 Y1.551
X75.095 Y1.744
X75.079 Z0.807
X75.017 Z1.583
X74.916 Z2.347
X74.777 Z3.099
X74.595 Z3.858
X74.378 Z4.598
X74.122 Z5.326
X73.83 Z6.04
X73.502 Z6.736
X73.138 Z7.415
X72.736 Z8.08
X72.303 Z8.72
X71.839 Z9.335
X71.344 Z9.925
X70.818 Z10.491
X70.265 Z11.027
X69.684 Z11.535
X69.076 Z12.014
X68.444 Z12.46
X67.795 Z12.871
X67.118 Z13.252
X66.431 Z13.593
X65.722 Z13.901
X65.001 Z14.17
X64.261 Z14.405
X63.516 Z14.599
X62.764 Z14.754
X62.019 Z14.869
X61.247 Z14.948
X60.476 Z14.987
X56.66 Z14.983
X55.935 Z14.945
X55.149 Z14.862
X54.391 Z14.742
X53.636 Z14.583
X52.881 Z14.382
X52.151 Z14.147
X51.423 Z13.87
X50.722 Z13.562
X50.029 Z13.213
X49.358 Z12.831
X48.709 Z12.416
X48.082 Z11.968
X47.478 Z11.487
X46.896 Z10.973
X46.346 Z10.434
X45.823 Z9.866
X45.33 Z9.272
X44.868 Z8.653
X44.441 Z8.013
X44.044 Z7.348
X43.684 Z6.67
X43.357 Z5.966
X43.069 Z5.252
X42.817 Z4.522
X42.603 Z3.78
X42.429 Z3.032
X42.291 Z2.268
X42.197 Z1.531
X42.138 Z0.773
X42.124 Z0.25
Y2.493
X42.138 Z0.773
X42.197 Z1.531
X42.291 Z2.268
X42.429 Z3.032
X42.603 Z3.78
X42.817 Z4.522
X43.069 Z5.252
X43.357 Z5.966
X43.684 Z6.67
X44.044 Z7.348
X44.441 Z8.013
X44.868 Z8.653
X45.33 Z9.272
X45.823 Z9.866
X46.346 Z10.434
X46.896 Z10.973
X47.478 Z11.487
X48.082 Z11.968
X48.709 Z12.416
X49.358 Z12.831
X50.029 Z13.213
X50.722 Z13.562
X51.423 Z13.87
X52.151 Z14.147
X52.881 Z14.382
X53.636 Z14.583
X54.391 Z14.742
X55.149 Z14.862
X55.935 Z14.945
X56.66 Z14.983
X60.476 Z14.987
X61.247 Z14.948
X62.019 Z14.869
X62.764 Z14.754
X63.516 Z14.599
X64.261 Z14.405
X65.001 Z14.17
X65.722 Z13.901
X66.431 Z13.593
X67.118 Z13.252
X67.795 Z12.871
X68.444 Z12.46
X69.076 Z12.014
X69.684 Z11.535
X70.265 Z11.027
X70.818 Z10.491
X71.344 Z9.925
X71.839 Z9.335
X72.303 Z8.72
X72.736 Z8.08
X73.138 Z7.415
X73.502 Z6.736
X73.83 Z6.04
X74.122 Z5.326
X74.378 Z4.598
X74.595 Z3.858
X74.777 Z3.099
X74.916 Z2.347
X75.017 Z1.583
X75.079 Z0.807
X75.095 Z0.25
Y3.243
X75.079 Z0.807
X75.017 Z1.583
X74.916 Z2.347
X74.777 Z3.099
X74.595 Z3.858
X74.378 Z4.598
X74.122 Z5.326
X73.83 Z6.04
X73.502 Z6.736
X73.138 Z7.415
X72.736 Z8.08
X72.303 Z8.72
X71.839 Z9.335
X71.344 Z9.925
X70.818 Z10.491
X70.265 Z11.027
X69.684 Z11.535
X69.076 Z12.014
X68.444 Z12.46
X67.795 Z12.871
X67.118 Z13.252
X66.431 Z13.593
X65.722 Z13.901
X65.001 Z14.17
X64.261 Z14.405
X63.516 Z14.599
X62.764 Z14.754
X62.019 Z14.869
X61.247 Z14.948
X60.476 Z14.987
X56.66 Z14.983
X55.935 Z14.945
X55.149 Z14.862
X54.391 Z14.742
X53.636 Z14.583
X52.881 Z14.382
X52.151 Z14.147
X51.423 Z13.87
X50.722 Z13.562
X50.029 Z13.213
X49.358 Z12.831
X48.709 Z12.416
X48.082 Z11.968
X47.478 Z11.487
X46.896 Z10.973
X46.346 Z10.434
X45.823 Z9.866
X45.33 Z9.272
X44.868 Z8.653
X44.441 Z8.013
X44.044 Z7.348
X43.684 Z6.67
X43.357 Z5.966
X43.069 Z5.252
X42.817 Z4.522
X42.603 Z3.78
X42.429 Z3.032
X42.291 Z2.268
X42.197 Z1.531
X42.138 Z0.773
X42.124 Z0.25
X42.125 Y3.436
X42.142 Y3.626
X42.182 Y3.811
X42.247 Y3.993
X42.259 Z0.715
X42.315 Z1.475
X42.41 Z2.232
X42.545 Z2.998
X42.719 Z3.748
X42.931 Z4.49
X43.181 Z5.22
X43.467 Z5.934
X43.791 Z6.635
X44.151 Z7.32
X44.544 Z7.982
X44.972 Z8.624
X45.433 Z9.245
X45.925 Z9.84
X46.445 Z10.408
X46.996 Z10.95
X47.574 Z11.463
X48.176 Z11.945
X48.803 Z12.396
X49.453 Z12.813
X50.121 Z13.196
X50.812 Z13.545
X51.516 Z13.857
X52.24 Z14.134
X52.974 Z14.373
X53.718 Z14.572
X54.47 Z14.733
X55.238 Z14.857
X56.013 Z14.941
X56.79 Z14.984
X60.336 Z14.987
X61.078 Z14.95
X61.836 Z14.875
X62.605 Z14.76
X63.361 Z14.605
X64.106 Z14.413
X64.841 Z14.182
X65.567 Z13.913
X66.275 Z13.607
X66.966 Z13.266
X67.641 Z12.889
X68.292 Z12.479
X68.925 Z12.033
X69.531 Z11.559
X70.113 Z11.052
X70.67 Z10.515
X71.197 Z9.951
X71.693 Z9.362
X72.16 Z8.747
X72.594 Z8.109
X72.995 Z7.449
X73.362 Z6.767
X73.693 Z6.07
X73.987 Z5.357
X74.244 Z4.629
X74.464 Z3.889
X74.645 Z3.136
X74.787 Z2.377
X74.89 Z1.615
X74.953 Z0.845
X74.972 Z0.251
X74.857 Y4.209
X74.712 Y4.4
X74.543 Y4.572
X74.372 Y4.743 Z0.25
X74.357 Z0.78
X74.295 Z1.554
X74.194 Z2.314
X74.054 Z3.069
X73.875 Z3.811
X73.658 Z4.547
X73.402 Z5.27
X73.112 Z5.972
X72.787 Z6.659
X72.423 Z7.336
X72.028 Z7.988
X71.595 Z8.627
X71.126 Z9.246
X70.627 Z9.84
X70.097 Z10.409
X69.531 Z10.958
X68.936 Z11.477
X68.309 Z11.97
X67.657 Z12.431
X66.975 Z12.862
X66.285 Z13.25
X65.562 Z13.608
X64.853 Z13.913
X64.131 Z14.181
X63.395 Z14.413
X62.649 Z14.605
X61.895 Z14.759
X61.131 Z14.875
X60.359 Z14.951
X59.616 Z14.987
X57.505 Z14.984
X56.724 Z14.94
X55.95 Z14.857
X55.183 Z14.733
X54.43 Z14.572
X53.686 Z14.373
X52.952 Z14.134
X52.229 Z13.857
X51.524 Z13.545
X50.851 Z13.206
X50.173 Z12.82
X49.494 Z12.385
X48.846 Z11.922
X48.231 Z11.433
X47.642 Z10.914
X47.081 Z10.366
X46.555 Z9.797
X46.056 Z9.199
X45.591 Z8.579
X45.161 Z7.939
X44.764 Z7.279
X44.403 Z6.6
X44.079 Z5.908
X43.791 Z5.2
X43.539 Z4.477
X43.326 Z3.741
X43.151 Z3.
X43.014 Z2.245
X42.917 Z1.484
X42.861 Z0.77
X42.848 Z0.25
X42.964 Y4.86 Z0.252
X43.081 Y4.976 Z0.254
X43.198 Y5.092 Z0.256
X43.322 Y5.197 Z0.257
X43.457 Y5.287 Z0.259
X43.602 Y5.363 Z0.261
X43.758 Y5.424 Z0.263
X43.908 Y5.493 Z0.264
X43.917 Z0.605
X43.934 Z0.921
X43.961 Z1.24
X43.999 Z1.591
X44.046 Z1.941
X44.105 Z2.303
X44.17 Z2.647
X44.251 Z3.015
X44.338 Z3.365
X44.436 Z3.715
X44.546 Z4.072
X44.666 Z4.427
X44.794 Z4.771
X44.937 Z5.124
X45.087 Z5.468
X45.252 Z5.818
X45.427 Z6.161
X45.614 Z6.503
X45.859 Z6.92
X45.985 Z7.13
X46.377 Z7.777
X46.8 Z8.399
X47.256 Z8.999
X47.742 Z9.575
X48.257 Z10.122
X48.802 Z10.646
X49.371 Z11.137
X49.966 Z11.598
X50.587 Z12.029
X51.226 Z12.425
X51.885 Z12.788
X52.564 Z13.116
X53.258 Z13.408
X53.97 Z13.664
X54.693 Z13.882
X55.422 Z14.061
X56.168 Z14.203
X56.947 Z14.309
X57.732 Z14.372
X58.564 Z14.397
X59.397 Z14.377
X60.163 Z14.319
X60.912 Z14.225
X61.657 Z14.09
X62.389 Z13.919
X63.115 Z13.708
X63.824 Z13.46
X64.52 Z13.176
X65.203 Z12.855
X65.865 Z12.499
X66.51 Z12.109
X67.135 Z11.684
X67.732 Z11.23
X68.309 Z10.743
X68.858 Z10.227
X69.38 Z9.683
X69.871 Z9.114
X70.332 Z8.519
X70.762 Z7.9
X71.105 Z7.349
X71.251 Z7.098
X71.446 Z6.777
X71.73 Z6.278
X71.99 Z5.77
X72.226 Z5.256
X72.439 Z4.735
X72.629 Z4.207
X72.792 Z3.686
X72.935 Z3.152
X73.053 Z2.63
X73.148 Z2.105
X73.222 Z1.58
X73.275 Z1.051
X73.305 Z0.564
X73.313 Z0.25
X73.323 Y5.681 Z0.253
X73.337 Y5.869 Z0.256
X73.354 Y6.056 Z0.258
X73.376 Y6.243 Z0.261
X73.362 Z0.63
X73.336 Z1.055
X73.283 Z1.586
X73.208 Z2.119
X73.112 Z2.645
X72.995 Z3.168
X72.852 Z3.701
X72.686 Z4.232
X72.495 Z4.761
X72.283 Z5.282
X72.043 Z5.803
X71.782 Z6.312
X71.495 Z6.817
X71.183 Z7.314
X70.85 Z7.795
X70.497 Z8.262
X70.118 Z8.718
X69.722 Z9.155
X69.303 Z9.576
X68.865 Z9.98
X68.414 Z10.36
X67.933 Z10.731
X67.442 Z11.075
X66.934 Z11.4
X66.383 Z11.719
X65.628 Z12.112
X65.026 Z12.394
X64.376 Z12.67
X63.734 Z12.906
X63.129 Z13.1
X62.51 Z13.271
X61.886 Z13.415
X61.424 Z13.504
X60.989 Z13.576
X60.58 Z13.632
X60.152 Z13.679
X59.73 Z13.714
X59.353 Z13.735
X58.569 Z13.753
X57.725 Z13.729
X57.285 Z13.698
X56.838 Z13.655
X56.417 Z13.603
X56.01 Z13.541
X55.596 Z13.467
X55.181 Z13.382
X54.764 Z13.284
X54.355 Z13.176
X53.943 Z13.055
X53.546 Z12.927
X53.139 Z12.782
X52.745 Z12.63
X52.356 Z12.466
X51.878 Z12.25
X51.493 Z12.062
X50.915 Z11.761
X50.532 Z11.546
X50.158 Z11.321
X49.822 Z11.105
X49.501 Z10.885
X49.173 Z10.646
X48.852 Z10.398
X48.548 Z10.148
X48.25 Z9.887
X47.961 Z9.62
X47.681 Z9.344
X47.405 Z9.056
X47.144 Z8.767
X46.886 Z8.463
X46.641 Z8.158
X46.406 Z7.846
X46.179 Z7.527
X45.961 Z7.199
X45.754 Z6.866
X45.557 Z6.529
X45.373 Z6.192
X45.199 Z5.849
X45.033 Z5.499
X44.883 Z5.155
X44.741 Z4.804
X44.609 Z4.45
X44.489 Z4.096
X44.378 Z3.739
X44.278 Z3.379
X44.191 Z3.028
X44.113 Z2.673
X44.045 Z2.316
X43.986 Z1.954
X43.939 Z1.605
X43.901 Z1.252
X43.874 Z0.937
X43.857 Z0.64
X43.847 Z0.25
X43.815 Y6.445 Z0.253
X43.766 Y6.641 Z0.257
X43.673 Y6.82 Z0.26
X43.564 Y6.993 Z0.263
X43.575 Z0.689
X43.617 Z1.267
X43.686 Z1.869
X43.769 Z2.397
X43.841 Z2.771
X43.922 Z3.138
X44.012 Z3.502
X44.116 Z3.874
X44.232 Z4.25
X44.356 Z4.614
X44.493 Z4.983
X44.639 Z5.342
X44.799 Z5.708
X44.971 Z6.072
X45.152 Z6.427
X45.345 Z6.781
X45.549 Z7.129
X45.763 Z7.473
X45.992 Z7.817
X46.229 Z8.151
X46.475 Z8.477
X46.73 Z8.796
X47.043 Z9.162
X47.441 Z9.592
X47.779 Z9.931
X48.158 Z10.285
X48.625 Z10.685
X49.011 Z10.99
X49.42 Z11.291
X49.761 Z11.524
X50.117 Z11.753
X50.48 Z11.972
X50.849 Z12.179
X51.214 Z12.37
X51.564 Z12.542
X51.879 Z12.687
X52.387 Z12.902
X52.938 Z13.107
X53.425 Z13.268
X53.81 Z13.381
X54.228 Z13.492
X54.617 Z13.584
X55.046 Z13.674
X55.66 Z13.779
X56.198 Z13.849
X56.677 Z13.896
X57.224 Z13.936
X57.945 Z13.958
X58.83 Z13.966
X59.849 Z13.943
X60.217 Z13.922
X60.677 Z13.884
X61.252 Z13.822
X61.832 Z13.736
X62.38 Z13.633
X63.037 Z13.481
X63.622 Z13.32
X64.161 Z13.149
X64.715 Z12.947
X65.304 Z12.704
X65.869 Z12.439
X66.434 Z12.145
X66.985 Z11.825
X67.503 Z11.494
X67.98 Z11.161
X68.466 Z10.788
X68.936 Z10.395
X69.386 Z9.982
X69.823 Z9.546
X70.262 Z9.064
X70.66 Z8.585
X71.032 Z8.094
X71.379 Z7.592
X71.705 Z7.072
X72.003 Z6.549
X72.277 Z6.014
X72.522 Z5.479
X72.748 Z4.928
X72.944 Z4.38
X73.117 Z3.83
X73.263 Z3.284
X73.383 Z2.748
X73.476 Z2.244
X73.554 Z1.701
X73.607 Z1.206
X73.643 Z0.667
X73.656 Z0.25
X73.756 Y7.172
X73.84 Y7.357
X73.913 Y7.546
X73.97 Y7.743
X73.962 Z0.57
X73.93 Z1.104
X73.874 Z1.661
X73.797 Z2.21
X73.695 Z2.768
X73.572 Z3.318
X73.423 Z3.875
X73.247 Z4.436
X73.048 Z4.99
X72.825 Z5.535
X72.576 Z6.078
X72.299 Z6.619
X71.998 Z7.148
X71.673 Z7.665
X71.299 Z8.204
X70.925 Z8.693
X70.531 Z9.165
X70.115 Z9.621
X69.678 Z10.058
X69.221 Z10.477
X68.747 Z10.874
X68.259 Z11.248
X67.755 Z11.599
X67.239 Z11.926
X66.745 Z12.211
X66.206 Z12.493
X65.651 Z12.752
X65.086 Z12.988
X64.508 Z13.2
X63.901 Z13.393
X63.339 Z13.546
X62.749 Z13.679
X62.232 Z13.775
X61.629 Z13.86
X61.185 Z13.907
X60.77 Z13.94
X60.402 Z13.958
X59.826 Z13.972
X57.257 Z13.969
X56.565 Z13.948
X56.071 Z13.91
X55.648 Z13.867
X55.068 Z13.789
X54.515 Z13.688
X53.948 Z13.564
X53.407 Z13.419
X52.855 Z13.25
X52.39 Z13.086
X52.001 Z12.935
X51.624 Z12.777
X51.255 Z12.609
X50.889 Z12.43
X50.523 Z12.238
X50.077 Z11.985
X49.646 Z11.719
X49.117 Z11.361
X48.721 Z11.069
X48.333 Z10.762
X47.844 Z10.341
X47.481 Z10.001
X47.135 Z9.653
X46.722 Z9.205
X46.379 Z8.799
X46.082 Z8.422
X45.737 Z7.949
X45.425 Z7.478
X45.243 Z7.183
X45.046 Z6.846
X44.855 Z6.497
X44.671 Z6.135
X44.502 Z5.779
X44.339 Z5.406
X44.19 Z5.038
X44.053 Z4.669
X43.926 Z4.295
X43.812 Z3.928
X43.706 Z3.546
X43.615 Z3.183
X43.531 Z2.802
X43.46 Z2.428
X43.401 Z2.068
X43.351 Z1.701
X43.31 Z1.328
X43.281 Z0.982
X43.263 Z0.701
X43.25 Z0.25
X43.227 Y7.835 Z0.253
X43.208 Y7.928 Z0.255
X43.192 Y8.021 Z0.258
X43.178 Y8.115 Z0.26
X43.166 Y8.209 Z0.263
X43.158 Y8.303 Z0.266
X43.151 Y8.398 Z0.268
X43.147 Y8.493 Z0.271
X43.158 Z0.681
X43.176 Z0.975
X43.205 Z1.324
X43.245 Z1.699
X43.296 Z2.067
X43.358 Z2.446
X43.429 Z2.819
X43.51 Z3.186
X43.603 Z3.561
X43.709 Z3.941
X43.825 Z4.317
X43.953 Z4.69
X44.09 Z5.06
X44.239 Z5.427
X44.399 Z5.792
X44.571 Z6.156
X44.755 Z6.518
X44.949 Z6.873
X45.156 Z7.227
X45.374 Z7.576
X45.607 Z7.925
X45.949 Z8.4
X46.26 Z8.798
X46.573 Z9.17
X46.973 Z9.612
X47.362 Z10.004
X47.709 Z10.331
X48.141 Z10.711
X48.597 Z11.075
X48.984 Z11.362
X49.435 Z11.673
X49.941 Z11.989
X50.363 Z12.232
X50.869 Z12.499
X51.393 Z12.746
X51.856 Z12.944
X52.456 Z13.172
X52.934 Z13.331
X53.501 Z13.497
X54.037 Z13.628
X54.607 Z13.745
X55.163 Z13.834
X55.744 Z13.904
X56.29 Z13.947
X56.97 Z13.968
X60.004 Z13.972
X60.753 Z13.956
X61.228 Z13.927
X61.779 Z13.87
X62.378 Z13.785
X62.889 Z13.691
X63.479 Z13.557
X64.041 Z13.405
X64.601 Z13.228
X65.159 Z13.025
X65.71 Z12.797
X66.258 Z12.543
X66.796 Z12.265
X67.327 Z11.96
X67.843 Z11.633
X68.349 Z11.28
X68.84 Z10.904
X69.314 Z10.507
X69.771 Z10.088
X70.21 Z9.649
X70.628 Z9.191
X71.024 Z8.716
X71.424 Z8.192
X71.772 Z7.688
X72.098 Z7.168
X72.399 Z6.639
X72.676 Z6.098
X72.925 Z5.556
X73.151 Z5.004
X73.351 Z4.448
X73.526 Z3.888
X73.675 Z3.331
X73.798 Z2.78
X73.899 Z2.228
X73.977 Z1.677
X74.033 Z1.12
X74.065 Z0.585
X74.074 Z0.274
X74.076 Y8.587 Z0.271
Y8.681 Z0.268
X74.073 Y8.775 Z0.265
X74.07 Y8.869 Z0.262
X74.064 Y8.962 Z0.259
X74.056 Y9.056 Z0.256
X74.046 Y9.149 Z0.253
X74.035 Y9.243 Z0.25
X74.023 Z0.646
X73.99 Z1.159
X73.94 Z1.659
X73.863 Z2.21
X73.761 Z2.769
X73.638 Z3.321
X73.486 Z3.888
X73.314 Z4.438
X73.114 Z4.994
X72.889 Z5.545
X72.64 Z6.088
X72.365 Z6.623
X72.064 Z7.152
X71.738 Z7.671
X71.392 Z8.173
X71.02 Z8.664
X70.626 Z9.138
X70.21 Z9.597
X69.771 Z10.04
X69.316 Z10.459
X68.842 Z10.859
X68.355 Z11.234
X67.849 Z11.589
X67.331 Z11.92
X66.798 Z12.229
X66.258 Z12.51
X65.71 Z12.767
X65.146 Z13.002
X64.545 Z13.221
X63.985 Z13.398
X63.423 Z13.55
X62.833 Z13.684
X62.322 Z13.778
X61.723 Z13.864
X61.325 Z13.906
X60.926 Z13.938
X60.65 Z13.955
X59.958 Z13.972
X57.114 Z13.968
X56.463 Z13.949
X55.997 Z13.915
X55.6 Z13.876
X55.041 Z13.802
X54.469 Z13.701
X53.934 Z13.585
X53.366 Z13.436
X52.873 Z13.287
X52.276 Z13.079
X51.917 Z12.939
X51.569 Z12.793
X51.207 Z12.629
X50.834 Z12.446
X50.475 Z12.257
X50.121 Z12.059
X49.774 Z11.849
X49.426 Z11.626
X49.088 Z11.395
X48.755 Z11.152
X48.43 Z10.901
X48.116 Z10.642
X47.803 Z10.369
X47.5 Z10.089
X47.207 Z9.801
X46.918 Z9.5
X46.646 Z9.198
X46.376 Z8.882
X46.116 Z8.558
X45.87 Z8.231
X45.633 Z7.896
X45.407 Z7.557
X45.189 Z7.209
X44.985 Z6.86
X44.791 Z6.505
X44.607 Z6.143
X44.435 Z5.78
X44.275 Z5.415
X44.126 Z5.048
X43.989 Z4.678
X43.862 Z4.305
X43.745 Z3.928
X43.642 Z3.558
X43.548 Z3.182
X43.468 Z2.816
X43.396 Z2.444
X43.334 Z2.063
X43.284 Z1.695
X43.243 Z1.316
X43.213 Z0.96
X43.193 Z0.551
X43.186 Z0.25
X43.214 Y9.432
X43.246 Y9.62
X43.288 Y9.806
X43.331 Y9.993
X43.347 Z0.785
X43.388 Z1.32
X43.427 Z1.682
X43.477 Z2.05
X43.537 Z2.413
X43.608 Z2.787
X43.689 Z3.155
X43.783 Z3.529
X43.886 Z3.9
X43.999 Z4.267
X44.126 Z4.639
X44.264 Z5.009
X44.409 Z5.368
X44.569 Z5.734
X44.741 Z6.097
X44.922 Z6.453
X45.116 Z6.807
X45.32 Z7.156
X45.534 Z7.499
X45.763 Z7.843
X45.997 Z8.172
X46.243 Z8.498
X46.499 Z8.818
X46.765 Z9.13
X47.042 Z9.436
X47.326 Z9.733
X47.623 Z10.025
X47.925 Z10.305
X48.237 Z10.577
X48.555 Z10.839
X48.881 Z11.091
X49.214 Z11.333
X49.557 Z11.568
X49.903 Z11.79
X50.237 Z11.992
X50.556 Z12.172
X51.074 Z12.444
X51.579 Z12.681
X52.047 Z12.88
X52.428 Z13.028
X52.812 Z13.164
X53.208 Z13.293
X53.6 Z13.408
X53.973 Z13.507
X54.369 Z13.601
X54.956 Z13.719
X55.491 Z13.804
X55.892 Z13.855
X56.367 Z13.904
X56.856 Z13.941
X57.721 Z13.966
X59.09 Z13.972
X60.13 Z13.95
X60.521 Z13.931
X61.004 Z13.89
X61.504 Z13.834
X62.119 Z13.744
X62.645 Z13.646
X63.265 Z13.503
X63.862 Z13.338
X64.459 Z13.147
X65.02 Z12.941
X65.545 Z12.723
X66.087 Z12.471
X66.662 Z12.174
X67.196 Z11.865
X67.719 Z11.53
X68.226 Z11.175
X68.717 Z10.796
X69.196 Z10.393
X69.651 Z9.973
X70.086 Z9.535
X70.502 Z9.076
X70.896 Z8.602
X71.264 Z8.115
X71.611 Z7.613
X71.934 Z7.099
X72.231 Z6.576
X72.505 Z6.042
X72.754 Z5.5
X72.976 Z4.956
X73.173 Z4.408
X73.348 Z3.849
X73.494 Z3.303
X73.618 Z2.754
X73.719 Z2.196
X73.794 Z1.669
X73.845 Z1.168
X73.879 Z0.648
X73.891 Z0.25
X73.839 Y10.182
X73.784 Y10.371
X73.722 Y10.557
X73.655 Y10.743
X73.64 Z0.661
X73.607 Z1.159
X73.554 Z1.668
X73.478 Z2.201
X73.385 Z2.709
X73.262 Z3.259
X73.116 Z3.803
X72.947 Z4.344
X72.75 Z4.891
X72.531 Z5.428
X72.285 Z5.963
X72.014 Z6.491
X71.721 Z7.008
X71.401 Z7.517
X71.055 Z8.018
X70.69 Z8.5
X70.3 Z8.969
X69.888 Z9.424
X69.453 Z9.862
X68.998 Z10.282
X68.524 Z10.682
X68.033 Z11.06
X67.526 Z11.415
X66.98 Z11.762
X66.496 Z12.042
X65.955 Z12.323
X65.394 Z12.586
X64.814 Z12.828
X64.219 Z13.047
X63.599 Z13.246
X62.978 Z13.414
X62.398 Z13.547
X61.947 Z13.634
X61.499 Z13.707
X61.027 Z13.772
X60.533 Z13.827
X60.03 Z13.866
X59.539 Z13.891
X58.733 Z13.911
X58.25 Z13.906
X57.446 Z13.882
X56.868 Z13.843
X56.337 Z13.789
X55.909 Z13.734
X55.475 Z13.668
X55.038 Z13.59
X54.603 Z13.5
X54.094 Z13.377
X53.772 Z13.289
X53.438 Z13.19
X53.053 Z13.065
X52.663 Z12.926
X52.269 Z12.773
X51.885 Z12.612
X51.504 Z12.439
X51.133 Z12.258
X50.77 Z12.067
X50.328 Z11.815
X49.895 Z11.548
X49.419 Z11.227
X49.076 Z10.978
X48.752 Z10.726
X48.429 Z10.461
X48.122 Z10.193
X47.816 Z9.91
X47.524 Z9.622
X47.243 Z9.329
X46.966 Z9.023
X46.701 Z8.711
X46.445 Z8.392
X46.203 Z8.071
X45.969 Z7.741
X45.744 Z7.403
X45.53 Z7.06
X45.33 Z6.718
X45.14 Z6.368
X44.958 Z6.012
X44.79 Z5.656
X44.633 Z5.298
X44.488 Z4.939
X44.351 Z4.569
X44.23 Z4.215
X44.114 Z3.838
X44.013 Z3.478
X43.923 Z3.115
X43.842 Z2.747
X43.771 Z2.374
X43.712 Z2.013
X43.665 Z1.667
X43.623 Z1.289
X43.594 Z0.931
X43.577 Z0.62
X43.567 Z0.25
X43.639 Y10.934
X43.719 Y11.121
X43.802 Y11.308
X43.889 Y11.493
X43.899 Z0.609
X43.917 Z0.925
X43.943 Z1.246
X43.984 Z1.626
X44.031 Z1.973
X44.09 Z2.335
X44.158 Z2.694
X44.239 Z3.062
X44.327 Z3.413
X44.427 Z3.774
X44.541 Z4.141
X44.662 Z4.496
X44.793 Z4.849
X44.935 Z5.201
X45.079 Z5.53
X45.218 Z5.827
X45.47 Z6.326
X45.749 Z6.821
X46.005 Z7.236
X46.344 Z7.741
X46.645 Z8.15
X46.956 Z8.542
X47.218 Z8.85
X47.487 Z9.148
X47.766 Z9.44
X48.058 Z9.727
X48.356 Z10.002
X48.663 Z10.271
X48.976 Z10.528
X49.301 Z10.78
X49.634 Z11.022
X49.971 Z11.252
X50.316 Z11.474
X50.673 Z11.689
X51.03 Z11.89
X51.399 Z12.084
X51.77 Z12.266
X52.143 Z12.435
X52.47 Z12.574
X52.778 Z12.696
X53.258 Z12.87
X53.643 Z12.995
X54.053 Z13.115
X54.472 Z13.226
X54.899 Z13.326
X55.326 Z13.414
X55.767 Z13.493
X56.206 Z13.559
X56.648 Z13.614
X57.119 Z13.66
X57.673 Z13.699
X58.568 Z13.723
X59.393 Z13.705
X59.843 Z13.68
X60.299 Z13.643
X60.782 Z13.59
X61.231 Z13.528
X61.679 Z13.454
X62.158 Z13.361
X62.795 Z13.214
X63.381 Z13.053
X63.955 Z12.871
X64.543 Z12.657
X65.12 Z12.417
X65.687 Z12.151
X66.24 Z11.863
X66.779 Z11.551
X67.304 Z11.216
X67.805 Z10.864
X68.296 Z10.486
X68.761 Z10.094
X69.212 Z9.678
X69.638 Z9.248
X70.039 Z8.807
X70.397 Z8.377
X70.756 Z7.907
X71.092 Z7.423
X71.407 Z6.925
X71.697 Z6.42
X71.985 Z5.862
X72.226 Z5.338
X72.442 Z4.81
X72.636 Z4.272
X72.802 Z3.741
X72.948 Z3.197
X73.068 Z2.66
X73.163 Z2.136
X73.237 Z1.612
X73.29 Z1.087
X73.323 Z0.564
X73.33 Z0.283
X73.283 Y11.588 Z0.279
X73.185 Y11.779 Z0.271
X73.133 Y11.872 Z0.267
X73.08 Y11.965 Z0.263
X73.027 Y12.058 Z0.258
X72.919 Y12.242 Z0.25
X72.91 Z0.55
X72.881 Z1.037
X72.828 Z1.563
X72.757 Z2.068
X72.661 Z2.593
X72.544 Z3.115
X72.404 Z3.636
X72.241 Z4.157
X72.053 Z4.678
X71.844 Z5.19
X71.608 Z5.704
X71.35 Z6.207
X71.066 Z6.706
X70.757 Z7.198
X70.425 Z7.678
X70.071 Z8.145
X69.697 Z8.596
X69.296 Z9.038
X68.874 Z9.463
X68.431 Z9.871
X67.971 Z10.258
X67.49 Z10.629
X66.994 Z10.977
X66.456 Z11.318
X65.979 Z11.593
X65.458 Z11.865
X64.897 Z12.127
X64.325 Z12.366
X63.739 Z12.582
X63.143 Z12.773
X62.523 Z12.943
X61.898 Z13.087
X61.451 Z13.174
X61.018 Z13.245
X60.587 Z13.304
X60.155 Z13.351
X59.73 Z13.386
X59.364 Z13.406
X58.595 Z13.424
X57.725 Z13.401
X57.267 Z13.369
X56.82 Z13.326
X56.398 Z13.273
X55.974 Z13.209
X55.564 Z13.136
X55.15 Z13.05
X54.746 Z12.955
X54.328 Z12.845
X53.927 Z12.727
X53.533 Z12.599
X53.143 Z12.461
X52.758 Z12.311
X52.375 Z12.151
X51.996 Z11.978
X51.632 Z11.8
X51.268 Z11.608
X50.835 Z11.361
X50.361 Z11.068
X49.952 Z10.789
X49.614 Z10.543
X49.294 Z10.295
X48.982 Z10.038
X48.68 Z9.774
X48.387 Z9.503
X48.103 Z9.224
X47.828 Z8.936
X47.563 Z8.643
X47.306 Z8.341
X47.062 Z8.036
X46.828 Z7.724
X46.602 Z7.406
X46.383 Z7.077
X46.18 Z6.751
X45.987 Z6.419
X45.803 Z6.083
X45.632 Z5.747
X45.47 Z5.404
X45.32 Z5.06
X45.18 Z4.715
X45.049 Z4.362
X44.932 Z4.015
X44.825 Z3.668
X44.727 Z3.319
X44.64 Z2.967
X44.563 Z2.615
X44.497 Z2.271
X44.441 Z1.929
X44.394 Z1.582
X44.356 Z1.234
X44.33 Z0.919
X44.312 Z0.616
X44.303 Z0.267
X44.421 Y12.433 Z0.263
X44.543 Y12.62 Z0.259
X44.666 Y12.807 Z0.255
X44.792 Y12.992 Z0.25
X44.8 Z0.592
X44.815 Z0.851
X44.844 Z1.205
X44.879 Z1.524
X44.923 Z1.851
X44.976 Z2.18
X45.042 Z2.525
X45.116 Z2.866
X45.201 Z3.206
X45.298 Z3.556
X45.464 Z4.077
X45.637 Z4.553
X45.861 Z5.094
X46.07 Z5.543
X46.236 Z5.871
X46.416 Z6.201
X46.603 Z6.521
X46.8 Z6.837
X47.007 Z7.15
X47.226 Z7.459
X47.453 Z7.761
X47.694 Z8.061
X47.943 Z8.355
X48.2 Z8.639
X48.467 Z8.918
X48.742 Z9.189
X49.026 Z9.452
X49.319 Z9.709
X49.623 Z9.959
X49.928 Z10.195
X50.245 Z10.427
X50.571 Z10.65
X50.905 Z10.865
X51.244 Z11.069
X51.594 Z11.267
X51.945 Z11.451
X52.302 Z11.626
X52.666 Z11.791
X53.033 Z11.946
X53.409 Z12.092
X53.789 Z12.227
X54.174 Z12.352
X54.555 Z12.464
X54.938 Z12.566
X55.329 Z12.658
X55.695 Z12.734
X56.064 Z12.802
X56.492 Z12.868
X56.904 Z12.92
X57.32 Z12.96
X57.78 Z12.992
X58.559 Z13.014
X59.298 Z12.998
X59.653 Z12.978
X60.051 Z12.946
X60.438 Z12.905
X60.859 Z12.849
X61.26 Z12.784
X61.711 Z12.697
X62.311 Z12.559
X62.896 Z12.398
X63.473 Z12.213
X64.042 Z12.003
X64.6 Z11.771
X65.141 Z11.518
X65.675 Z11.24
X66.191 Z10.941
X66.693 Z10.62
X67.174 Z10.283
X67.641 Z9.923
X68.088 Z9.546
X68.517 Z9.151
X68.927 Z8.738
X69.312 Z8.314
X69.678 Z7.873
X70.022 Z7.42
X70.343 Z6.955
X70.638 Z6.485
X70.912 Z6.004
X71.163 Z5.515
X71.37 Z5.066
X71.575 Z4.569
X71.757 Z4.071
X71.931 Z3.522
X72.068 Z3.011
X72.18 Z2.515
X72.273 Z2.005
X72.344 Z1.5
X72.391 Z1.027
X72.418 Z0.599
X72.429 Z0.25
X72.364 Y13.086 Z0.253
X72.167 Y13.367 Z0.262
X72.101 Y13.461 Z0.266
X72.036 Y13.554 Z0.269
X71.97 Y13.648 Z0.272
X71.905 Y13.742 Z0.275
X71.889 Z0.672
X71.869 Z0.986
X71.821 Z1.459
X71.754 Z1.932
X71.665 Z2.414
X71.557 Z2.894
X71.429 Z3.371
X71.275 Z3.861
X71.104 Z4.338
X70.907 Z4.82
X70.687 Z5.297
X70.446 Z5.767
X70.182 Z6.23
X69.898 Z6.683
X69.587 Z7.132
X69.258 Z7.565
X68.907 Z7.988
X68.534 Z8.398
X68.14 Z8.795
X67.728 Z9.175
X67.295 Z9.54
X66.847 Z9.885
X66.377 Z10.215
X65.896 Z10.521
X65.397 Z10.81
X64.883 Z11.078
X64.363 Z11.321
X63.821 Z11.547
X63.275 Z11.747
X62.717 Z11.926
X62.151 Z12.081
X61.578 Z12.213
X61.161 Z12.293
X60.761 Z12.359
X60.369 Z12.411
X59.989 Z12.453
X59.595 Z12.484
X59.23 Z12.503
X58.554 Z12.518
X57.83 Z12.498
X57.345 Z12.463
X56.966 Z12.425
X56.579 Z12.376
X56.216 Z12.32
X55.842 Z12.253
X55.46 Z12.174
X55.084 Z12.085
X54.711 Z11.986
X54.344 Z11.877
X53.978 Z11.758
X53.606 Z11.626
X53.253 Z11.488
X52.894 Z11.337
X52.543 Z11.177
X52.2 Z11.009
X51.857 Z10.828
X51.525 Z10.641
X51.198 Z10.444
X50.88 Z10.239
X50.566 Z10.024
X50.258 Z9.8
X49.958 Z9.567
X49.669 Z9.328
X49.385 Z9.08
X49.114 Z8.828
X48.843 Z8.561
X48.588 Z8.295
X48.343 Z8.023
X48.105 Z7.743
X47.872 Z7.451
X47.653 Z7.159
X47.445 Z6.865
X47.245 Z6.564
X47.055 Z6.259
X46.875 Z5.95
X46.704 Z5.637
X46.543 Z5.319
X46.394 Z5.003
X46.253 Z4.68
X46.124 Z4.359
X46.005 Z4.039
X45.894 Z3.71
X45.794 Z3.382
X45.705 Z3.064
X45.624 Z2.736
X45.553 Z2.407
X45.493 Z2.093
X45.44 Z1.766
X45.399 Z1.46
X45.364 Z1.135
X45.338 Z0.814
X45.323 Z0.548
X45.316 Z0.255
X45.269 Z0.263
X45.228 Z0.284
X45.194 Z0.317
X45.173 Z0.359
X45.166 Z0.405
X45.17 Y13.749 Z0.486
X45.181 Y13.768 Z0.563
X45.199 Y13.798 Z0.636
X45.224 Y13.84 Z0.7
X45.255 Y13.891 Z0.754
X45.29 Y13.95 Z0.797
X45.329 Y14.015 Z0.826
X45.37 Y14.083 Z0.841
X45.411 Y14.152
X45.452 Y14.22 Z0.826
X45.491 Y14.284 Z0.797
X45.526 Y14.343 Z0.754
X45.557 Y14.394 Z0.7
X45.582 Y14.436 Z0.636
X45.6 Y14.467 Z0.563
X45.611 Y14.486 Z0.486
X45.615 Y14.492 Z0.405
Z0.4
X45.623 Z0.354
X45.644 Z0.312
X45.677 Z0.279
X45.719 Z0.257
X45.765 Z0.25
X45.766 Z4.198
X45.79 Z4.271
X45.831 Z4.324
X45.883 Z4.366
X45.976 Z4.414
X46.072 Z4.445
X46.157 Z4.466
X46.299 Z4.487
X46.412 Z4.495
X46.717 Z4.498
X46.838 Z4.77
X46.981 Z5.073
X47.132 Z5.372
X47.295 Z5.673
X47.469 Z5.97
X47.648 Z6.26
X47.838 Z6.545
X48.039 Z6.83
X48.247 Z7.108
X48.468 Z7.384
X48.694 Z7.651
X48.935 Z7.918
X49.193 Z8.189
X49.448 Z8.44
X49.709 Z8.683
X49.98 Z8.92
X50.256 Z9.147
X50.541 Z9.369
X50.838 Z9.586
X51.137 Z9.792
X51.445 Z9.99
X51.754 Z10.177
X52.074 Z10.357
X52.404 Z10.531
X52.733 Z10.693
X53.069 Z10.847
X53.412 Z10.992
X53.763 Z11.128
X54.1 Z11.249
X54.463 Z11.367
X54.819 Z11.473
X55.189 Z11.571
X55.552 Z11.658
X55.918 Z11.734
X56.272 Z11.799
X56.651 Z11.857
X57.04 Z11.907
X57.424 Z11.944
X57.852 Z11.974
X58.562 Z11.994
X59.252 Z11.979
X59.548 Z11.963
X59.941 Z11.931
X60.318 Z11.89
X60.687 Z11.84
X61.052 Z11.781
X61.473 Z11.7
X62.034 Z11.571
X62.587 Z11.419
X63.127 Z11.246
X63.655 Z11.053
X64.174 Z10.836
X64.673 Z10.603
X65.169 Z10.345
X65.644 Z10.07
X66.109 Z9.774
X66.559 Z9.458
X66.987 Z9.129
X67.403 Z8.779
X67.797 Z8.415
X68.178 Z8.032
X68.547 Z7.626
X68.879 Z7.226
X69.197 Z6.808
X69.49 Z6.384
X69.764 Z5.948
X70.015 Z5.508
X70.246 Z5.059
X70.456 Z4.601
X70.643 Z4.144
X70.809 Z3.684
X70.953 Z3.223
X71.078 Z2.76
X71.18 Z2.304
X71.264 Z1.849
X71.329 Z1.391
X71.376 Z0.928
X71.402 Z0.496
X71.408 Z0.25
X71.298 Y14.675
X71.193 Y14.86
X71.094 Y15.048
X71.004 Y15.242
X70.998 Z0.467
X70.972 Z0.895
X70.928 Z1.329
X70.866 Z1.766
X70.785 Z2.206
X70.686 Z2.647
X70.567 Z3.088
X70.428 Z3.529
X70.272 Z3.962
X70.091 Z4.404
X69.894 Z4.833
X69.673 Z5.263
X69.433 Z5.684
X69.165 Z6.109
X68.883 Z6.517
X68.581 Z6.915
X68.264 Z7.296
X67.922 Z7.672
X67.566 Z8.03
X67.167 Z8.397
X66.766 Z8.735
X66.357 Z9.05
X65.926 Z9.351
X65.489 Z9.63
X65.031 Z9.895
X64.554 Z10.143
X64.068 Z10.369
X63.571 Z10.576
X63.068 Z10.761
X62.492 Z10.945
X61.959 Z11.091
X61.424 Z11.215
X61.004 Z11.295
X60.64 Z11.354
X60.269 Z11.404
X59.881 Z11.445
X59.51 Z11.474
X59.19 Z11.49
X58.555 Z11.504
X57.86 Z11.484
X57.42 Z11.453
X57.042 Z11.415
X56.66 Z11.366
X56.303 Z11.31
X55.951 Z11.246
X55.602 Z11.172
X55.253 Z11.089
X54.896 Z10.994
X54.561 Z10.894
X54.171 Z10.767
X53.827 Z10.644
X53.484 Z10.51
X53.158 Z10.372
X52.83 Z10.222
X52.515 Z10.067
X52.204 Z9.903
X51.902 Z9.732
X51.603 Z9.551
X51.308 Z9.361
X51.019 Z9.162
X50.738 Z8.956
X50.471 Z8.749
X50.201 Z8.526
X49.94 Z8.297
X49.67 Z8.046
X49.425 Z7.803
X49.194 Z7.561
X48.969 Z7.312
X48.755 Z7.058
X48.545 Z6.795
X48.344 Z6.527
X48.157 Z6.262
X47.974 Z5.986
X47.792 Z5.693
X47.63 Z5.414
X47.474 Z5.125
X47.329 Z4.839
X47.193 Z4.549
X47.167 Z4.498
X45.044 Z4.494
X44.969 Z4.485
X44.875 Z4.464
X44.757 Z4.412
X44.702 Z4.37
X44.658 Z4.322
X44.628 Z4.264
X44.614 Z4.202
X44.611 Z0.25
X44.508 Y15.328
X44.408 Y15.416
X44.31 Y15.506
X44.215 Y15.599
X44.121 Y15.694
X44.03 Y15.791
X43.941 Y15.891
X43.854 Y15.992
X43.855 Z4.198
X43.869 Z4.268
X43.893 Z4.321
X43.933 Z4.373
X43.983 Z4.417
X44.064 Z4.461
X44.138 Z4.483
X44.253 Z4.497
X46.354 Z4.498
X46.58 Z4.514
X46.754 Z4.553
X46.886 Z4.608
X46.964 Z4.658
X47.016 Z4.713
X47.318 Z5.303
X47.648 Z5.879
X48.012 Z6.433
X48.408 Z6.965
X48.836 Z7.475
X49.291 Z7.956
X49.776 Z8.412
X50.285 Z8.837
X50.82 Z9.231
X51.378 Z9.594
X51.955 Z9.922
X52.55 Z10.216
X53.162 Z10.474
X53.789 Z10.696
X54.426 Z10.88
X55.075 Z11.026
X55.728 Z11.134
X56.392 Z11.202
X57.024 Z11.231
X59.648 Z11.234
X60.555 Z11.221
X61.165 Z11.173
X61.815 Z11.085
X62.47 Z10.958
X63.112 Z10.793
X63.746 Z10.59
X64.365 Z10.35
X64.969 Z10.074
X65.555 Z9.763
X66.121 Z9.418
X66.668 Z9.039
X67.19 Z8.63
X67.687 Z8.19
X68.157 Z7.721
X68.601 Z7.224
X69.013 Z6.703
X69.393 Z6.159
X69.74 Z5.594
X70.08 Z4.958
X70.084 Z4.77
X70.103 Z4.725
X70.142 Z4.662
X70.253 Z4.55
X70.315 Z4.501
X70.415 Z4.498
X70.552 Z4.483
X70.629 Z4.464
X70.716 Z4.426
X70.779 Z4.385
X70.829 Z4.335
X70.867 Z4.273
X70.876 Z4.214
X70.878 Z2.786
X70.926 Z2.605
X71.056 Z1.978
X71.152 Z1.342
X71.209 Z0.717
X71.227 Z0.25
X71.295 Y16.205
X71.358 Y16.422
X71.518 Y16.581
X71.674 Y16.742
Z3.725
X71.671 Z4.213
X71.656 Z4.278
X71.624 Z4.337
X71.576 Z4.389
X71.52 Z4.43
X71.426 Z4.472
X71.329 Z4.492
X71.246 Z4.498
X70.496 Z4.5
X70.379 Z4.528
X70.273 Z4.584
X70.198 Z4.657
X70.184 Z4.676
X70.18 Z4.957
X69.84 Z5.593
X69.491 Z6.161
X69.111 Z6.705
X68.701 Z7.224
X68.257 Z7.721
X67.787 Z8.19
X67.289 Z8.63
X66.768 Z9.039
X66.22 Z9.418
X65.655 Z9.763
X65.069 Z10.074
X64.464 Z10.35
X63.846 Z10.589
X63.212 Z10.793
X62.569 Z10.958
X61.915 Z11.085
X61.264 Z11.173
X60.655 Z11.221
X59.747 Z11.234
X56.932 Z11.231
X56.288 Z11.202
X55.637 Z11.135
X54.974 Z11.026
X54.33 Z10.881
X53.688 Z10.696
X53.061 Z10.474
X52.452 Z10.217
X51.854 Z9.922
X51.278 Z9.594
X50.722 Z9.232
X50.187 Z8.838
X49.676 Z8.411
X49.193 Z7.958
X48.735 Z7.474
X48.309 Z6.967
X47.912 Z6.433
X47.548 Z5.878
X47.218 Z5.302
X46.92 Z4.719
X46.859 Z4.659
X46.775 Z4.61
X46.639 Z4.557
X46.456 Z4.518
X46.185 Z4.498
X43.632 Z4.495
X43.555 Z4.481
X43.485 Z4.455
X43.425 Z4.416
X43.379 Z4.371
X43.343 Z4.318
X43.322 Z4.266
X43.309 Z4.198
Z0.25
X43.201 Y16.923
X43.103 Y17.108
X43.013 Y17.298
X42.931 Y17.492
X42.933 Z4.198
X42.941 Z4.261
X42.961 Z4.319
X42.985 Z4.359
X43.021 Z4.402
X43.082 Z4.45
X43.162 Z4.483
X43.233 Z4.495
X46.41 Z4.498
X46.711 Z4.517
X46.92 Z4.557
X47.072 Z4.61
X47.166 Z4.66
X47.236 Z4.722
X47.533 Z5.303
X47.864 Z5.878
X48.227 Z6.433
X48.625 Z6.967
X49.051 Z7.475
X49.508 Z7.958
X49.991 Z8.412
X50.5 Z8.836
X51.035 Z9.231
X51.593 Z9.594
X52.17 Z9.922
X52.767 Z10.217
X53.38 Z10.475
X54.007 Z10.697
X54.645 Z10.881
X55.293 Z11.027
X55.948 Z11.134
X56.605 Z11.202
X57.223 Z11.23
X59.433 Z11.234
X60.34 Z11.221
X60.95 Z11.173
X61.6 Z11.085
X62.255 Z10.958
X62.897 Z10.793
X63.531 Z10.589
X64.15 Z10.35
X64.754 Z10.073
X65.34 Z9.762
X65.906 Z9.418
X66.453 Z9.039
X66.975 Z8.629
X67.472 Z8.19
X67.943 Z7.721
X68.384 Z7.226
X68.796 Z6.705
X69.177 Z6.16
X69.525 Z5.593
X69.865 Z4.957
X69.869 Z4.645
X69.922 Z4.608
X70.055 Z4.549
X70.213 Z4.51
X70.305 Z4.5
X71.954 Z4.495
X72.034 Z4.482
X72.087 Z4.465
X72.154 Z4.428
X72.197 Z4.392
X72.241 Z4.341
X72.273 Z4.278
X72.285 Z4.228
X72.292 Z0.25
X72.414 Y17.674
X72.532 Y17.859
X72.639 Y18.049
X72.743 Y18.242
X72.738 Z4.231
X72.726 Z4.283
X72.702 Z4.336
X72.661 Z4.391
X72.609 Z4.435
X72.532 Z4.475
X72.465 Z4.492
X72.368 Z4.498
X69.381 Z4.5
X68.957 Z4.522
X68.579 Z4.575
X68.333 Z4.639
X68.19 Z4.706
X68.115 Z4.771
X68.008 Z4.99
X67.882 Z5.206
X67.659 Z5.578
X67.321 Z6.075
X66.951 Z6.557
X66.552 Z7.02
X66.121 Z7.464
X65.669 Z7.878
X65.19 Z8.269
X64.689 Z8.631
X64.177 Z8.959
X63.637 Z9.262
X63.096 Z9.527
X62.535 Z9.763
X61.977 Z9.962
X61.408 Z10.131
X60.838 Z10.266
X60.395 Z10.35
X59.976 Z10.411
X59.533 Z10.458
X59.16 Z10.484
X58.714 Z10.497
X58.21 Z10.489
X57.882 Z10.473
X57.452 Z10.435
X57.031 Z10.382
X56.591 Z10.308
X56.164 Z10.218
X55.725 Z10.107
X55.296 Z9.979
X54.873 Z9.834
X54.447 Z9.667
X54.026 Z9.482
X53.609 Z9.276
X53.202 Z9.053
X52.806 Z8.813
X52.416 Z8.553
X52.039 Z8.276
X51.668 Z7.979
X51.318 Z7.671
X50.979 Z7.346
X50.655 Z7.006
X50.348 Z6.654
X50.059 Z6.292
X49.79 Z5.922
X49.533 Z5.535
X49.301 Z5.148
X49.164 Z4.897
X49.098 Z4.759
X49.013 Z4.689
X48.881 Z4.634
X48.67 Z4.58
X48.296 Z4.525
X47.889 Z4.501
X42.993 Z4.495
X42.927 Z4.481
X42.853 Z4.446
X42.795 Z4.396
X42.745 Z4.325
X42.725 Z4.262
X42.72 Z4.198
X42.717 Z0.25
X42.686 Y18.428
X42.662 Y18.615
X42.647 Y18.803
X42.636 Y18.992
Z4.198
X42.644 Z4.266
X42.677 Z4.347
X42.723 Z4.407
X42.795 Z4.462
X42.891 Z4.493
X51.23 Z4.499
X51.667 Z4.516
X52.087 Z4.562
X52.413 Z4.629
X52.599 Z4.692
X52.691 Z4.748
X52.735 Z4.811
X52.871 Z4.968
X53.101 Z5.21
X53.346 Z5.446
X53.597 Z5.668
X53.858 Z5.879
X54.128 Z6.078
X54.411 Z6.268
X54.692 Z6.439
X54.988 Z6.603
X55.285 Z6.75
X55.588 Z6.885
X55.89 Z7.004
X56.202 Z7.112
X56.516 Z7.206
X56.824 Z7.285
X57.133 Z7.351
X57.445 Z7.404
X57.739 Z7.442
X58.03 Z7.469
X58.292 Z7.484
X58.671 Z7.491
X58.944 Z7.484
X59.26 Z7.464
X59.566 Z7.432
X59.875 Z7.388
X60.211 Z7.326
X60.617 Z7.23
X61.021 Z7.111
X61.434 Z6.964
X61.829 Z6.799
X62.224 Z6.606
X62.609 Z6.391
X62.981 Z6.154
X63.343 Z5.893
X63.683 Z5.617
X64.009 Z5.319
X64.288 Z5.032
X64.531 Z4.749
X64.614 Z4.702
X64.726 Z4.655
X64.978 Z4.591
X65.337 Z4.536
X65.81 Z4.502
X72.71 Z4.498
X72.802 Z4.492
X72.869 Z4.473
X72.954 Z4.423
X73.013 Z4.355
X73.045 Z4.293
X73.058 Z4.227
X73.062 Z0.25
X73.125 Y19.177
X73.183 Y19.364
X73.235 Y19.552
X73.284 Y19.742
X73.28 Z4.221
X73.271 Z4.28
X73.245 Z4.34
X73.211 Z4.388
X73.166 Z4.431
X73.105 Z4.468
X73.026 Z4.492
X72.944 Z4.498
X60.617 Z4.502
X59.128 Z4.516
X57.231 Z4.509
X54.97 Z4.498
X42.928 Z4.495
X42.885 Z4.487
X42.825 Z4.466
X42.758 Z4.421
X42.711 Z4.368
X42.684 Z4.32
X42.665 Z4.265
X42.655 Z4.198
Z0.25
X42.673 Y19.93
X42.694 Y20.118
X42.719 Y20.305
X42.749 Y20.492
X42.752 Z4.198
X42.758 Z4.269
X42.776 Z4.32
X42.803 Z4.368
X42.838 Z4.409
X42.875 Z4.44
X42.922 Z4.468
X42.974 Z4.486
X43.055 Z4.498
X73.119
X73.182 Z4.492
X73.221 Z4.481
X73.268 Z4.463
X73.32 Z4.429
X73.361 Z4.388
X73.393 Z4.341
X73.419 Z4.281
X73.425 Z4.233
X73.43 Z0.25
X73.461 Y20.678
X73.485 Y20.866
X73.507 Y21.054
X73.528 Y21.242
X73.523 Z4.224
X73.511 Z4.286
X73.488 Z4.341
X73.452 Z4.392
X73.405 Z4.436
X73.351 Z4.469
X73.278 Z4.492
X73.219 Z4.498
X43.182 Z4.495
X43.116 Z4.483
X43.053 Z4.459
X42.992 Z4.414
X42.952 Z4.369
X42.922 Z4.316
X42.905 Z4.272
X42.895 Z4.198
Z0.25
X42.943 Y21.43
X42.992 Y21.619
X43.047 Y21.805
X43.105 Y21.991
X43.106 Z4.107
X43.109 Z4.222
X43.119 Z4.282
X43.152 Z4.352
X43.199 Z4.409
X43.276 Z4.464
X43.35 Z4.489
X43.423 Z4.497
X73.281 Z4.498
X73.34 Z4.492
X73.37 Z4.484
X73.419 Z4.465
X73.472 Z4.431
X73.514 Z4.39
X73.549 Z4.338
X73.572 Z4.285
X73.583 Z4.221
X73.586 Z0.25
X73.596 Y22.179
X73.605 Y22.366
X73.612 Y22.554
X73.618 Y22.741
Z4.166
X73.609 Z4.269
X73.581 Z4.339
X73.542 Z4.395
X73.496 Z4.437
X73.444 Z4.469
X73.37 Z4.492
X73.22 Z4.498
X43.652 Z4.493
X43.571 Z4.473
X43.517 Z4.443
X43.474 Z4.41
X43.437 Z4.371
X43.406 Z4.32
X43.386 Z4.264
X43.375 Z4.198
X43.374 Z0.25
X43.448 Y22.93
X43.524 Y23.117
X43.601 Y23.305
X43.68 Y23.491
X43.681 Z4.198
X43.693 Z4.271
X43.712 Z4.319
X43.743 Z4.369
X43.787 Z4.415
X43.846 Z4.457
X43.906 Z4.481
X43.98 Z4.495
X73.321 Z4.498
X73.381 Z4.492
X73.411 Z4.485
X73.465 Z4.464
X73.518 Z4.43
X73.554 Z4.394
X73.592 Z4.34
X73.615 Z4.284
X73.625 Z4.228
X73.63 Z0.25
X73.631 Y23.679 Z0.251
X73.632 Y23.866
Y24.054 Z0.252
X73.631 Y24.241 Z0.253
X73.628 Z4.214
X73.616 Z4.285
X73.594 Z4.34
X73.562 Z4.387
X73.521 Z4.428
X73.469 Z4.463
X73.422 Z4.482
X73.382 Z4.492
X73.14 Z4.498
X44.314 Z4.496
X44.237 Z4.483
X44.178 Z4.461
X44.111 Z4.417
X44.067 Z4.371
X44.036 Z4.322
X44.016 Z4.272
X44.005 Z4.198
Z0.25
X44.086 Y24.429
X44.169 Y24.617
X44.253 Y24.804
X44.337 Y24.991
X44.338 Z4.198
X44.348 Z4.26
X44.37 Z4.321
X44.402 Z4.371
X44.443 Z4.414
X44.489 Z4.446
X44.535 Z4.47
X44.617 Z4.493
X73.227 Z4.498
X73.376 Z4.492
X73.405 Z4.485
X73.46 Z4.464
X73.51 Z4.432
X73.55 Z4.393
X73.587 Z4.34
X73.612 Z4.279
X73.623 Z4.211
X73.625 Z0.25
X73.623 Y25.179
X73.617 Y25.741
X73.615 Z4.214
X73.604 Z4.281
X73.579 Z4.342
X73.542 Z4.394
X73.495 Z4.437
X73.443 Z4.469
X73.367 Z4.492
X73.127 Z4.498
X45.06 Z4.497
X44.984 Z4.488
X44.913 Z4.466
X44.824 Z4.411
X44.784 Z4.37
X44.752 Z4.321
X44.73 Z4.261
X44.72 Z4.196
Z0.25
X44.827 Y25.93
X44.936 Y26.118
X45.047 Y26.305
X45.16 Y26.491
Z4.198
X45.171 Z4.266
X45.193 Z4.321
X45.225 Z4.368
X45.278 Z4.42
X45.353 Z4.464
X45.421 Z4.486
X45.492 Z4.496
X73.306 Z4.498
X73.362 Z4.492
X73.402 Z4.481
X73.449 Z4.463
X73.501 Z4.428
X73.542 Z4.386
X73.573 Z4.339
X73.595 Z4.285
X73.607 Z4.215
X73.609 Z0.25
X73.601 Y27.241
X73.599 Z4.214
X73.589 Z4.283
X73.566 Z4.339
X73.529 Z4.392
X73.483 Z4.435
X73.434 Z4.466
X73.361 Z4.492
X73.275 Z4.498
X45.984 Z4.497
X45.905 Z4.49
X45.831 Z4.468
X45.767 Z4.434
X45.731 Z4.407
X45.694 Z4.37
X45.658 Z4.317
X45.639 Z4.272
X45.629 Z4.198
X45.627 Z0.25
X45.747 Y27.429
X45.867 Y27.616
X45.987 Y27.804
X46.108 Y27.991
Z4.198
X46.12 Z4.268
X46.139 Z4.314
X46.156 Z4.343
X46.194 Z4.39
X46.246 Z4.432
X46.311 Z4.467
X46.383 Z4.488
X46.442 Z4.495
X73.297 Z4.498
X73.372 Z4.488
X73.434 Z4.466
X73.483 Z4.434
X73.528 Z4.391
X73.563 Z4.341
X73.589 Z4.279
X73.6 Z4.202
X73.601 Z0.25
Y28.178
X73.602 Y28.366
X73.603 Y28.553
X73.606 Y28.741
X73.604 Z4.214
X73.591 Z4.285
X73.569 Z4.339
X73.537 Z4.386
X73.496 Z4.428
X73.445 Z4.462
X73.399 Z4.481
X73.358 Z4.492
X73.303 Z4.498
X46.945 Z4.497
X46.868 Z4.488
X46.799 Z4.468
X46.742 Z4.438
X46.701 Z4.409
X46.66 Z4.368
X46.628 Z4.322
X46.606 Z4.269
X46.594 Z4.198
Z0.25
X47.08 Y29.491
Z4.198
X47.091 Z4.267
X47.114 Z4.321
X47.146 Z4.367
X47.187 Z4.409
X47.228 Z4.438
X47.286 Z4.468
X47.348 Z4.486
X47.407 Z4.495
X73.313 Z4.498
X73.371 Z4.492
X73.401 Z4.484
X73.451 Z4.465
X73.504 Z4.431
X73.55 Z4.386
X73.582 Z4.338
X73.604 Z4.283
X73.614 Z4.222
X73.619 Z0.25
X73.623 Y29.678
X73.628 Y29.866
X73.641 Y30.241
X73.638 Z4.214
X73.628 Z4.281
X73.606 Z4.336
X73.57 Z4.389
X73.528 Z4.43
X73.475 Z4.465
X73.426 Z4.484
X73.396 Z4.492
X73.324 Z4.498
X47.912 Z4.497
X47.839 Z4.488
X47.772 Z4.468
X47.71 Z4.435
X47.67 Z4.406
X47.633 Z4.368
X47.6 Z4.321
X47.578 Z4.268
X47.566 Z4.198
Z0.25
X47.687 Y30.428
X47.93 Y30.803
X48.051 Y30.991
Z4.198
X48.065 Z4.268
X48.087 Z4.321
X48.123 Z4.373
X48.177 Z4.423
X48.251 Z4.465
X48.317 Z4.485
X48.374 Z4.494
X73.273 Z4.498
X73.423 Z4.492
X73.49 Z4.473
X73.556 Z4.433
X73.6 Z4.391
X73.636 Z4.339
X73.659 Z4.281
X73.671 Z4.204
X73.672 Z0.25
X73.683 Y31.178
X73.703 Y31.553
X73.714 Y31.74
X73.713 Z4.204
X73.701 Z4.282
X73.677 Z4.339
X73.642 Z4.391
X73.597 Z4.433
X73.546 Z4.466
X73.474 Z4.491
X73.408 Z4.498
X48.891 Z4.497
X48.809 Z4.488
X48.732 Z4.465
X48.657 Z4.423
X48.603 Z4.372
X48.567 Z4.32
X48.547 Z4.272
X48.537 Z4.198
X48.536 Z0.25
X48.655 Y31.928
X48.89 Y32.303
X49.008 Y32.49
Z4.198
X49.023 Z4.267
X49.045 Z4.322
X49.078 Z4.369
X49.128 Z4.418
X49.197 Z4.46
X49.256 Z4.481
X49.315 Z4.493
X73.467 Z4.498
X73.532 Z4.491
X73.6 Z4.467
X73.651 Z4.436
X73.698 Z4.391
X73.734 Z4.34
X73.757 Z4.283
X73.77 Z4.214
X73.772 Z0.25
X73.787 Y32.678
X73.802 Y32.866
X73.821 Y33.053
X73.84 Y33.24
X73.837 Z4.213
X73.825 Z4.285
X73.802 Z4.341
X73.761 Z4.398
X73.721 Z4.434
X73.663 Z4.47
X73.591 Z4.492
X73.535 Z4.498
X49.832 Z4.497
X49.751 Z4.488
X49.682 Z4.468
X49.609 Z4.428
X49.547 Z4.372
X49.512 Z4.32
X49.491 Z4.272
X49.478 Z4.198
Z0.25
X49.595 Y33.427
X49.713 Y33.614
X49.829 Y33.802
X49.943 Y33.99
Z4.198
X49.954 Z4.272
X49.974 Z4.317
X50.009 Z4.371
X50.051 Z4.412
X50.087 Z4.438
X50.144 Z4.468
X50.21 Z4.488
X50.289 Z4.497
X73.611 Z4.498
X73.672 Z4.492
X73.702 Z4.484
X73.752 Z4.465
X73.805 Z4.43
X73.847 Z4.389
X73.883 Z4.336
X73.905 Z4.282
X73.913 Z4.229
X73.916 Z0.25
X73.939 Y34.178
X74.007 Y34.74
X74.004 Z4.213
X73.991 Z4.282
X73.966 Z4.341
X73.927 Z4.396
X73.89 Z4.431
X73.836 Z4.466
X73.777 Z4.487
X73.707 Z4.497
X50.747
X50.664 Z4.488
X50.598 Z4.468
X50.53 Z4.431
X50.475 Z4.384
X50.431 Z4.324
X50.409 Z4.272
X50.399 Z4.198
Z0.25
X50.734 Y35.303
X50.845 Y35.49
Z4.198
X50.854 Z4.264
X50.875 Z4.32
X50.907 Z4.368
X50.957 Z4.418
X51.023 Z4.46
X51.098 Z4.485
X51.168 Z4.495
X73.796 Z4.498
X73.852 Z4.492
X73.924 Z4.47
X73.982 Z4.435
X74.03 Z4.39
X74.065 Z4.339
X74.089 Z4.282
X74.1 Z4.211
X74.103 Z0.25
X74.179 Y36.053
X74.205 Y36.24
X74.201 Z4.223
X74.191 Z4.287
X74.168 Z4.34
X74.137 Z4.386
X74.096 Z4.428
X74.044 Z4.462
X73.998 Z4.481
X73.957 Z4.492
X73.897 Z4.498
X51.594 Z4.494
X51.543 Z4.486
X51.469 Z4.462
X51.395 Z4.416
X51.349 Z4.37
X51.316 Z4.321
X51.294 Z4.262
X51.283 Z4.198
Z0.25
X51.501 Y36.614
X51.608 Y36.802
X51.714 Y36.99
Z4.198
X51.724 Z4.272
X51.743 Z4.318
X51.778 Z4.372
X51.831 Z4.423
X51.904 Z4.465
X51.962 Z4.484
X52.033 Z4.495
X74.001 Z4.498
X74.063 Z4.492
X74.138 Z4.469
X74.193 Z4.434
X74.24 Z4.39
X74.276 Z4.338
X74.299 Z4.28
X74.308 Z4.213
X74.312 Z0.25
X74.339 Y37.177
X74.393 Y37.552
X74.42 Y37.74
X74.415 Z4.198
X74.404 Z4.284
X74.382 Z4.337
X74.345 Z4.391
X74.303 Z4.431
X74.242 Z4.47
X74.17 Z4.492
X74.109 Z4.498
X52.446 Z4.494
X52.371 Z4.481
X52.309 Z4.458
X52.244 Z4.414
X52.199 Z4.368
X52.168 Z4.321
X52.148 Z4.272
X52.138 Z4.198
Z0.25
X52.346 Y38.115
X52.553 Y38.49
Z4.198
X52.563 Z4.272
X52.583 Z4.321
X52.613 Z4.367
X52.658 Z4.413
X52.724 Z4.457
X52.795 Z4.483
X52.868 Z4.495
X74.215 Z4.498
X74.273 Z4.492
X74.303 Z4.484
X74.353 Z4.465
X74.4 Z4.435
X74.448 Z4.39
X74.483 Z4.339
X74.507 Z4.281
X74.519 Z4.215
X74.523 Z0.25
X74.548 Y38.677
X74.597 Y39.052
X74.622 Y39.24
X74.614 Z4.22
X74.605 Z4.278
X74.581 Z4.337
X74.545 Z4.389
X74.501 Z4.432
X74.436 Z4.472
X74.365 Z4.492
X74.306 Z4.498
X53.296
X53.207 Z4.486
X53.143 Z4.465
X53.07 Z4.422
X53.018 Z4.369
X52.987 Z4.321
X52.966 Z4.264
X52.957 Z4.198
Z0.25
X53.056 Y39.426
X53.155 Y39.613
X53.252 Y39.801
X53.347 Y39.99
Z4.198
X53.36 Z4.268
X53.381 Z4.321
X53.412 Z4.369
X53.457 Z4.416
X53.523 Z4.46
X53.595 Z4.485
X53.659 Z4.495
X74.023 Z4.498
X74.451 Z4.493
X74.495 Z4.482
X74.542 Z4.464
X74.595 Z4.429
X74.637 Z4.388
X74.669 Z4.34
X74.691 Z4.287
X74.703 Z4.215
X74.709 Z0.25
X74.749 Y40.364
X74.768 Y40.552
X74.785 Y40.74
X74.782 Z4.204
X74.768 Z4.28
X74.744 Z4.338
X74.702 Z4.396
X74.668 Z4.429
X74.609 Z4.468
X74.54 Z4.491
X74.475 Z4.498
X54.054
X53.968 Z4.486
X53.905 Z4.465
X53.834 Z4.422
X53.783 Z4.369
X53.752 Z4.32
X53.732 Z4.272
X53.723 Z4.198
X53.722 Z0.25
X53.81 Y40.926
X53.898 Y41.112
X53.982 Y41.301
X54.065 Y41.489
X54.066 Z4.198
X54.076 Z4.272
X54.094 Z4.315
X54.128 Z4.372
X54.173 Z4.418
X54.241 Z4.462
X54.306 Z4.485
X54.37 Z4.495
X74.355 Z4.498
X74.604 Z4.492
X74.634 Z4.484
X74.684 Z4.465
X74.732 Z4.433
X74.78 Z4.388
X74.818 Z4.33
X74.841 Z4.258
X74.849 Z0.25
X74.863 Y41.677
X74.877 Y41.864
X74.889 Y42.052
X74.901 Y42.239
X74.898 Z4.214
X74.886 Z4.283
X74.863 Z4.34
X74.827 Z4.392
X74.78 Z4.436
X74.732 Z4.466
X74.661 Z4.491
X74.592 Z4.498
X54.686 Z4.497
X54.617 Z4.488
X54.557 Z4.468
X54.505 Z4.438
X54.471 Z4.411
X54.435 Z4.372
X54.403 Z4.32
X54.385 Z4.271
X54.374 Z4.198
Z0.25
X54.443 Y42.426
X54.511 Y42.613
X54.577 Y42.801
X54.64 Y42.989
Z4.198
X54.649 Z4.264
X54.668 Z4.32
X54.698 Z4.371
X54.747 Z4.423
X54.813 Z4.465
X54.873 Z4.486
X54.934 Z4.495
X74.631 Z4.498
X74.689 Z4.492
X74.719 Z4.484
X74.769 Z4.465
X74.822 Z4.431
X74.868 Z4.386
X74.899 Z4.338
X74.921 Z4.284
X74.933 Z4.231
X74.938 Z0.25
X74.946 Y43.177
X74.952 Y43.364
X74.958 Y43.552
X74.963 Y43.739
X74.958 Z4.224
X74.945 Z4.287
X74.925 Z4.337
X74.885 Z4.394
X74.843 Z4.433
X74.793 Z4.466
X74.734 Z4.487
X74.664 Z4.497
X55.178 Z4.498
X55.095 Z4.486
X55.037 Z4.465
X54.969 Z4.421
X54.923 Z4.37
X54.893 Z4.318
X54.875 Z4.272
X54.868 Z4.198
X54.866 Z0.25
X54.917 Y43.926
X54.966 Y44.112
X55.01 Y44.301
X55.053 Y44.489
X55.056 Z4.219
X55.062 Z4.272
X55.08 Z4.319
X55.11 Z4.371
X55.141 Z4.406
X55.173 Z4.434
X55.229 Z4.468
X55.29 Z4.489
X55.362 Z4.498
X74.673
X74.728 Z4.492
X74.799 Z4.469
X74.858 Z4.431
X74.896 Z4.395
X74.937 Z4.337
X74.957 Z4.287
X74.973 Z4.217
X74.976 Z0.25
X74.977 Y44.677
Y45.052
Y45.239
X74.974 Z4.198
X74.963 Z4.281
X74.94 Z4.339
X74.899 Z4.397
X74.859 Z4.434
X74.804 Z4.468
X74.729 Z4.492
X74.667 Z4.498
X55.503 Z4.497
X55.429 Z4.488
X55.366 Z4.465
X55.298 Z4.42
X55.252 Z4.366
X55.225 Z4.319
X55.208 Z4.272
X55.201 Z4.198
Z0.292
X55.26 Y45.66 Z0.268
X55.266 Y45.707 Z0.266
X55.291 Y45.989 Z0.25
Z4.198
X55.302 Z4.256
X55.322 Z4.321
X55.35 Z4.369
X55.397 Z4.422
X55.461 Z4.465
X55.522 Z4.487
X55.582 Z4.496
X74.66 Z4.498
X74.729 Z4.49
X74.796 Z4.467
X74.85 Z4.433
X74.888 Z4.397
X74.928 Z4.342
X74.948 Z4.295
X74.961 Z4.241
X74.968 Z0.25
X74.963 Y46.176
X74.953 Y46.551
X74.948 Y46.739
X74.945 Z4.213
X74.934 Z4.28
X74.906 Z4.344
X74.871 Z4.394
X74.83 Z4.433
X74.779 Z4.466
X74.719 Z4.487
X74.645 Z4.498
X49.759 Z4.494
X49.294 Z4.484
X48.867 Z4.466
X48.554 Z4.445
X48.221 Z4.415
X47.927 Z4.372
X47.705 Z4.325
X47.553 Z4.271
X47.507 Z4.228
X47.493 Z4.199
X47.479 Z2.261
X47.472 Z0.25
X47.405 Z0.258
X47.342 Z0.28
X47.285 Z0.315
X47.237 Z0.363
X47.202 Z0.42
X47.179 Z0.483
X47.172 Z0.55
G0 Z20.992
X42.498 Y47.489
Z6.466
G1 Z0.55 F200
X42.505 Z0.483 F600
X42.527 Z0.42
X42.563 Z0.363
X42.611 Z0.315
X42.668 Z0.28
X42.731 Z0.258
X42.798 Z0.25
X42.8 Z4.198
X42.834 Z4.259
X42.92 Z4.31
X43.076 Z4.363
X43.28 Z4.408
X43.474 Z4.438
X43.743 Z4.468
X44.083 Z4.488
X44.462 Z4.497
X74.612 Z4.498
X74.672 Z4.492
X74.711 Z4.481
X74.757 Z4.462
X74.808 Z4.427
X74.85 Z4.386
X74.881 Z4.338
X74.903 Z4.284
X74.913 Z4.227
X74.918 Z0.25
X74.909 Y47.676
X74.9 Y47.864
X74.89 Y48.051
X74.88 Y48.239
X74.877 Z4.212
X74.865 Z4.284
X74.842 Z4.341
X74.806 Z4.392
X74.759 Z4.436
X74.711 Z4.466
X74.64 Z4.491
X74.57 Z4.498
X42.039
X41.933 Z4.488
X41.817 Z4.459
X41.737 Z4.418
X41.676 Z4.37
X41.634 Z4.319
X41.607 Z4.264
X41.593 Z4.198
Z0.25
X41.5 Y48.329
X41.407 Y48.419
X41.316 Y48.512
X41.226 Y48.604
X41.136 Y48.698
X41.049 Y48.794
X40.963 Y48.89
X40.878 Y48.989
X40.879 Z4.198
X40.891 Z4.269
X40.915 Z4.321
X40.953 Z4.37
X41.007 Z4.417
X41.089 Z4.461
X41.162 Z4.483
X41.246 Z4.495
X74.432 Z4.498
X74.583 Z4.492
X74.659 Z4.469
X74.715 Z4.434
X74.762 Z4.39
X74.797 Z4.337
X74.821 Z4.279
X74.829 Z4.219
X74.832 Z0.25
X74.82 Y49.176
X74.806 Y49.364
X74.792 Y49.551
X74.778 Y49.739
X74.774 Z4.225
X74.765 Z4.281
X74.741 Z4.339
X74.701 Z4.396
X74.66 Z4.434
X74.606 Z4.468
X74.539 Z4.491
X74.47 Z4.498
X40.624 Z4.493
X40.515 Z4.464
X40.439 Z4.421
X40.385 Z4.369
X40.352 Z4.321
X40.33 Z4.265
X40.318 Z4.198
Z0.25
X40.205 Y49.92
X40.098 Y50.106
X39.999 Y50.295
X39.907 Y50.489
Z4.198
X39.919 Z4.265
X39.939 Z4.319
X39.97 Z4.369
X40.002 Z4.404
X40.04 Z4.435
X40.097 Z4.467
X40.167 Z4.49
X40.24 Z4.497
X74.413 Z4.498
X74.487 Z4.488
X74.548 Z4.466
X74.596 Z4.435
X74.643 Z4.391
X74.679 Z4.339
X74.702 Z4.282
X74.714 Z4.217
X74.717 Z0.25
X74.7 Y50.676
X74.683 Y50.864
X74.666 Y51.051
X74.648 Y51.238
X74.643 Z4.233
X74.631 Z4.286
X74.608 Z4.342
X74.572 Z4.392
X74.524 Z4.437
X74.474 Z4.468
X74.408 Z4.49
X74.34 Z4.498
X39.953 Z4.497
X39.885 Z4.49
X39.814 Z4.465
X39.744 Z4.418
X39.701 Z4.37
X39.671 Z4.32
X39.652 Z4.267
X39.64 Z4.198
Z0.25
X39.598 Y51.424
X39.56 Y51.611
X39.532 Y51.799
X39.514 Y51.988
X39.515 Z4.198
X39.529 Z4.29
X39.56 Z4.356
X39.61 Z4.418
X39.691 Z4.471
X39.78 Z4.494
X74.268 Z4.498
X74.323 Z4.492
X74.373 Z4.478
X74.418 Z4.457
X74.468 Z4.421
X74.523 Z4.356
X74.551 Z4.297
X74.569 Z4.222
X74.573 Z0.25
X74.553 Y52.176
X74.513 Y52.551
X74.492 Y52.738
X74.49 Z4.227
X74.473 Z4.3
X74.43 Z4.378
X74.375 Z4.433
X74.298 Z4.477
X74.228 Z4.494
X39.799 Z4.495
X39.752 Z4.486
X39.693 Z4.465
X39.628 Z4.421
X39.582 Z4.367
X39.554 Z4.32
X39.536 Z4.264
X39.527 Z4.198
X39.523 Z0.25
X39.549 Y52.928
X39.582 Y53.117
X39.623 Y53.303
X39.673 Y53.488
Z4.198
X39.684 Z4.268
X39.702 Z4.319
X39.733 Z4.37
X39.769 Z4.41
X39.811 Z4.443
X39.859 Z4.47
X39.941 Z4.493
X73.971 Z4.498
X74.066 Z4.491
X74.139 Z4.466
X74.19 Z4.435
X74.24 Z4.39
X74.276 Z4.34
X74.302 Z4.277
X74.311 Z4.204
X74.314 Z0.25
X74.262 Y53.677
X74.206 Y53.865
X74.148 Y54.051
X74.088 Y54.238
X74.085 Z4.223
X74.073 Z4.285
X74.051 Z4.338
X74.012 Z4.391
X73.964 Z4.435
X73.913 Z4.466
X73.85 Z4.487
X73.798 Z4.495
X40.303 Z4.498
X40.223 Z4.488
X40.152 Z4.465
X40.077 Z4.42
X40.02 Z4.358
X39.988 Z4.3
X39.972 Z4.244
X39.965 Z4.198
Z0.25
X40.068 Y54.431
X40.174 Y54.622
X40.289 Y54.807
X40.411 Y54.988
Z4.198
X40.421 Z4.263
X40.443 Z4.318
X40.479 Z4.37
X40.526 Z4.414
X40.596 Z4.457
X40.668 Z4.482
X40.753 Z4.495
X73.484 Z4.498
X73.579 Z4.489
X73.648 Z4.467
X73.707 Z4.431
X73.748 Z4.394
X73.787 Z4.343
X73.808 Z4.299
X73.823 Z4.24
X73.828 Z0.25
X73.757 Y55.177
X73.683 Y55.364
X73.609 Y55.551
X73.533 Y55.738
X73.529 Z4.222
X73.517 Z4.284
X73.494 Z4.338
X73.455 Z4.39
X73.405 Z4.434
X73.344 Z4.469
X73.266 Z4.492
X72.985 Z4.498
X41.384 Z4.494
X41.315 Z4.485
X41.229 Z4.461
X41.144 Z4.417
X41.084 Z4.366
X41.042 Z4.308
X41.021 Z4.255
X41.012 Z4.198
Z0.25
X41.194 Y55.931
X41.285 Y56.027
X41.378 Y56.122
X41.473 Y56.215
X41.569 Y56.306
X41.665 Y56.397
X41.762 Y56.488
X41.763 Z4.198
X41.779 Z4.272
X41.806 Z4.323
X41.848 Z4.372
X41.906 Z4.416
X41.983 Z4.456
X42.079 Z4.483
X42.182 Z4.495
X72.864 Z4.498
X72.939 Z4.491
X73.014 Z4.468
X73.073 Z4.434
X73.123 Z4.391
X73.162 Z4.34
X73.188 Z4.282
X73.201 Z4.218
X73.204 Z0.25
X73.115 Y56.676
X73.025 Y56.864
X72.935 Y57.052
X72.842 Y57.238
X72.838 Z4.218
X72.821 Z4.285
X72.796 Z4.34
X72.755 Z4.392
X72.704 Z4.435
X72.645 Z4.468
X72.564 Z4.492
X72.503 Z4.498
X43.079 Z4.494
X43.001 Z4.485
X42.919 Z4.466
X42.839 Z4.434
X42.79 Z4.407
X42.74 Z4.37
X42.694 Z4.321
X42.664 Z4.267
X42.647 Z4.198
Z0.25
X42.768 Y57.334
X42.89 Y57.428
X43.134 Y57.617
X43.257 Y57.71
X43.503 Y57.895
X43.627 Y57.988
Z4.198
X43.643 Z4.272
X43.675 Z4.323
X43.725 Z4.373
X43.794 Z4.419
X43.901 Z4.463
X44.015 Z4.488
X44.135 Z4.497
X72.1 Z4.498
X72.164 Z4.492
X72.208 Z4.482
X72.26 Z4.464
X72.311 Z4.434
X72.365 Z4.39
X72.406 Z4.336
X72.433 Z4.278
X72.446 Z4.213
X72.448 Z3.887
X72.45 Z0.25
X72.346 Y58.176
X72.241 Y58.364
X72.135 Y58.552
X72.027 Y58.738
X72.022 Z4.225
X72.008 Z4.287
X71.982 Z4.339
X71.941 Z4.391
X71.887 Z4.434
X71.83 Z4.466
X71.762 Z4.487
X71.707 Z4.495
X45.128
X45.044 Z4.487
X44.932 Z4.463
X44.826 Z4.42
X44.754 Z4.372
X44.704 Z4.322
X44.673 Z4.27
X44.656 Z4.198
Z0.25
X44.913 Y58.924
X45.042 Y59.017
X45.17 Y59.111
X45.298 Y59.204
X45.426 Y59.298
X45.681 Y59.488
Z4.198
X45.698 Z4.269
X45.729 Z4.322
X45.779 Z4.373
X45.852 Z4.422
X45.955 Z4.464
X46.068 Z4.489
X46.183 Z4.498
X70.937
X71.253 Z4.495
X71.309 Z4.487
X71.378 Z4.466
X71.443 Z4.43
X71.493 Z4.388
X71.532 Z4.339
X71.559 Z4.284
X71.574 Z4.198
X71.575 Z0.25
X71.458 Y59.677
X71.338 Y59.864
X71.096 Y60.238
X71.093 Z4.222
X71.079 Z4.289
X71.052 Z4.341
X71.01 Z4.391
X70.954 Z4.435
X70.884 Z4.471
X70.806 Z4.492
X70.736 Z4.498
X47.112 Z4.496
X47.022 Z4.487
X46.92 Z4.464
X46.823 Z4.423
X46.748 Z4.37
X46.703 Z4.322
X46.673 Z4.268
X46.658 Z4.198
Z0.25
X46.772 Y60.328
X46.886 Y60.418
X46.998 Y60.511
X47.11 Y60.605
X47.221 Y60.699
X47.331 Y60.794
X47.44 Y60.891
X47.549 Y60.987
X47.55 Z4.198
X47.564 Z4.272
X47.591 Z4.322
X47.633 Z4.371
X47.694 Z4.419
X47.784 Z4.462
X47.874 Z4.485
X47.989 Z4.497
X70.22 Z4.498
X70.292 Z4.492
X70.328 Z4.484
X70.387 Z4.466
X70.452 Z4.432
X70.501 Z4.393
X70.545 Z4.34
X70.578 Z4.276
X70.59 Z4.207
X70.591 Z0.25
X70.459 Y61.175
X70.328 Y61.364
X70.195 Y61.551
X70.06 Y61.737
X70.058 Z4.214
X70.046 Z4.279
X70.018 Z4.336
X69.976 Z4.387
X69.92 Z4.431
X69.855 Z4.465
X69.795 Z4.484
X69.759 Z4.492
X69.654 Z4.498
X48.688 Z4.495
X48.612 Z4.486
X48.527 Z4.461
X48.445 Z4.417
X48.389 Z4.37
X48.351 Z4.322
X48.325 Z4.268
X48.313 Z4.198
Z0.25
X48.476 Y61.918
X48.634 Y62.103
X48.788 Y62.292
X48.933 Y62.487
Z4.198
X48.946 Z4.265
X48.968 Z4.318
X49.008 Z4.374
X49.061 Z4.422
X49.141 Z4.465
X49.216 Z4.488
X49.281 Z4.496
X69.12 Z4.498
X69.197 Z4.492
X69.246 Z4.482
X69.302 Z4.465
X69.36 Z4.434
X69.419 Z4.39
X69.464 Z4.337
X69.493 Z4.279
X69.501 Z4.233
X69.508 Z0.25
X69.366 Y62.676
X69.224 Y62.863
X69.08 Y63.05
X68.937 Y63.237
X68.934 Z4.215
X68.918 Z4.283
X68.892 Z4.336
X68.847 Z4.389
X68.79 Z4.432
X68.725 Z4.465
X68.664 Z4.484
X68.628 Z4.492
X68.552 Z4.498
X49.726 Z4.495
X49.66 Z4.485
X49.59 Z4.461
X49.52 Z4.415
X49.475 Z4.369
X49.443 Z4.32
X49.421 Z4.262
X49.409 Z4.198
Z0.25
X49.506 Y63.42
X49.596 Y63.607
X49.682 Y63.796
X49.761 Y63.987
Z4.198
X49.773 Z4.268
X49.791 Z4.318
X49.822 Z4.369
X49.87 Z4.419
X49.941 Z4.464
X50. Z4.485
X50.062 Z4.495
X67.954 Z4.498
X68.062 Z4.485
X68.13 Z4.466
X68.202 Z4.429
X68.256 Z4.387
X68.299 Z4.336
X68.329 Z4.277
X68.337 Z4.228
X68.342 Z0.25
X68.191 Y64.176
X68.039 Y64.364
X67.884 Y64.551
X67.73 Y64.737
X67.727 Z4.21
X67.713 Z4.277
X67.68 Z4.339
X67.633 Z4.391
X67.584 Z4.429
X67.52 Z4.462
X67.463 Z4.48
