(Skakbrat midte)
(Nyt nulpunkt)
(Machine)
(  vendor: Autodesk)
(  model: Generic 3-axis)
(  description: This machine has XYZ axis on the Head)
(T1  D=3. CR=0. - ZMIN=0. - flat end mill)
G90

(2D Pocket1)
T1 M6 (flat end mill D=3.)
S15000 M3
G64
G54
G43 H1
G0 Z30.
G0 X-1.707 Y71.657
Z30.
Z20.
G1 Z16. F200
Z5.8 F600
X-1.699 Z5.733
X-1.677 Z5.67
X-1.641 Z5.613
X-1.594 Z5.565
X-1.537 Y71.658 Z5.53
X-1.474 Z5.508
X-1.407 Z5.5
X-1.383
X9.086 Y71.668
G2 X16.498 Y69.17 I0. J-12.25
G3 X17.491 Y70.163 I0. J0.993
X17.374 Y70.631 I-0.993 J0.
G2 X17.732 Y71.809 I0.768 J0.41
X18.675 Y71.729 I0.41 J-0.768
G1 X18.757 Y71.669
X18.839 Y71.609
G3 X19.245 Y71.568 I0.235 J0.293
X19.458 Y71.918 I-0.18 J0.349
X19.125 Y72.256 I-0.338 J0.
X18.675 Y72.106 I-0.012 J-0.713
X18.634 Y71.771 I0.146 J-0.188
X18.675 Y71.729 I0.188 J0.146
G2 X19.086 Y70.711 I-0.672 J-0.863
G3 X19.614 Y70.005 I0.617 J-0.089
X19.97 Y70.06 I0.089 J0.617
X20.943 Y72.802 I-0.885 J1.858
X18.201 Y73.775 I-1.858 J-0.885
X17.8 Y73.524 I0.885 J-1.858
G2 X16.672 Y72.737 I-6.578 J8.222
X15.472 Y72.065 I-10.651 J17.609
G3 X15.401 Y71.841 I0.076 J-0.147
X15.472 Y71.77 I0.147 J0.076
G2 X16.672 Y71.098 I-9.451 J-18.281
X17.8 Y70.311 I-5.45 J-9.01
G3 X19.97 Y70.06 I1.286 J1.607
X20.041 Y70.26 I-0.065 J0.135
X19.978 Y70.327 I-0.135 J-0.065
G1 X17.1 Y71.899
X17.065 Y71.913
X17.028 Y71.918
X-1.124
X-1.411 Y71.826
X-1.441 Y71.809
X-1.462 Y71.781
X-1.47 Y71.748
X-1.464 Y71.714
X-1.446 Y71.684
X-1.417 Y71.665
X-1.383 Y71.658
X9.086 Y71.668
G2 X16.738 Y68.983 I0. J-12.25
G3 X22.02 Y69.57 I2.348 J2.934
X21.433 Y74.852 I-2.934 J2.348
X16.738 I-2.348 J-2.934
G2 X9.086 Y72.168 I-7.653 J9.566
G1 X-1.399 Y72.177
G3 X-1.541 Y72.118 I0. J-0.2
X-1.599 Y71.976 I0.142 J-0.141
G1 X-1.584 Y70.156
G3 X-1.384 Y69.958 I0.2 J0.002
G1 X9.086 Y69.967
G2 X15.676 Y67.656 I0. J-10.55
G3 X23.347 Y68.508 I3.409 J4.262
X22.495 Y76.179 I-4.262 J3.409
X15.676 I-3.409 J-4.262
G2 X9.086 Y73.868 I-6.591 J8.238
G1 X-1.399 Y73.877
G3 X-1.54 Y73.818 I0. J-0.2
X-1.599 Y73.676 I0.142 J-0.141
G1 X-1.584 Y68.458
G3 X-1.384 Y68.258 I0.2 J0.001
G1 X9.086 Y68.268
G2 X14.614 Y66.328 I0. J-8.85
G3 X24.675 Y67.446 I4.471 J5.589
X23.557 Y77.507 I-5.589 J4.471
X14.614 I-4.471 J-5.589
G2 X9.086 Y75.567 I-5.529 J6.911
G1 X-1.399 Y75.577
G3 X-1.54 Y75.518 I0. J-0.2
X-1.599 Y75.376 I0.141 J-0.141
G1 X-1.585 Y66.758
G3 X-1.384 Y66.559 I0.2 J0.
G1 X9.086 Y66.567
G2 X13.552 Y65.001 I0. J-7.15
G3 X26.002 Y66.384 I5.533 J6.917
X24.619 Y78.834 I-6.917 J5.533
X13.552 I-5.533 J-6.917
G2 X9.086 Y77.268 I-4.467 J5.583
G1 X-1.399 Y77.276
G3 X-1.54 Y77.218 I0. J-0.2
X-1.599 Y77.076 I0.141 J-0.141
G1 X-1.585 Y65.059
G3 X-1.385 Y64.859 I0.2 J0.
G1 X9.086 Y64.868
G2 X12.49 Y63.673 I0. J-5.45
G3 X27.33 Y65.322 I6.595 J8.244
X29.643 Y71.918 I-8.244 J6.595
X19.086 Y82.475 I-10.558 J0.
X12.49 Y80.162 I0. J-10.558
G2 X9.086 Y78.967 I-3.405 J4.256
G1 X-1.399 Y78.976
G3 X-1.54 Y78.918 I0. J-0.2
X-1.599 Y78.776 I0.141 J-0.141
G1 X-1.585 Y63.359
G3 X-1.385 Y63.159 I0.2 J0.
G1 X9.086 Y63.167
G2 X11.428 Y62.346 I0. J-3.75
G3 X28.657 Y64.26 I7.657 J9.572
X31.343 Y71.918 I-9.572 J7.657
X19.086 Y84.175 I-12.258 J0.
X11.428 Y81.489 I0. J-12.258
G2 X9.086 Y80.668 I-2.343 J2.928
G1 X-1.399 Y80.676
G3 X-1.54 Y80.617 I0. J-0.2
X-1.599 Y80.476 I0.141 J-0.141
G1 X-1.59 Y61.617
G3 X-1.39 Y61.417 I0.2 J0.
G1 X9.086
G2 X10.335 Y60.979 I0. J-2.
G3 X30.024 Y63.167 I8.751 J10.938
X27.836 Y82.856 I-10.938 J8.751
X10.335 I-8.751 J-10.938
G2 X9.086 Y82.418 I-1.249 J1.562
G1 X0.
X-1.397
X-1.444 Y82.414
X-2.092 Y82.311
X-2.158 Y82.301 Z5.508
X-2.22 Y82.291 Z5.53
X-2.277 Y82.282 Z5.565
X-2.324 Y82.274 Z5.613
X-2.359 Y82.269 Z5.67
X-2.381 Y82.265 Z5.733
X-2.388 Y82.264 Z5.8
G0 Z30.
X50.846 Y-1.705
Z20.
G1 Z16. F200
Z5.8 F600
Y-1.697 Z5.733
Y-1.675 Z5.67
Y-1.639 Z5.613
Y-1.592 Z5.565
Y-1.535 Z5.53
Y-1.471 Z5.508
Y-1.405 Z5.5
X50.836 Y9.418
G2 X53.333 Y16.83 I12.25 J0.
G3 X52.318 Y17.844 I-1.014 J0.
X51.907 Y17.757 I0. J-1.014
G2 X50.738 Y18.208 I-0.359 J0.81
X50.807 Y19.054 I0.81 J0.359
G3 X50.924 Y19.457 I-0.596 J0.391
X50.58 Y19.79 I-0.338 J-0.006
X50.247 Y19.457 I0.006 J-0.338
X50.398 Y19.007 I0.713 J-0.012
X50.732 Y18.966 I0.188 J0.146
X50.774 Y19.007 I-0.146 J0.188
G1 X50.807 Y19.054
G2 X51.783 Y19.546 I0.915 J-0.601
G3 X52.435 Y20.128 I0.035 J0.617
X52.346 Y20.483 I-0.617 J0.035
X49.521 Y21.178 I-1.761 J-1.065
X48.56 Y19.778 I1.065 J-1.761
X48.979 Y18.132 I2.026 J-0.36
G2 X49.766 Y17.004 I-8.222 J-6.578
X50.438 Y15.804 I-17.61 J-10.652
G3 X50.662 Y15.733 I0.147 J0.076
X50.733 Y15.804 I-0.076 J0.147
G2 X51.405 Y17.004 I18.281 J-9.451
X52.192 Y18.132 I9.01 J-5.45
G3 X52.346 Y20.483 I-1.607 J1.285
X52.14 Y20.533 I-0.128 J-0.078
X52.085 Y20.474 I0.078 J-0.128
G1 X50.602 Y17.605
X50.59 Y17.572
X50.586 Y17.537
Y-1.133
X50.677 Y-1.42
X50.694 Y-1.45
X50.722 Y-1.471
X50.755 Y-1.48
X50.79 Y-1.474
X50.819 Y-1.455
X50.839 Y-1.427
X50.846 Y-1.393
X50.836 Y9.418
G2 X53.52 Y17.07 I12.25 J0.
G3 X52.933 Y22.352 I-2.934 J2.347
X47.651 Y21.765 I-2.347 J-2.934
Y17.07 I2.934 J-2.347
G2 X50.336 Y9.418 I-9.566 J-7.653
G1 X50.326 Y-1.386
G3 X50.525 Y-1.587 I0.2 J0.
G1 X52.345 Y-1.593
G3 X52.487 Y-1.535 I0.001 J0.2
X52.545 Y-1.393 I-0.141 J0.142
G1 X52.536 Y9.418
G2 X54.847 Y16.008 I10.55 J0.
G3 X53.995 Y23.679 I-4.262 J3.409
X46.324 Y22.827 I-3.409 J-4.262
Y16.008 I4.262 J-3.409
G2 X48.636 Y9.418 I-8.238 J-6.591
G1 X48.626 Y-1.386
G3 X48.826 Y-1.587 I0.2 J0.
G1 X54.045 Y-1.594
G3 X54.186 Y-1.535 I0. J0.2
X54.245 Y-1.394 I-0.141 J0.141
G1 X54.236 Y9.418
G2 X56.175 Y14.946 I8.85 J0.
G3 X55.057 Y25.007 I-5.589 J4.471
X44.996 Y23.889 I-4.471 J-5.589
Y14.946 I5.589 J-4.471
G2 X46.936 Y9.418 I-6.911 J-5.529
G1 X46.926 Y-1.386
G3 X46.985 Y-1.528 I0.2 J0.
X47.126 Y-1.587 I0.142 J0.141
G1 X55.745 Y-1.594
G3 X55.886 Y-1.535 I0. J0.2
X55.945 Y-1.394 I-0.141 J0.141
G1 X55.936 Y9.418
G2 X57.502 Y13.884 I7.15 J0.
G3 X56.119 Y26.334 I-6.917 J5.533
X43.669 Y24.951 I-5.533 J-6.917
Y13.884 I6.917 J-5.533
G2 X45.236 Y9.418 I-5.583 J-4.467
G1 X45.227 Y-1.386
G3 X45.285 Y-1.528 I0.2 J0.
X45.426 Y-1.587 I0.142 J0.141
G1 X57.444 Y-1.594
G3 X57.586 Y-1.536 I0. J0.2
X57.644 Y-1.394 I-0.141 J0.141
G1 X57.636 Y9.418
G2 X58.83 Y12.822 I5.45 J0.
G3 X57.181 Y27.662 I-8.244 J6.595
X50.586 Y29.975 I-6.595 J-8.244
X40.028 Y19.417 I0. J-10.558
X42.341 Y12.822 I10.558 J0.
G2 X43.536 Y9.418 I-4.256 J-3.405
G1 X43.527 Y-1.386
G3 X43.585 Y-1.528 I0.2 J0.
X43.727 Y-1.587 I0.142 J0.141
G1 X59.144 Y-1.595
G3 X59.286 Y-1.536 I0. J0.2
X59.344 Y-1.394 I-0.141 J0.141
G1 X59.336 Y9.418
G2 X60.157 Y11.76 I3.75 J0.
G3 X58.243 Y28.989 I-9.572 J7.657
X50.586 Y31.675 I-7.657 J-9.572
X38.328 Y19.417 I0. J-12.258
X41.014 Y11.76 I12.258 J0.
G2 X41.836 Y9.418 I-2.928 J-2.343
G1 X41.827 Y-1.386
G3 X41.886 Y-1.528 I0.2 J0.
X42.027 Y-1.587 I0.142 J0.141
G1 X60.885 Y-1.599
G3 X61.027 Y-1.541 I0. J0.2
X61.086 Y-1.399 I-0.141 J0.141
G1 Y9.418
G2 X61.524 Y10.667 I2. J0.
G3 X59.336 Y30.356 I-10.938 J8.751
X39.647 Y28.168 I-8.751 J-10.938
Y10.667 I10.938 J-8.751
G2 X40.086 Y9.418 I-1.562 J-1.249
G1 Y0.
Y-1.397
X40.089 Y-1.444
X40.192 Y-2.092
X40.202 Y-2.158 Z5.508
X40.212 Y-2.22 Z5.53
X40.221 Y-2.277 Z5.565
X40.229 Y-2.324 Z5.613
X40.234 Y-2.359 Z5.67
X40.238 Y-2.381 Z5.733
X40.239 Y-2.388 Z5.8
G0 Z30.
X245.674 Y-1.705
Z20.
G1 Z16. F200
Z5.8 F600
Y-1.697 Z5.733
Y-1.675 Z5.67
Y-1.639 Z5.613
Y-1.592 Z5.565
Y-1.535 Z5.53
Y-1.471 Z5.508
Y-1.405 Z5.5
X245.664 Y9.418
G2 X248.161 Y16.83 I12.25 J0.
G3 X247.168 Y17.823 I-0.993 J0.
X246.7 Y17.706 I0. J-0.993
G2 X245.522 Y18.064 I-0.41 J0.768
X245.602 Y19.007 I0.768 J0.41
G1 X245.662 Y19.089
X245.723 Y19.17
G3 X245.763 Y19.577 I-0.293 J0.235
X245.414 Y19.79 I-0.349 J-0.18
X245.076 Y19.457 I0. J-0.338
X245.226 Y19.007 I0.713 J-0.012
X245.56 Y18.966 I0.188 J0.146
X245.602 Y19.007 I-0.146 J0.188
G2 X246.621 Y19.418 I0.863 J-0.672
G3 X247.326 Y19.946 I0.089 J0.617
X247.272 Y20.302 I-0.617 J0.089
X245.414 Y21.475 I-1.858 J-0.885
X243.356 Y19.417 I0. J-2.058
X243.807 Y18.132 I2.058 J0.
G2 X244.594 Y17.004 I-8.222 J-6.578
X245.267 Y15.804 I-17.61 J-10.652
G3 X245.49 Y15.733 I0.147 J0.076
X245.561 Y15.804 I-0.076 J0.147
G2 X246.234 Y17.004 I18.281 J-9.451
X247.021 Y18.132 I9.01 J-5.45
G3 X247.272 Y20.302 I-1.607 J1.285
X247.072 Y20.373 I-0.135 J-0.065
X247.005 Y20.31 I0.065 J-0.135
G1 X245.432 Y17.432
X245.419 Y17.397
X245.414 Y17.36
Y-1.133
X245.505 Y-1.42
X245.522 Y-1.45
X245.55 Y-1.471
X245.584 Y-1.48
X245.618 Y-1.474
X245.647 Y-1.455
X245.667 Y-1.427
X245.674 Y-1.393
X245.664 Y9.418
G2 X248.348 Y17.07 I12.25 J0.
G3 X247.761 Y22.352 I-2.934 J2.347
X242.48 Y21.765 I-2.347 J-2.934
Y17.07 I2.934 J-2.347
G2 X245.164 Y9.418 I-9.566 J-7.653
G1 X245.154 Y-1.386
G3 X245.353 Y-1.587 I0.2 J0.
G1 X247.173 Y-1.593
G3 X247.315 Y-1.535 I0.001 J0.2
X247.374 Y-1.393 I-0.141 J0.142
G1 X247.364 Y9.418
G2 X249.676 Y16.008 I10.55 J0.
G3 X248.823 Y23.679 I-4.262 J3.409
X241.152 Y22.827 I-3.409 J-4.262
Y16.008 I4.262 J-3.409
G2 X243.464 Y9.418 I-8.238 J-6.591
G1 X243.454 Y-1.386
G3 X243.654 Y-1.587 I0.2 J0.
G1 X248.873 Y-1.594
G3 X249.015 Y-1.535 I0. J0.2
X249.073 Y-1.394 I-0.141 J0.141
G1 X249.064 Y9.418
G2 X251.003 Y14.946 I8.85 J0.
G3 X249.885 Y25.007 I-5.589 J4.471
X239.825 Y23.889 I-4.471 J-5.589
Y14.946 I5.589 J-4.471
G2 X241.764 Y9.418 I-6.911 J-5.529
G1 X241.755 Y-1.386
G3 X241.813 Y-1.528 I0.2 J0.
X241.954 Y-1.587 I0.142 J0.141
G1 X250.573 Y-1.594
G3 X250.714 Y-1.535 I0. J0.2
X250.773 Y-1.394 I-0.141 J0.141
G1 X250.764 Y9.418
G2 X252.331 Y13.884 I7.15 J0.
G3 X250.947 Y26.334 I-6.917 J5.533
X238.497 Y24.951 I-5.533 J-6.917
Y13.884 I6.917 J-5.533
G2 X240.064 Y9.418 I-5.583 J-4.467
G1 X240.055 Y-1.386
G3 X240.113 Y-1.528 I0.2 J0.
X240.255 Y-1.587 I0.142 J0.141
G1 X252.273 Y-1.594
G3 X252.414 Y-1.536 I0. J0.2
X252.473 Y-1.394 I-0.141 J0.141
G1 X252.464 Y9.418
G2 X253.658 Y12.822 I5.45 J0.
G3 X252.009 Y27.662 I-8.244 J6.595
X245.414 Y29.975 I-6.595 J-8.244
X234.856 Y19.417 I0. J-10.558
X237.17 Y12.822 I10.558 J0.
G2 X238.364 Y9.418 I-4.256 J-3.405
G1 X238.355 Y-1.386
G3 X238.414 Y-1.528 I0.2 J0.
X238.555 Y-1.587 I0.142 J0.141
G1 X253.972 Y-1.595
G3 X254.114 Y-1.536 I0. J0.2
X254.173 Y-1.394 I-0.141 J0.141
G1 X254.164 Y9.418
G2 X254.986 Y11.76 I3.75 J0.
G3 X253.071 Y28.989 I-9.572 J7.657
X245.414 Y31.675 I-7.657 J-9.572
X233.156 Y19.417 I0. J-12.258
X235.842 Y11.76 I12.258 J0.
G2 X236.664 Y9.418 I-2.928 J-2.343
G1 X236.655 Y-1.386
G3 X236.714 Y-1.528 I0.2 J0.
X236.855 Y-1.587 I0.142 J0.141
G1 X255.714 Y-1.599
G3 X255.855 Y-1.541 I0. J0.2
X255.914 Y-1.399 I-0.141 J0.141
G1 Y9.418
G2 X256.352 Y10.667 I2. J0.
G3 X254.165 Y30.356 I-10.938 J8.751
X234.476 Y28.168 I-8.751 J-10.938
Y10.667 I10.938 J-8.751
G2 X234.914 Y9.418 I-1.562 J-1.249
G1 Y0.
Y-1.397
X234.918 Y-1.444
X235.02 Y-2.092
X235.031 Y-2.158 Z5.508
X235.041 Y-2.22 Z5.53
X235.05 Y-2.277 Z5.565
X235.057 Y-2.324 Z5.613
X235.063 Y-2.359 Z5.67
X235.066 Y-2.381 Z5.733
X235.067 Y-2.388 Z5.8
G0 Z30.
X297.712 Y72.178
Z20.
G1 Z16. F200
Z5.8 F600
X297.704 Z5.733
X297.682 Z5.67
X297.646 Z5.613
X297.599 Z5.565
X297.542 Y72.177 Z5.53
X297.478 Z5.508
X297.412 Z5.5
X286.914 Y72.168
G2 X279.502 Y74.665 I0. J12.25
G3 X278.509 Y73.672 I0. J-0.993
X278.626 Y73.204 I0.993 J0.
G2 X278.267 Y72.026 I-0.768 J-0.41
X277.324 Y72.106 I-0.41 J0.768
G1 X277.242 Y72.166
X277.161 Y72.226
G3 X276.754 Y72.267 I-0.235 J-0.293
X276.541 Y71.918 I0.18 J-0.349
X276.874 Y71.579 I0.338 J0.
X277.324 Y71.729 I0.012 J0.713
X277.366 Y72.064 I-0.146 J0.188
X277.324 Y72.106 I-0.188 J-0.146
G2 X276.914 Y73.124 I0.672 J0.863
G3 X276.386 Y73.83 I-0.617 J0.089
X276.029 Y73.775 I-0.089 J-0.617
X275.056 Y71.033 I0.885 J-1.858
X277.799 Y70.06 I1.858 J0.885
X278.199 Y70.311 I-0.885 J1.858
G2 X279.328 Y71.098 I6.578 J-8.222
X280.528 Y71.77 I10.651 J-17.609
G3 X280.599 Y71.994 I-0.076 J0.147
X280.528 Y72.065 I-0.147 J-0.076
G2 X279.328 Y72.737 I9.451 J18.281
X278.199 Y73.524 I5.45 J9.01
G3 X276.029 Y73.775 I-1.285 J-1.607
X275.958 Y73.575 I0.065 J-0.135
X276.022 Y73.508 I0.135 J0.065
G1 X278.9 Y71.936
X278.935 Y71.922
X278.972 Y71.918
X297.14
X297.427 Y72.009
X297.457 Y72.026
X297.478 Y72.054
X297.487 Y72.087
X297.481 Y72.121
X297.462 Y72.151
X297.434 Y72.17
X297.4 Y72.177
X286.914 Y72.168
G2 X279.261 Y74.852 I0. J12.25
G3 X273.98 Y74.265 I-2.347 J-2.934
X274.567 Y68.983 I2.934 J-2.347
X279.261 I2.347 J2.934
G2 X286.914 Y71.668 I7.653 J-9.566
G1 X297.398 Y71.658
G3 X297.54 Y71.717 I0. J0.2
X297.598 Y71.859 I-0.142 J0.141
G1 X297.584 Y73.679
G3 X297.383 Y73.877 I-0.2 J-0.002
G1 X286.914 Y73.868
G2 X280.323 Y76.179 I0. J10.55
G3 X272.652 Y75.327 I-3.409 J-4.262
X273.505 Y67.656 I4.262 J-3.409
X280.323 I3.409 J4.262
G2 X286.914 Y69.967 I6.591 J-8.238
G1 X297.398 Y69.958
G3 X297.54 Y70.017 I0. J0.2
X297.598 Y70.159 I-0.142 J0.141
G1 X297.584 Y75.377
G3 X297.384 Y75.577 I-0.2 J-0.001
G1 X286.914 Y75.567
G2 X281.385 Y77.507 I0. J8.85
G3 X271.325 Y76.389 I-4.471 J-5.589
X272.443 Y66.328 I5.589 J-4.471
X281.385 I4.471 J5.589
G2 X286.914 Y68.268 I5.529 J-6.911
G1 X297.398 Y68.258
G3 X297.54 Y68.317 I0. J0.2
X297.598 Y68.459 I-0.141 J0.141
G1 X297.584 Y77.077
G3 X297.384 Y77.276 I-0.2 J0.
G1 X286.914 Y77.268
G2 X282.447 Y78.834 I0. J7.15
G3 X269.997 Y77.451 I-5.533 J-6.917
X271.381 Y65.001 I6.917 J-5.533
X282.447 I5.533 J6.917
G2 X286.914 Y66.567 I4.467 J-5.583
G1 X297.398 Y66.559
G3 X297.54 Y66.617 I0. J0.2
X297.598 Y66.759 I-0.141 J0.141
G1 X297.585 Y78.776
G3 X297.384 Y78.976 I-0.2 J0.
G1 X286.914 Y78.967
G2 X283.509 Y80.162 I0. J5.45
G3 X268.67 Y78.513 I-6.595 J-8.244
X270.319 Y63.673 I8.244 J-6.595
X283.509 I6.595 J8.244
G2 X286.914 Y64.868 I3.405 J-4.256
G1 X297.398 Y64.859
G3 X297.54 Y64.917 I0. J0.2
X297.598 Y65.059 I-0.141 J0.141
G1 X297.585 Y80.476
G3 X297.385 Y80.676 I-0.2 J0.
G1 X286.914 Y80.668
G2 X284.571 Y81.489 I0. J3.75
G3 X267.342 Y79.575 I-7.657 J-9.572
X269.257 Y62.346 I9.572 J-7.657
X284.571 I7.657 J9.572
G2 X286.914 Y63.167 I2.343 J-2.928
G1 X297.398 Y63.159
G3 X297.54 Y63.218 I0. J0.2
X297.598 Y63.359 I-0.141 J0.141
G1 X297.59 Y82.218
G3 X297.39 Y82.418 I-0.2 J0.
G1 X286.914
G2 X285.665 Y82.856 I0. J2.
G3 X265.976 Y80.668 I-8.751 J-10.938
X268.163 Y60.979 I10.938 J-8.751
X285.665 I8.751 J10.938
G2 X286.914 Y61.417 I1.249 J-1.562
G1 X296.
X297.397
X297.444 Y61.421
X298.092 Y61.524
X298.158 Y61.534 Z5.508
X298.22 Y61.544 Z5.53
X298.277 Y61.553 Z5.565
X298.324 Y61.561 Z5.613
X298.359 Y61.566 Z5.67
X298.381 Y61.57 Z5.733
X298.388 Y61.571 Z5.8
G0 Z30.
X297.712 Y224.342
Z20.
G1 Z16. F200
Z5.8 F600
X297.704 Z5.733
X297.682 Z5.67
X297.646 Z5.613
X297.599 Z5.565
X297.542 Z5.53
X297.478 Z5.508
X297.412 Z5.5
X286.914 Y224.332
G2 X279.502 Y226.829 I0. J12.25
G3 X278.509 Y225.836 I0. J-0.993
X278.626 Y225.368 I0.993 J0.
G2 X278.267 Y224.19 I-0.768 J-0.41
X277.324 Y224.27 I-0.41 J0.768
G1 X277.242 Y224.33
X277.161 Y224.391
G3 X276.754 Y224.431 I-0.235 J-0.293
X276.541 Y224.082 I0.18 J-0.349
X276.874 Y223.744 I0.338 J0.
X277.324 Y223.894 I0.012 J0.713
X277.366 Y224.228 I-0.146 J0.188
X277.324 Y224.27 I-0.188 J-0.146
G2 X276.914 Y225.289 I0.672 J0.863
G3 X276.386 Y225.994 I-0.617 J0.089
X276.029 Y225.94 I-0.089 J-0.617
X275.056 Y223.197 I0.885 J-1.858
X277.799 Y222.224 I1.858 J0.885
X278.199 Y222.475 I-0.885 J1.858
G2 X279.328 Y223.262 I6.578 J-8.223
X280.528 Y223.935 I10.651 J-17.609
G3 X280.599 Y224.158 I-0.076 J0.147
X280.528 Y224.229 I-0.147 J-0.076
G2 X279.328 Y224.902 I9.451 J18.281
X278.199 Y225.689 I5.45 J9.01
G3 X276.029 Y225.94 I-1.285 J-1.607
X275.958 Y225.74 I0.065 J-0.135
X276.022 Y225.673 I0.135 J0.065
G1 X278.9 Y224.1
X278.935 Y224.087
X278.972 Y224.082
X297.14
X297.427 Y224.173
X297.457 Y224.19
X297.478 Y224.218
X297.487 Y224.252
X297.481 Y224.286
X297.462 Y224.315
X297.434 Y224.335
X297.4 Y224.342
X286.914 Y224.332
G2 X279.261 Y227.016 I0. J12.25
G3 X273.98 Y226.429 I-2.347 J-2.934
X274.567 Y221.148 I2.934 J-2.347
X279.261 I2.347 J2.934
G2 X286.914 Y223.832 I7.653 J-9.566
G1 X297.398 Y223.822
G3 X297.54 Y223.881 I0. J0.2
X297.598 Y224.024 I-0.142 J0.141
G1 X297.584 Y225.843
G3 X297.383 Y226.041 I-0.2 J-0.002
G1 X286.914 Y226.032
G2 X280.323 Y228.344 I0. J10.55
G3 X272.652 Y227.491 I-3.409 J-4.262
X273.505 Y219.82 I4.262 J-3.409
X280.323 I3.409 J4.262
G2 X286.914 Y222.132 I6.591 J-8.238
G1 X297.398 Y222.122
G3 X297.54 Y222.181 I0. J0.2
X297.598 Y222.323 I-0.142 J0.141
G1 X297.584 Y227.542
G3 X297.384 Y227.741 I-0.2 J-0.001
G1 X286.914 Y227.732
G2 X281.385 Y229.671 I0. J8.85
G3 X271.325 Y228.553 I-4.471 J-5.589
X272.443 Y218.493 I5.589 J-4.471
X281.385 I4.471 J5.589
G2 X286.914 Y220.432 I5.529 J-6.911
G1 X297.398 Y220.423
G3 X297.54 Y220.481 I0. J0.2
X297.598 Y220.623 I-0.141 J0.141
G1 X297.584 Y229.241
G3 X297.384 Y229.441 I-0.2 J0.
G1 X286.914 Y229.432
G2 X282.447 Y230.999 I0. J7.15
G3 X269.997 Y229.615 I-5.533 J-6.917
X271.381 Y217.165 I6.917 J-5.533
X282.447 I5.533 J6.917
G2 X286.914 Y218.732 I4.467 J-5.583
G1 X297.398 Y218.723
G3 X297.54 Y218.782 I0. J0.2
X297.598 Y218.923 I-0.141 J0.141
G1 X297.585 Y230.941
G3 X297.384 Y231.141 I-0.2 J0.
G1 X286.914 Y231.132
G2 X283.509 Y232.326 I0. J5.45
G3 X268.67 Y230.677 I-6.595 J-8.244
X270.319 Y215.838 I8.244 J-6.595
X283.509 I6.595 J8.244
G2 X286.914 Y217.032 I3.405 J-4.256
G1 X297.398 Y217.023
G3 X297.54 Y217.082 I0. J0.2
X297.598 Y217.224 I-0.141 J0.141
G1 X297.585 Y232.641
G3 X297.385 Y232.84 I-0.2 J0.
G1 X286.914 Y232.832
G2 X284.571 Y233.654 I0. J3.75
G3 X267.342 Y231.739 I-7.657 J-9.572
X269.257 Y214.51 I9.572 J-7.657
X284.571 I7.657 J9.572
G2 X286.914 Y215.332 I2.343 J-2.928
G1 X297.398 Y215.324
G3 X297.54 Y215.382 I0. J0.2
X297.598 Y215.524 I-0.141 J0.141
G1 X297.59 Y234.382
G3 X297.39 Y234.582 I-0.2 J0.
G1 X286.914
G2 X285.665 Y235.02 I0. J2.
G3 X265.976 Y232.833 I-8.751 J-10.938
X268.163 Y213.144 I10.938 J-8.751
X285.665 I8.751 J10.938
G2 X286.914 Y213.582 I1.249 J-1.562
G1 X296.
X297.397
X297.444 Y213.586
X298.092 Y213.688
X298.158 Y213.699 Z5.508
X298.22 Y213.709 Z5.53
X298.277 Y213.718 Z5.565
X298.324 Y213.725 Z5.613
X298.359 Y213.731 Z5.67
X298.381 Y213.734 Z5.733
X298.388 Y213.735 Z5.8
G0 Z30.
X-1.707 Y223.822
Z20.
G1 Z16. F200
Z5.8 F600
X-1.699 Z5.733
X-1.677 Z5.67
X-1.641 Z5.613
X-1.594 Z5.565
X-1.537 Z5.53
X-1.474 Z5.508
X-1.407 Z5.5
X-1.383
X9.086 Y223.832
G2 X16.498 Y221.335 I0. J-12.25
G3 X17.512 Y222.349 I0. J1.014
X17.425 Y222.76 I-1.014 J0.
G2 X17.876 Y223.93 I0.81 J0.359
X18.722 Y223.861 I0.359 J-0.81
G3 X19.125 Y223.744 I0.391 J0.596
X19.458 Y224.088 I-0.006 J0.338
X19.125 Y224.42 I-0.338 J-0.006
X18.675 Y224.27 I-0.012 J-0.713
X18.634 Y223.936 I0.146 J-0.188
X18.675 Y223.894 I0.188 J0.146
G1 X18.722 Y223.861
G2 X19.214 Y222.884 I-0.601 J-0.914
G3 X19.796 Y222.233 I0.617 J-0.035
X20.15 Y222.321 I0.035 J0.617
X20.847 Y225.146 I-1.064 J1.761
X19.446 Y226.108 I-1.761 J-1.064
X17.8 Y225.689 I-0.361 J-2.026
G2 X16.672 Y224.902 I-6.578 J8.222
X15.472 Y224.229 I-10.651 J17.609
G3 X15.401 Y224.006 I0.076 J-0.147
X15.472 Y223.935 I0.147 J0.076
G2 X16.672 Y223.262 I-9.451 J-18.281
X17.8 Y222.475 I-5.45 J-9.01
G3 X20.15 Y222.321 I1.286 J1.607
X20.201 Y222.527 I-0.078 J0.128
X20.138 Y222.584 I-0.128 J-0.078
G1 X17.093 Y224.067
X17.061 Y224.078
X17.028 Y224.082
X-1.124
X-1.411 Y223.991
X-1.441 Y223.974
X-1.462 Y223.946
X-1.47 Y223.912
X-1.464 Y223.878
X-1.446 Y223.849
X-1.417 Y223.829
X-1.383 Y223.822
X9.086 Y223.832
G2 X16.738 Y221.148 I0. J-12.25
G3 X22.02 Y221.734 I2.348 J2.934
X21.433 Y227.016 I-2.934 J2.348
X16.738 I-2.348 J-2.934
G2 X9.086 Y224.332 I-7.653 J9.566
G1 X-1.399 Y224.342
G3 X-1.541 Y224.283 I0. J-0.2
X-1.599 Y224.14 I0.142 J-0.141
G1 X-1.584 Y222.321
G3 X-1.384 Y222.123 I0.2 J0.002
G1 X9.086 Y222.132
G2 X15.676 Y219.82 I0. J-10.55
G3 X23.347 Y220.673 I3.409 J4.262
X22.495 Y228.344 I-4.262 J3.409
X15.676 I-3.409 J-4.262
G2 X9.086 Y226.032 I-6.591 J8.238
G1 X-1.399 Y226.042
G3 X-1.54 Y225.983 I0. J-0.2
X-1.599 Y225.841 I0.142 J-0.141
G1 X-1.584 Y220.622
G3 X-1.384 Y220.423 I0.2 J0.001
G1 X9.086 Y220.432
G2 X14.614 Y218.493 I0. J-8.85
G3 X24.675 Y219.611 I4.471 J5.589
X26.243 Y224.082 I-5.589 J4.471
X19.086 Y231.24 I-7.158 J0.
X14.614 Y229.671 I0. J-7.158
G2 X9.086 Y227.732 I-5.529 J6.911
G1 X-1.399 Y227.741
G3 X-1.54 Y227.683 I0. J-0.2
X-1.599 Y227.541 I0.141 J-0.141
G1 X-1.585 Y218.923
G3 X-1.384 Y218.723 I0.2 J0.
G1 X9.086 Y218.732
G2 X13.552 Y217.165 I0. J-7.15
G3 X26.002 Y218.549 I5.533 J6.917
X24.619 Y230.999 I-6.917 J5.533
X13.552 I-5.533 J-6.917
G2 X9.086 Y229.432 I-4.467 J5.583
G1 X-1.399 Y229.441
G3 X-1.54 Y229.382 I0. J-0.2
X-1.599 Y229.241 I0.141 J-0.141
G1 X-1.585 Y217.223
G3 X-1.385 Y217.023 I0.2 J0.
G1 X9.086 Y217.032
G2 X12.49 Y215.838 I0. J-5.45
G3 X27.33 Y217.486 I6.595 J8.244
X29.643 Y224.082 I-8.244 J6.595
X19.086 Y234.64 I-10.558 J0.
X12.49 Y232.326 I0. J-10.558
G2 X9.086 Y231.132 I-3.405 J4.256
G1 X-1.399 Y231.141
G3 X-1.54 Y231.082 I0. J-0.2
X-1.599 Y230.94 I0.141 J-0.141
G1 X-1.585 Y215.523
G3 X-1.385 Y215.324 I0.2 J0.
G1 X9.086 Y215.332
G2 X11.428 Y214.51 I0. J-3.75
G3 X28.657 Y216.425 I7.657 J9.572
X31.343 Y224.082 I-9.572 J7.657
X19.086 Y236.34 I-12.258 J0.
X11.428 Y233.654 I0. J-12.258
G2 X9.086 Y232.832 I-2.343 J2.928
G1 X-1.399 Y232.84
G3 X-1.54 Y232.782 I0. J-0.2
X-1.599 Y232.64 I0.141 J-0.141
G1 X-1.59 Y213.782
G3 X-1.39 Y213.582 I0.2 J0.
G1 X9.086
G2 X10.335 Y213.144 I0. J-2.
G3 X30.024 Y215.331 I8.751 J10.938
X27.836 Y235.02 I-10.938 J8.751
X10.335 I-8.751 J-10.938
G2 X9.086 Y234.582 I-1.249 J1.562
G1 X0.
X-1.397
X-1.444 Y234.578
X-2.092 Y234.476
X-2.158 Y234.465 Z5.508
X-2.22 Y234.455 Z5.53
X-2.277 Y234.446 Z5.565
X-2.324 Y234.439 Z5.613
X-2.359 Y234.433 Z5.67
X-2.381 Y234.43 Z5.733
X-2.388 Y234.429 Z5.8
G0 Z30.
X50.325 Y297.704
Z20.
G1 Z16. F200
Z5.8 F600
Y297.697 Z5.733
Y297.674 Z5.67
Y297.639 Z5.613
Y297.591 Z5.565
Y297.534 Z5.53
X50.326 Y297.471 Z5.508
Y297.404 Z5.5
X50.336 Y286.582
G2 X47.839 Y279.17 I-12.25 J0.
G3 X48.832 Y278.177 I0.993 J0.
X49.299 Y278.294 I0. J0.993
G2 X50.477 Y277.935 I0.41 J-0.768
X50.398 Y276.992 I-0.768 J-0.41
G1 X50.337 Y276.91
X50.277 Y276.829
G3 X50.236 Y276.422 I0.293 J-0.235
X50.586 Y276.209 I0.349 J0.18
X50.924 Y276.542 I0. J0.338
X50.774 Y276.992 I-0.713 J0.012
X50.439 Y277.034 I-0.188 J-0.146
X50.398 Y276.992 I0.146 J-0.188
G2 X49.379 Y276.582 I-0.863 J0.672
G3 X48.674 Y276.054 I-0.089 J-0.617
X48.728 Y275.697 I0.617 J-0.089
X51.471 Y274.724 I1.858 J0.885
X52.443 Y277.467 I-0.885 J1.858
X52.192 Y277.867 I-1.858 J-0.885
G2 X51.405 Y278.996 I8.223 J6.578
X50.733 Y280.196 I17.609 J10.651
G3 X50.509 Y280.267 I-0.147 J-0.076
X50.438 Y280.196 I0.076 J-0.147
G2 X49.766 Y278.996 I-18.281 J9.451
X48.979 Y277.867 I-9.01 J5.45
G3 X48.728 Y275.697 I1.607 J-1.285
X48.928 Y275.626 I0.135 J0.065
X48.995 Y275.69 I-0.065 J0.135
G1 X50.567 Y278.568
X50.581 Y278.603
X50.586 Y278.64
Y297.133
X50.494 Y297.42
X50.477 Y297.45
X50.449 Y297.471
X50.416 Y297.479
X50.381 Y297.474
X50.352 Y297.455
X50.333 Y297.426
X50.326 Y297.392
X50.336 Y286.582
G2 X47.651 Y278.929 I-12.25 J0.
G3 X48.238 Y273.648 I2.934 J-2.347
X53.52 Y274.235 I2.347 J2.934
Y278.929 I-2.934 J2.347
G2 X50.836 Y286.582 I9.566 J7.653
G1 X50.846 Y297.386
G3 X50.646 Y297.586 I-0.2 J0.
G1 X48.827 Y297.593
G3 X48.685 Y297.535 I-0.001 J-0.2
X48.626 Y297.393 I0.141 J-0.142
G1 X48.636 Y286.582
G2 X46.324 Y279.991 I-10.55 J0.
G3 X47.176 Y272.32 I4.262 J-3.409
X54.847 Y273.173 I3.409 J4.262
Y279.991 I-4.262 J3.409
G2 X52.536 Y286.582 I8.238 J6.591
G1 X52.545 Y297.386
G3 X52.346 Y297.586 I-0.2 J0.
G1 X47.126 Y297.593
G3 X46.985 Y297.535 I0. J-0.2
X46.926 Y297.393 I0.141 J-0.141
G1 X46.936 Y286.582
G2 X44.996 Y281.053 I-8.85 J0.
G3 X46.114 Y270.993 I5.589 J-4.471
X56.175 Y272.111 I4.471 J5.589
Y281.053 I-5.589 J4.471
G2 X54.236 Y286.582 I6.911 J5.529
G1 X54.245 Y297.386
G3 X54.187 Y297.527 I-0.2 J0.
X54.045 Y297.586 I-0.142 J-0.141
G1 X45.427 Y297.594
G3 X45.285 Y297.535 I0. J-0.2
X45.227 Y297.393 I0.141 J-0.141
G1 X45.236 Y286.582
G2 X43.669 Y282.115 I-7.15 J0.
G3 X45.052 Y269.665 I6.917 J-5.533
X57.502 Y271.049 I5.533 J6.917
Y282.115 I-6.917 J5.533
G2 X55.936 Y286.582 I5.583 J4.467
G1 X55.945 Y297.386
G3 X55.886 Y297.527 I-0.2 J0.
X55.745 Y297.586 I-0.142 J-0.141
G1 X43.727 Y297.594
G3 X43.585 Y297.535 I0. J-0.2
X43.527 Y297.394 I0.141 J-0.141
G1 X43.536 Y286.582
G2 X42.341 Y283.177 I-5.45 J0.
G3 X43.99 Y268.338 I8.244 J-6.595
X58.83 Y269.987 I6.595 J8.244
Y283.177 I-8.244 J6.595
G2 X57.636 Y286.582 I4.256 J3.405
G1 X57.644 Y297.386
G3 X57.586 Y297.527 I-0.2 J0.
X57.444 Y297.586 I-0.142 J-0.141
G1 X42.027 Y297.594
G3 X41.886 Y297.536 I0. J-0.2
X41.827 Y297.394 I0.141 J-0.141
G1 X41.836 Y286.582
G2 X41.014 Y284.239 I-3.75 J0.
G3 X42.928 Y267.01 I9.572 J-7.657
X60.157 Y268.925 I7.657 J9.572
Y284.239 I-9.572 J7.657
G2 X59.336 Y286.582 I2.928 J2.343
G1 X59.344 Y297.386
G3 X59.286 Y297.527 I-0.2 J0.
X59.144 Y297.586 I-0.142 J-0.141
G1 X40.286 Y297.599
G3 X40.144 Y297.54 I0. J-0.2
X40.086 Y297.399 I0.141 J-0.141
G1 Y286.582
G2 X39.647 Y285.333 I-2. J0.
G3 X41.835 Y265.644 I10.938 J-8.751
X61.524 Y267.831 I8.751 J10.938
Y285.333 I-10.938 J8.751
G2 X61.086 Y286.582 I1.562 J1.249
G1 Y296.
Y297.397
X61.082 Y297.444
X60.979 Y298.092
X60.969 Y298.158 Z5.508
X60.959 Y298.22 Z5.53
X60.95 Y298.277 Z5.565
X60.943 Y298.324 Z5.613
X60.937 Y298.359 Z5.67
X60.933 Y298.381 Z5.733
X60.932 Y298.388 Z5.8
G0 Z30.
X245.154 Y297.704
Z20.
G1 Z16. F200
Z5.8 F600
Y297.697 Z5.733
Y297.674 Z5.67
Y297.639 Z5.613
Y297.591 Z5.565
Y297.534 Z5.53
Y297.471 Z5.508
Y297.404 Z5.5
Y297.392
X245.164 Y286.582
G2 X242.667 Y279.17 I-12.25 J0.
G3 X243.66 Y278.177 I0.993 J0.
X244.128 Y278.294 I0. J0.993
G2 X245.306 Y277.935 I0.41 J-0.768
X245.226 Y276.992 I-0.768 J-0.41
G1 X245.166 Y276.91
X245.105 Y276.829
G3 X245.065 Y276.422 I0.293 J-0.235
X245.414 Y276.209 I0.349 J0.18
X245.752 Y276.542 I0. J0.338
X245.602 Y276.992 I-0.713 J0.012
X245.268 Y277.034 I-0.188 J-0.146
X245.226 Y276.992 I0.146 J-0.188
G2 X244.207 Y276.582 I-0.863 J0.672
G3 X243.502 Y276.054 I-0.089 J-0.617
X243.556 Y275.697 I0.617 J-0.089
X246.299 Y274.724 I1.858 J0.885
X247.272 Y277.467 I-0.885 J1.858
X247.021 Y277.867 I-1.858 J-0.885
G2 X246.234 Y278.996 I8.223 J6.578
X245.561 Y280.196 I17.609 J10.651
G3 X245.338 Y280.267 I-0.147 J-0.076
X245.267 Y280.196 I0.076 J-0.147
G2 X244.594 Y278.996 I-18.281 J9.451
X243.807 Y277.867 I-9.01 J5.45
G3 X243.556 Y275.697 I1.607 J-1.285
X243.756 Y275.626 I0.135 J0.065
X243.823 Y275.69 I-0.065 J0.135
G1 X245.396 Y278.568
X245.409 Y278.603
X245.414 Y278.64
Y297.133
X245.323 Y297.42
X245.306 Y297.45
X245.278 Y297.471
X245.244 Y297.479
X245.21 Y297.474
X245.181 Y297.455
X245.161 Y297.426
X245.154 Y297.392
X245.164 Y286.582
G2 X242.48 Y278.929 I-12.25 J0.
G3 X243.067 Y273.648 I2.934 J-2.347
X248.348 Y274.235 I2.347 J2.934
Y278.929 I-2.934 J2.347
G2 X245.664 Y286.582 I9.566 J7.653
G1 X245.674 Y297.386
G3 X245.475 Y297.586 I-0.2 J0.
G1 X243.655 Y297.593
G3 X243.513 Y297.535 I-0.001 J-0.2
X243.454 Y297.393 I0.141 J-0.142
G1 X243.464 Y286.582
G2 X241.152 Y279.991 I-10.55 J0.
G3 X242.005 Y272.32 I4.262 J-3.409
X249.676 Y273.173 I3.409 J4.262
Y279.991 I-4.262 J3.409
G2 X247.364 Y286.582 I8.238 J6.591
G1 X247.374 Y297.386
G3 X247.174 Y297.586 I-0.2 J0.
G1 X241.955 Y297.593
G3 X241.813 Y297.535 I0. J-0.2
X241.755 Y297.393 I0.141 J-0.141
G1 X241.764 Y286.582
G2 X239.825 Y281.053 I-8.85 J0.
G3 X240.943 Y270.993 I5.589 J-4.471
X251.003 Y272.111 I4.471 J5.589
Y281.053 I-5.589 J4.471
G2 X249.064 Y286.582 I6.911 J5.529
G1 X249.073 Y297.386
G3 X249.015 Y297.527 I-0.2 J0.
X248.874 Y297.586 I-0.142 J-0.141
G1 X240.255 Y297.594
G3 X240.114 Y297.535 I0. J-0.2
X240.055 Y297.393 I0.141 J-0.141
G1 X240.064 Y286.582
G2 X238.497 Y282.115 I-7.15 J0.
G3 X239.881 Y269.665 I6.917 J-5.533
X252.331 Y271.049 I5.533 J6.917
Y282.115 I-6.917 J5.533
G2 X250.764 Y286.582 I5.583 J4.467
G1 X250.773 Y297.386
G3 X250.715 Y297.527 I-0.2 J0.
X250.573 Y297.586 I-0.142 J-0.141
G1 X238.555 Y297.594
G3 X238.414 Y297.535 I0. J-0.2
X238.355 Y297.394 I0.141 J-0.141
G1 X238.364 Y286.582
G2 X237.17 Y283.177 I-5.45 J0.
G3 X238.819 Y268.338 I8.244 J-6.595
X253.658 Y269.987 I6.595 J8.244
Y283.177 I-8.244 J6.595
G2 X252.464 Y286.582 I4.256 J3.405
G1 X252.473 Y297.386
G3 X252.414 Y297.527 I-0.2 J0.
X252.273 Y297.586 I-0.142 J-0.141
G1 X236.856 Y297.594
G3 X236.714 Y297.536 I0. J-0.2
X236.655 Y297.394 I0.141 J-0.141
G1 X236.664 Y286.582
G2 X235.842 Y284.239 I-3.75 J0.
G3 X237.757 Y267.01 I9.572 J-7.657
X254.986 Y268.925 I7.657 J9.572
Y284.239 I-9.572 J7.657
G2 X254.164 Y286.582 I2.928 J2.343
G1 X254.173 Y297.386
G3 X254.114 Y297.527 I-0.2 J0.
X253.973 Y297.586 I-0.142 J-0.141
G1 X235.114 Y297.599
G3 X234.973 Y297.54 I0. J-0.2
X234.914 Y297.399 I0.141 J-0.141
G1 Y286.582
G2 X234.476 Y285.333 I-2. J0.
G3 X236.663 Y265.644 I10.938 J-8.751
X256.352 Y267.831 I8.751 J10.938
Y285.333 I-10.938 J8.751
G2 X255.914 Y286.582 I1.562 J1.249
G1 Y296.
Y297.397
X255.91 Y297.444
X255.808 Y298.092
X255.797 Y298.158 Z5.508
X255.787 Y298.22 Z5.53
X255.778 Y298.277 Z5.565
X255.771 Y298.324 Z5.613
X255.765 Y298.359 Z5.67
X255.762 Y298.381 Z5.733
X255.761 Y298.388 Z5.8
G0 Z30.

(2D Contour5)
G64
X148.3 Y-2.4
Z30.
Z20.
G1 Z16. F133.3
Z0.3
Y-2.396 Z0.25 F400
Y-2.1
Y-1.8
G3 X148. Y-1.5 I-0.3 J0.
G1 X145.75
Z0. F133.3
X134.671 F400
Z0.25
X130.171
Z0. F133.3
X119.092 F400
Z0.25
X114.592
Z0. F133.3
X103.513 F400
Z0.25
X99.013
Z0. F133.3
X87.934 F400
Z0.25
X83.434
Z0. F133.3
X72.355 F400
Z0.25
X67.855
Z0. F133.3
X56.776 F400
Z0.25
X52.276
Z0. F133.3
X41.197 F400
Z0.25
X36.697
Z0. F133.3
X25.618 F400
Z0.25
X21.118
Z0. F133.3
X10.039 F400
Z0.25
X5.539
Z0. F133.3
X0. F400
G2 X-1.5 Y0. I0. J1.5
G1 Y5.539
Z0.25
Y10.039
Z0. F133.3
Y21.118 F400
Z0.25
Y25.618
Z0. F133.3
Y36.697 F400
Z0.25
Y41.197
Z0. F133.3
Y52.276 F400
Z0.25
Y56.776
Z0. F133.3
Y67.855 F400
Z0.25
Y72.355
Z0. F133.3
Y83.434 F400
Z0.25
Y87.934
Z0. F133.3
Y99.013 F400
Z0.25
Y103.513
Z0. F133.3
Y114.592 F400
Z0.25
Y119.092
Z0. F133.3
Y130.171 F400
Z0.25
Y134.671
Z0. F133.3
Y145.75 F400
Z0.25
Y150.25
Z0. F133.3
Y161.329 F400
Z0.25
Y165.829
Z0. F133.3
Y176.908 F400
Z0.25
Y181.408
Z0. F133.3
Y192.487 F400
Z0.25
Y196.987
Z0. F133.3
Y208.066 F400
Z0.25
Y212.566
Z0. F133.3
Y223.645 F400
Z0.25
Y228.145
Z0. F133.3
Y239.224 F400
Z0.25
Y243.724
Z0. F133.3
Y254.803 F400
Z0.25
Y259.303
Z0. F133.3
Y270.382 F400
Z0.25
Y274.882
Z0. F133.3
Y285.961 F400
Z0.25
Y290.461
Z0. F133.3
Y296. F400
G2 X0. Y297.5 I1.5 J0.
G1 X5.539
Z0.25
X10.039
Z0. F133.3
X21.118 F400
Z0.25
X25.618
Z0. F133.3
X36.697 F400
Z0.25
X41.197
Z0. F133.3
X52.276 F400
Z0.25
X56.776
Z0. F133.3
X67.855 F400
Z0.25
X72.355
Z0. F133.3
X83.434 F400
Z0.25
X87.934
Z0. F133.3
X99.013 F400
Z0.25
X103.513
Z0. F133.3
X114.592 F400
Z0.25
X119.092
Z0. F133.3
X130.171 F400
Z0.25
X134.671
Z0. F133.3
X145.75 F400
Z0.25
X150.25
Z0. F133.3
X161.329 F400
Z0.25
X165.829
Z0. F133.3
X176.908 F400
Z0.25
X181.408
Z0. F133.3
X192.487 F400
Z0.25
X196.987
Z0. F133.3
X208.066 F400
Z0.25
X212.566
Z0. F133.3
X223.645 F400
Z0.25
X228.145
Z0. F133.3
X239.224 F400
Z0.25
X243.724
Z0. F133.3
X254.803 F400
Z0.25
X259.303
Z0. F133.3
X270.382 F400
Z0.25
X274.882
Z0. F133.3
X285.961 F400
Z0.25
X290.461
Z0. F133.3
X296. F400
G2 X297.5 Y296. I0. J-1.5
G1 Y290.461
Z0.25
Y285.961
Z0. F133.3
Y274.882 F400
Z0.25
Y270.382
Z0. F133.3
Y259.303 F400
Z0.25
Y254.803
Z0. F133.3
Y243.724 F400
Z0.25
Y239.224
Z0. F133.3
Y228.145 F400
Z0.25
Y223.645
Z0. F133.3
Y212.566 F400
Z0.25
Y208.066
Z0. F133.3
Y196.987 F400
Z0.25
Y192.487
Z0. F133.3
Y181.408 F400
Z0.25
Y176.908
Z0. F133.3
Y165.829 F400
Z0.25
Y161.329
Z0. F133.3
Y150.25 F400
Z0.25
Y145.75
Z0. F133.3
Y134.671 F400
Z0.25
Y130.171
Z0. F133.3
Y119.092 F400
Z0.25
Y114.592
Z0. F133.3
Y103.513 F400
Z0.25
Y99.013
Z0. F133.3
Y87.934 F400
Z0.25
Y83.434
Z0. F133.3
Y72.355 F400
Z0.25
Y67.855
Z0. F133.3
Y56.776 F400
Z0.25
Y52.276
Z0. F133.3
Y41.197 F400
Z0.25
Y36.697
Z0. F133.3
Y25.618 F400
Z0.25
Y21.118
Z0. F133.3
Y10.039 F400
Z0.25
Y5.539
Z0. F133.3
Y0. F400
G2 X296. Y-1.5 I-1.5 J0.
G1 X290.461
Z0.25
X285.961
Z0. F133.3
X274.882 F400
Z0.25
X270.382
Z0. F133.3
X259.303 F400
Z0.25
X254.803
Z0. F133.3
X243.724 F400
Z0.25
X239.224
Z0. F133.3
X228.145 F400
Z0.25
X223.645
Z0. F133.3
X212.566 F400
Z0.25
X208.066
Z0. F133.3
X196.987 F400
Z0.25
X192.487
Z0. F133.3
X181.408 F400
Z0.25
X176.908
Z0. F133.3
X165.829 F400
Z0.25
X161.329
Z0. F133.3
X150.25 F400
Z0.25
X148.
G3 X147.7 Y-1.8 I0. J-0.3
G1 Y-2.1
Y-2.396 F133.3
Y-2.4 Z0.3 F400
G0 Z30.
M5
M30
