(talramme v3)
(8 tal i orden)
(Machine)
(  vendor: Autodesk)
(  model: Generic 3-axis)
(  description: This machine has XYZ axis on the Head)
(T1  D=3. CR=0. - ZMIN=-0.053 - flat end mill)
G90

(2D Contour14)
T1 M6 (flat end mill D=3.)
S15000 M3
G64
G54
G43 H1
G0 Z30.
G0 X105.162 Y207.668
Z30.
Z20.
G1 Z16. F200
Z12.247
X105.163 Y207.675 Z12.18 F600
X105.167 Y207.697 Z12.116
X105.174 Y207.732 Z12.06
X105.183 Y207.779 Z12.012
X105.193 Y207.835 Z11.976
X105.205 Y207.897 Z11.954
X105.217 Y207.963 Z11.947
X105.272 Y208.258
G3 X105.032 Y208.608 I-0.295 J0.055
G1 X104.958 Y208.622
X104.903 Y208.633
X104.483 Y208.728
X104.439 Y208.739
X104.029 Y208.845
X104.002 Y208.852
X103.69 Y208.939
Y207.473
X103.978 Y207.37
X104.36 Y207.258
X104.755 Y207.168
X105.165 Y207.099
X105.589 Y207.052
X106.028 Y207.028
X106.481 Y207.026
X106.944 Y207.047
X107.419 Y207.092
X107.903 Y207.16
X108.389 Y207.25
X108.876 Y207.364
X109.36 Y207.499
X109.835 Y207.656
X110.298 Y207.832
X110.744 Y208.027
X111.168 Y208.237
X111.564 Y208.462
X111.93 Y208.698
X112.263 Y208.946
X112.574 Y209.211
X112.698 Y209.33
X112.825 Y209.461
X112.943 Y209.594
X113.054 Y209.728
X113.156 Y209.864
X113.249 Y209.999
X113.335 Y210.138
X113.415 Y210.281
X113.489 Y210.426
X113.549 Y210.558
X113.669 Y210.878
X113.761 Y211.201
X113.83 Y211.545
X113.877 Y211.908
X113.9 Y212.288
X113.901 Y212.685
X113.878 Y213.095
X113.835 Y213.514
X113.77 Y213.931
X113.685 Y214.344
X113.582 Y214.745
X113.462 Y215.127
X113.327 Y215.484
X113.178 Y215.812
X113.02 Y216.107
X112.855 Y216.365
X112.673 Y216.602
X112.599 Y216.685
X112.526 Y216.76
X112.333 Y216.931
X112.146 Y217.066
X111.949 Y217.181
X111.736 Y217.28
X111.498 Y217.367
X111.242 Y217.441
X110.966 Y217.501
X110.667 Y217.549
X110.352 Y217.587
X110.035 Y217.614
X109.339 Y217.643
X108.641 Y217.644
X107.936 Y217.621
X107.209 Y217.575
G2 X106.088 Y217.979 I-0.094 J1.497
X105.615 Y219.072 I1.027 J1.093
G1 Y221.982
G2 X107.115 Y223.482 I1.5 J0.
G1 X112.206
Y224.847
X103.69
Y216.397
X108.177
G2 X108.432 Y216.375 I0. J-1.5
G1 X108.728 Y216.324
X108.791 Y216.312
X109.068 Y216.252
X109.138 Y216.235
X109.396 Y216.166
X109.481 Y216.141
X109.719 Y216.062
X109.807 Y216.029
X110.025 Y215.941
X110.127 Y215.896
X110.326 Y215.798
X110.427 Y215.743
X110.606 Y215.637
X110.726 Y215.558
X110.885 Y215.442
X111.004 Y215.345
X111.143 Y215.22
X111.202 Y215.165
X111.257 Y215.106
X111.377 Y214.972
X111.434 Y214.905
X111.486 Y214.835
X111.586 Y214.693
X111.637 Y214.615
X111.684 Y214.535
X111.764 Y214.385
X111.802 Y214.307
X111.836 Y214.227
X111.898 Y214.069
X111.93 Y213.981
X111.956 Y213.891
X111.998 Y213.726
X112.017 Y213.641
X112.031 Y213.555
X112.054 Y213.383
X112.062 Y213.305
X112.066 Y213.226
X112.071 Y213.049
X112.072 Y212.971
X112.068 Y212.892
X112.054 Y212.71
X112.037 Y212.577
X112.006 Y212.392
X111.982 Y212.276
X111.935 Y212.088
X111.902 Y211.973
X111.838 Y211.783
X111.797 Y211.677
X111.717 Y211.488
X111.678 Y211.402
X111.584 Y211.214
X111.536 Y211.127
X111.427 Y210.941
X111.38 Y210.865
X111.259 Y210.684
X111.205 Y210.609
X111.071 Y210.433
X111.019 Y210.369
X110.874 Y210.199
X110.813 Y210.132
X110.657 Y209.97
X110.597 Y209.91
X110.432 Y209.757
X110.364 Y209.698
X110.19 Y209.555
X110.126 Y209.505
X109.945 Y209.372
X109.866 Y209.318
X109.677 Y209.197
X109.6 Y209.151
X109.405 Y209.042
X109.328 Y209.001
X109.128 Y208.904
X109.042 Y208.866
X108.837 Y208.782
X108.75 Y208.75
X108.541 Y208.679
X108.461 Y208.654
X108.249 Y208.595
X108.167 Y208.575
X107.952 Y208.528
X107.871 Y208.512
X107.654 Y208.477
X107.585 Y208.468
X107.366 Y208.443
X107.284 Y208.436
X107.064 Y208.423
X106.973 Y208.42
X106.533 Y208.421
X106.42 Y208.425
X105.981 Y208.459
X105.889 Y208.47
X105.454 Y208.531
X105.386 Y208.542
X105.032 Y208.608
G3 X104.682 Y208.368 I-0.055 J-0.295
G1 X104.627 Y208.073
X104.615 Y208.007 Z11.954
X104.603 Y207.945 Z11.976
X104.593 Y207.889 Z12.012
X104.584 Y207.842 Z12.06
X104.578 Y207.807 Z12.116
X104.574 Y207.786 Z12.18
X104.572 Y207.778 Z12.247
G0 Z20.
X110.816 Y178.087
G1 Z16. F200
Z12.247
X110.824 Z12.18 F600
X110.846 Z12.116
X110.881 Z12.06
X110.929 Z12.012
X110.986 Z11.976
X111.049 Z11.954
X111.116 Z11.947
X111.416
G3 X111.716 Y178.387 I0. J0.3
G1 Y187.773
X109.739
X101.246 Y176.787
Y174.309
X108.209
G2 X109.709 Y172.809 I0. J-1.5
G1 Y169.819
X111.716
Y172.809
G2 X113.216 Y174.309 I1.5 J0.
G1 X114.71
Y175.799
X113.216
G2 X111.716 Y177.299 I0. J1.5
G1 Y178.387
G3 X111.416 Y178.687 I-0.3 J0.
G1 X111.116
X111.049 Z11.954
X110.986 Z11.976
X110.929 Z12.012
X110.881 Z12.06
X110.846 Z12.116
X110.824 Z12.18
X110.816 Z12.247
G0 Z20.
X107.682 Y150.783
G1 Z16. F200
Z12.247
Y150.776 Z12.18 F600
X107.68 Y150.754 Z12.116
X107.678 Y150.718 Z12.06
X107.675 Y150.671 Z12.012
X107.671 Y150.614 Z11.976
X107.666 Y150.551 Z11.954
X107.662 Y150.484 Z11.947
X107.641 Y150.185
G3 X107.714 Y149.967 I0.299 J-0.021
X107.92 Y149.865 I0.226 J0.197
G1 X107.952 Y149.862
X108.041 Y149.854
X108.342 Y149.815
X108.428 Y149.801
X108.724 Y149.745
X108.812 Y149.725
X109.101 Y149.652
X109.199 Y149.624
X109.478 Y149.533
X109.581 Y149.495
X109.845 Y149.387
X109.961 Y149.334
X110.207 Y149.208
X110.33 Y149.137
X110.554 Y148.994
X110.623 Y148.948
X110.689 Y148.897
X110.886 Y148.738
X110.957 Y148.678
X111.023 Y148.613
X111.191 Y148.439
X111.263 Y148.358
X111.33 Y148.273
X111.466 Y148.084
X111.531 Y147.985
X111.588 Y147.881
X111.689 Y147.68
G2 X111.784 Y147.443 I-1.34 J-0.673
G1 X111.849 Y147.229
G2 X111.902 Y146.981 I-1.435 J-0.436
G1 X111.93 Y146.759
X111.941 Y146.636
Y146.512
X111.932 Y146.282
X111.924 Y146.174
X111.908 Y146.066
X111.864 Y145.83
X111.842 Y145.732
X111.814 Y145.636
X111.736 Y145.399
X111.708 Y145.323
X111.677 Y145.248
X111.569 Y145.01
X111.501 Y144.879
X111.365 Y144.644
X111.298 Y144.538
X111.138 Y144.308
X111.069 Y144.217
X110.887 Y143.994
X110.823 Y143.921
X110.624 Y143.707
X110.558 Y143.64
X110.344 Y143.437
X110.28 Y143.379
X110.055 Y143.189
X109.993 Y143.139
X109.758 Y142.961
X109.696 Y142.917
X109.455 Y142.753
X109.387 Y142.71
X109.139 Y142.56
X109.079 Y142.525
X108.827 Y142.388
X108.771 Y142.359
X108.516 Y142.234
X108.451 Y142.204
X108.192 Y142.092
X108.138 Y142.07
X107.877 Y141.969
X107.798 Y141.941
X107.27 Y141.77
X107.177 Y141.743
X106.641 Y141.607
X106.564 Y141.59
X106.02 Y141.482
X105.951 Y141.47
X105.4 Y141.387
X105.34 Y141.379
X104.977 Y141.339
Y140.68
X105.278 Y140.681
X105.329 Y140.68
X105.918 Y140.661
X105.969 Y140.659
X106.556 Y140.62
X106.602 Y140.616
X107.188 Y140.559
X107.236 Y140.554
X107.822 Y140.478
X107.882 Y140.468
X108.46 Y140.369
X108.536 Y140.354
X108.816 Y140.291
X108.883 Y140.275
X109.153 Y140.201
X109.251 Y140.17
X109.506 Y140.081
X109.638 Y140.028
X109.873 Y139.92
X109.954 Y139.88
X110.032 Y139.835
X110.242 Y139.706
X110.314 Y139.659
X110.383 Y139.608
X110.476 Y139.535
X110.572 Y139.453
X110.658 Y139.373
X110.747 Y139.283
X110.825 Y139.197
X110.92 Y139.081
X110.988 Y138.989
X111.065 Y138.874
X111.125 Y138.775
X111.189 Y138.658
X111.24 Y138.554
X111.296 Y138.425
X111.338 Y138.314
X111.373 Y138.208
X111.407 Y138.093
X111.43 Y138.008
X111.447 Y137.922
X111.489 Y137.678
X111.502 Y137.587
X111.509 Y137.494
X111.521 Y137.237
Y137.088
X111.507 Y136.824
X111.497 Y136.711
X111.463 Y136.448
X111.445 Y136.341
X111.393 Y136.085
X111.369 Y135.985
X111.302 Y135.742
X111.271 Y135.642
X111.191 Y135.415
X111.143 Y135.296
X111.048 Y135.086
X111.012 Y135.013
X110.973 Y134.942
X110.861 Y134.752
X110.811 Y134.672
X110.755 Y134.595
X110.621 Y134.422
X110.557 Y134.346
X110.489 Y134.274
X110.33 Y134.117
X110.257 Y134.049
X110.18 Y133.987
X109.992 Y133.845
X109.923 Y133.796
X109.852 Y133.751
X109.634 Y133.622
X109.512 Y133.558
X109.263 Y133.439
X109.153 Y133.392
X108.876 Y133.287
X108.785 Y133.256
X108.483 Y133.163
X108.402 Y133.141
X108.082 Y133.062
X108.005 Y133.045
X107.672 Y132.981
X107.599 Y132.969
X107.26 Y132.921
X107.177 Y132.911
X106.837 Y132.882
X106.759 Y132.878
X106.424 Y132.867
X106.334
X106.008 Y132.876
X105.92 Y132.881
X105.606 Y132.908
X105.505 Y132.92
X105.202 Y132.967
X105.114 Y132.983
X104.824 Y133.046
X104.742 Y133.066
X104.46 Y133.144
X104.387 Y133.166
X104.113 Y133.257
X104.039 Y133.284
X103.498 Y133.496
X103.449 Y133.516
X102.897 Y133.755
X102.895 Y133.756
X102.382 Y133.979
Y133.156
X102.64 Y133.018
X103.17 Y132.747
X103.718 Y132.484
X104.278 Y132.233
X104.858 Y131.999
X105.14 Y131.898
X105.436 Y131.801
X105.735 Y131.713
X106.04 Y131.636
X106.351 Y131.57
X106.668 Y131.516
X106.996 Y131.476
X107.335 Y131.449
X107.685 Y131.439
X108.047 Y131.445
X108.418 Y131.469
X108.8 Y131.513
X109.191 Y131.577
X109.59 Y131.662
X109.992 Y131.767
X110.395 Y131.894
X110.798 Y132.042
X111.194 Y132.21
X111.582 Y132.399
X111.957 Y132.604
X112.315 Y132.829
X112.656 Y133.067
X112.972 Y133.32
X113.266 Y133.585
X113.532 Y133.859
X113.772 Y134.142
X113.983 Y134.428
X114.164 Y134.719
X114.318 Y135.013
X114.445 Y135.307
X114.542 Y135.599
X114.614 Y135.889
X114.66 Y136.176
X114.681 Y136.455
X114.679 Y136.726
X114.653 Y136.989
X114.606 Y137.241
X114.538 Y137.483
X114.451 Y137.712
X114.343 Y137.93
X114.217 Y138.137
X114.069 Y138.335
X113.899 Y138.524
X113.707 Y138.704
X113.49 Y138.875
X113.242 Y139.038
X112.965 Y139.192
X112.66 Y139.334
X112.32 Y139.464
X111.947 Y139.583
X111.541 Y139.686
X111.065 Y139.781
G2 X109.889 Y141.547 I0.295 J1.471
X110.4 Y142.405 I1.471 J-0.295
G1 X110.786 Y142.726
X111.141 Y143.036
X111.477 Y143.345
X111.794 Y143.655
X112.093 Y143.962
X112.37 Y144.266
X112.628 Y144.568
X112.864 Y144.867
X113.078 Y145.162
X113.267 Y145.449
X113.429 Y145.728
X113.565 Y145.998
X113.676 Y146.261
X113.76 Y146.511
X113.818 Y146.751
X113.852 Y146.986
X113.863 Y147.217
X113.849 Y147.47
X113.836 Y147.572
X113.815 Y147.689
X113.787 Y147.808
X113.751 Y147.933
X113.707 Y148.062
X113.663 Y148.174
X113.533 Y148.447
X113.378 Y148.709
X113.194 Y148.968
X112.98 Y149.221
X112.744 Y149.46
X112.486 Y149.682
X112.206 Y149.887
X111.908 Y150.072
X111.599 Y150.234
X111.276 Y150.375
X110.942 Y150.495
X110.604 Y150.594
X110.263 Y150.672
X109.921 Y150.733
X109.582 Y150.776
X109.245 Y150.805
X108.918 Y150.823
X108.604 Y150.828
X108.296 Y150.823
X108. Y150.811
X107.724 Y150.791
X107.138 Y150.723
X106.862 Y150.678
X106.568 Y150.623
X106.266 Y150.557
X105.95 Y150.479
X105.626 Y150.391
X105.296 Y150.291
X104.959 Y150.18
X104.622 Y150.06
X104.287 Y149.928
X103.964 Y149.79
X103.654 Y149.645
X103.36 Y149.494
X103.089 Y149.339
X102.84 Y149.18
X102.615 Y149.02
X102.582 Y148.993
X102.972 Y148.532
X103.189 Y148.677
X103.245 Y148.713
X103.475 Y148.852
X103.525 Y148.881
X103.762 Y149.012
X103.828 Y149.046
X104.073 Y149.166
X104.13 Y149.193
X104.383 Y149.304
X104.443 Y149.328
X104.703 Y149.429
X104.772 Y149.454
X105.039 Y149.543
X105.102 Y149.563
X105.376 Y149.641
X105.438 Y149.657
X105.718 Y149.724
X105.795 Y149.74
X106.082 Y149.793
X106.155 Y149.805
X106.447 Y149.844
X106.515 Y149.851
X106.812 Y149.877
X106.893 Y149.882
X107.193 Y149.892
X107.273 Y149.893
X107.575 Y149.887
X107.649 Y149.883
X107.92 Y149.865
G3 X108.24 Y150.143 I0.021 J0.299
G1 X108.26 Y150.442
X108.265 Y150.509 Z11.954
X108.269 Y150.572 Z11.976
X108.273 Y150.629 Z12.012
X108.277 Y150.676 Z12.06
X108.279 Y150.712 Z12.116
X108.281 Y150.734 Z12.18
Y150.742 Z12.247
G0 Z20.
X112.045 Y112.153
G1 Z16. F200
Z12.247
X112.051 Y112.158 Z12.18 F600
X112.069 Y112.172 Z12.116
X112.097 Y112.194 Z12.06
X112.134 Y112.223 Z12.012
X112.179 Y112.258 Z11.976
X112.229 Y112.297 Z11.954
X112.282 Y112.338 Z11.947
X112.518 Y112.523
G3 X112.569 Y112.944 I-0.185 J0.236
G1 X112.547 Y112.973
X112.373 Y113.17
X112.192 Y113.353
X112.004 Y113.522
X111.808 Y113.677
X111.603 Y113.819
X111.39 Y113.95
X111.167 Y114.067
X110.931 Y114.173
X110.686 Y114.268
X110.427 Y114.352
X110.158 Y114.424
X109.874 Y114.484
X109.582 Y114.532
X109.278 Y114.568
X108.964 Y114.592
X108.644 Y114.603
X108.317 Y114.602
X107.986 Y114.588
X107.649 Y114.562
X107.315 Y114.525
X106.981 Y114.475
X106.647 Y114.414
X106.317 Y114.341
X105.995 Y114.258
X105.678 Y114.163
X105.371 Y114.059
X105.074 Y113.945
X104.784 Y113.82
X104.505 Y113.686
X104.239 Y113.544
X103.983 Y113.393
X103.736 Y113.231
X103.503 Y113.064
X103.282 Y112.887
X103.066 Y112.698
X102.985 Y112.621
X103.626 Y112.051
X103.793 Y112.171
X103.879 Y112.228
X104.251 Y112.459
X104.345 Y112.513
X104.724 Y112.712
X104.827 Y112.761
X105.212 Y112.927
X105.326 Y112.971
X105.717 Y113.103
X105.827 Y113.136
X106.22 Y113.236
X106.35 Y113.263
X106.745 Y113.327
X106.867 Y113.341
X107.26 Y113.372
X107.397 Y113.377
X107.785 Y113.372
X107.92 Y113.364
X108.298 Y113.325
X108.447 Y113.302
X108.811 Y113.227
X108.92 Y113.2
X109.095 Y113.15
X109.17 Y113.127
X109.339 Y113.069
X109.422 Y113.037
X109.585 Y112.97
X109.662 Y112.936
X109.819 Y112.861
X109.902 Y112.818
X110.051 Y112.735
X110.128 Y112.689
X110.269 Y112.599
X110.352 Y112.543
X110.485 Y112.445
X110.565 Y112.381
X110.69 Y112.275
X110.762 Y112.21
X110.878 Y112.098
X110.952 Y112.021
X111.058 Y111.903
X111.127 Y111.821
X111.224 Y111.696
X111.278 Y111.621
X111.366 Y111.492
X111.426 Y111.397
X111.504 Y111.262
X111.547 Y111.183
X111.616 Y111.045
X111.677 Y110.905
X111.786 Y110.617
X111.815 Y110.534
X111.839 Y110.449
X111.912 Y110.152
X111.93 Y110.07
X111.944 Y109.987
X111.984 Y109.687
X111.992 Y109.608
X111.996 Y109.529
X112.004 Y109.229
X112.002 Y109.087
X111.982 Y108.793
X111.964 Y108.646
X111.916 Y108.361
X111.886 Y108.223
X111.813 Y107.95
X111.77 Y107.816
X111.674 Y107.557
X111.614 Y107.416
X111.494 Y107.172
X111.425 Y107.048
X111.284 Y106.819
X111.242 Y106.753
X111.196 Y106.691
X111.033 Y106.479
X110.935 Y106.363
X110.756 Y106.174
X103.048 Y97.81
Y96.518
X114.67
Y96.896
X107.826
G2 X106.326 Y98.396 I0. J1.5
X106.674 Y99.357 I1.5 J0.
G1 X113.282 Y107.273
X113.366 Y107.409
X113.469 Y107.6
X113.561 Y107.797
X113.639 Y107.998
X113.706 Y108.205
X113.76 Y108.418
X113.802 Y108.64
X113.832 Y108.872
X113.85 Y109.115
X113.855 Y109.363
X113.847 Y109.617
X113.825 Y109.881
X113.788 Y110.15
X113.738 Y110.425
X113.674 Y110.701
X113.596 Y110.978
X113.504 Y111.255
X113.399 Y111.528
X113.284 Y111.793
X113.155 Y112.052
X113.017 Y112.301
X112.87 Y112.536
X112.711 Y112.763
X112.569 Y112.944
G3 X112.369 Y113.057 I-0.236 J-0.185
X112.148 Y112.996 I-0.036 J-0.298
G1 X111.912 Y112.811
X111.859 Y112.77 Z11.954
X111.809 Y112.731 Z11.976
X111.764 Y112.696 Z12.012
X111.727 Y112.666 Z12.06
X111.699 Y112.644 Z12.116
X111.681 Y112.631 Z12.18
X111.675 Y112.626 Z12.247
G0 Z20.
X109.245 Y74.486
G1 Z16. F200
Z12.247
X109.253 Z12.18 F600
X109.275 Z12.116
X109.31 Z12.06
X109.358 Z12.012
X109.415 Z11.976
X109.478 Z11.954
X109.545 Z11.947
X109.845
G3 X110.145 Y74.786 I0. J0.3
G1 Y76.203
X107.711
X103.283 Y72.4
X103.865 Y71.723
X106.022 Y73.575
G2 X108.137 Y73.414 I0.977 J-1.138
X108.499 Y72.437 I-1.138 J-0.977
G1 Y58.336
X110.145
Y74.786
G3 X109.845 Y75.086 I-0.3 J0.
G1 X109.545
X109.478 Z11.954
X109.415 Z11.976
X109.358 Z12.012
X109.31 Z12.06
X109.275 Z12.116
X109.253 Z12.18
X109.245 Z12.247
G0 Z20.
X65.171 Y74.776
G1 Z16. F200
Z12.247
X65.179 Z12.18 F600
X65.201 Z12.116
X65.236 Z12.06
X65.284 Z12.012
X65.341 Z11.976
X65.404 Z11.954
X65.471 Z11.947
X65.771
G3 X66.071 Y75.076 I0. J0.3
G1 Y76.493
X63.636
X59.209 Y72.69
X59.791 Y72.013
X61.947 Y73.865
G2 X64.062 Y73.705 I0.977 J-1.138
X64.424 Y72.728 I-1.138 J-0.977
G1 Y58.626
X66.071
Y75.076
G3 X65.771 Y75.376 I-0.3 J0.
G1 X65.471
X65.404 Z11.954
X65.341 Z11.976
X65.284 Z12.012
X65.236 Z12.06
X65.201 Z12.116
X65.179 Z12.18
X65.171 Z12.247
G0 Z20.
X61.441 Y97.972
G1 Z16. F200
Z12.247
X61.448 Y97.973 Z12.18 F600
X61.47 Y97.977 Z12.116
X61.505 Y97.983 Z12.06
X61.552 Y97.991 Z12.012
X61.608 Y98.001 Z11.976
X61.671 Y98.012 Z11.954
X61.736 Y98.024 Z11.947
X62.032 Y98.076
G3 X62.275 Y98.424 I-0.052 J0.295
G2 X62.6 Y99.647 I1.477 J0.262
G1 X69.206 Y107.562
X69.292 Y107.7
X69.396 Y107.891
X69.486 Y108.086
X69.564 Y108.288
X69.631 Y108.495
X69.686 Y108.71
X69.728 Y108.932
X69.759 Y109.163
X69.776 Y109.403
X69.781 Y109.651
X69.773 Y109.908
X69.75 Y110.171
X69.714 Y110.441
X69.664 Y110.715
X69.599 Y110.992
X69.521 Y111.27
X69.43 Y111.544
X69.325 Y111.818
X69.209 Y112.084
X69.082 Y112.342
X68.943 Y112.59
X68.795 Y112.828
X68.638 Y113.053
X68.473 Y113.264
X68.3 Y113.46
X68.117 Y113.644
X67.93 Y113.812
X67.733 Y113.968
X67.529 Y114.11
X67.317 Y114.239
X67.092 Y114.358
X66.858 Y114.464
X66.611 Y114.559
X66.354 Y114.642
X66.083 Y114.714
X65.8 Y114.775
X65.508 Y114.822
X65.204 Y114.859
X64.891 Y114.882
X64.57 Y114.894
X64.243 Y114.892
X63.91 Y114.879
X63.577 Y114.854
X63.24 Y114.815
X62.905 Y114.766
X62.573 Y114.705
X62.243 Y114.632
X61.922 Y114.549
X61.606 Y114.454
X61.297 Y114.349
X60.998 Y114.234
X60.709 Y114.11
X60.432 Y113.977
X60.164 Y113.834
X59.909 Y113.683
X59.663 Y113.523
X59.428 Y113.353
X59.205 Y113.176
X58.993 Y112.991
X58.911 Y112.912
X59.553 Y112.341
X59.719 Y112.461
X59.805 Y112.519
X60.177 Y112.75
X60.271 Y112.803
X60.65 Y113.002
X60.753 Y113.052
X61.139 Y113.218
X61.248 Y113.26
X61.639 Y113.393
X61.757 Y113.428
X62.15 Y113.527
X62.273 Y113.552
X62.668 Y113.617
X62.797 Y113.633
X63.19 Y113.663
X63.32 Y113.667
X63.708 Y113.663
X63.85 Y113.655
X64.228 Y113.615
X64.369 Y113.593
X64.733 Y113.519
X64.847 Y113.491
X65.021 Y113.441
X65.095 Y113.418
X65.264 Y113.36
X65.348 Y113.328
X65.511 Y113.261
X65.589 Y113.227
X65.746 Y113.152
X65.827 Y113.11
X65.976 Y113.027
X66.058 Y112.978
X66.199 Y112.887
X66.277 Y112.833
X66.41 Y112.735
X66.487 Y112.674
X66.612 Y112.569
X66.689 Y112.5
X66.805 Y112.388
X66.88 Y112.31
X66.986 Y112.191
X67.049 Y112.116
X67.146 Y111.992
X67.209 Y111.905
X67.297 Y111.775
X67.349 Y111.692
X67.427 Y111.558
X67.476 Y111.468
X67.544 Y111.329
X67.601 Y111.199
X67.711 Y110.912
X67.74 Y110.826
X67.765 Y110.738
X67.839 Y110.441
X67.856 Y110.36
X67.87 Y110.278
X67.91 Y109.977
X67.918 Y109.899
X67.922 Y109.821
X67.931 Y109.522
X67.928 Y109.376
X67.907 Y109.081
X67.89 Y108.937
X67.842 Y108.652
X67.812 Y108.514
X67.739 Y108.241
X67.696 Y108.103
X67.599 Y107.844
X67.541 Y107.709
X67.421 Y107.465
X67.349 Y107.333
X67.207 Y107.105
X67.121 Y106.981
X66.958 Y106.769
X66.861 Y106.656
X66.682 Y106.465
X58.973 Y98.1
Y96.809
X70.595
Y97.186
X63.752
G2 X62.275 Y98.424 I0. J1.5
G3 X61.927 Y98.667 I-0.295 J-0.052
G1 X61.632 Y98.615
X61.566 Y98.603 Z11.954
X61.503 Y98.592 Z11.976
X61.447 Y98.582 Z12.012
X61.401 Y98.574 Z12.06
X61.365 Y98.568 Z12.116
X61.344 Y98.564 Z12.18
X61.336 Y98.562 Z12.247
G0 Z20.
X69.671 Y136.302
G1 Z16. F200
Z12.247
X69.679 Y136.301 Z12.18 F600
X69.701 Y136.3 Z12.116
X69.736 Y136.297 Z12.06
X69.784 Y136.293 Z12.012
X69.841 Y136.289 Z11.976
X69.904 Y136.284 Z11.954
X69.97 Y136.279 Z11.947
X70.269 Y136.256
G3 X70.488 Y136.328 I0.023 J0.299
X70.591 Y136.533 I-0.195 J0.228
G1 X70.607 Y136.745
X70.605 Y137.017
X70.579 Y137.279
X70.532 Y137.531
X70.464 Y137.773
X70.377 Y138.002
X70.269 Y138.221
X70.142 Y138.429
X69.996 Y138.625
X69.826 Y138.813
X69.633 Y138.994
X69.414 Y139.166
X69.169 Y139.329
X68.893 Y139.481
X68.584 Y139.625
X68.246 Y139.755
X67.873 Y139.873
X67.466 Y139.977
X66.993 Y140.071
G2 X65.814 Y141.835 I0.293 J1.471
X66.326 Y142.695 I1.471 J-0.293
G1 X66.712 Y143.016
X67.066 Y143.326
X67.402 Y143.636
X67.72 Y143.945
X68.018 Y144.252
X68.296 Y144.556
X68.554 Y144.858
X68.789 Y145.157
X69.002 Y145.451
X69.192 Y145.74
X69.355 Y146.02
X69.492 Y146.291
X69.602 Y146.551
X69.686 Y146.801
X69.744 Y147.043
X69.778 Y147.276
X69.789 Y147.508
X69.776 Y147.76
X69.763 Y147.858
X69.741 Y147.979
X69.712 Y148.101
X69.676 Y148.225
X69.633 Y148.351
X69.589 Y148.463
X69.458 Y148.74
X69.304 Y149.
X69.12 Y149.259
X68.908 Y149.511
X68.67 Y149.75
X68.41 Y149.974
X68.131 Y150.179
X67.835 Y150.363
X67.525 Y150.525
X67.202 Y150.666
X66.87 Y150.785
X66.532 Y150.884
X66.189 Y150.962
X65.845 Y151.023
X65.506 Y151.067
X65.173 Y151.096
X64.846 Y151.113
X64.528 Y151.118
X64.222 Y151.114
X63.928 Y151.101
X63.65 Y151.081
X63.061 Y151.013
X62.787 Y150.969
X62.496 Y150.914
X62.191 Y150.847
X61.877 Y150.77
X61.554 Y150.681
X61.221 Y150.581
X60.884 Y150.47
X60.546 Y150.349
X60.213 Y150.219
X59.889 Y150.081
X59.578 Y149.935
X59.286 Y149.785
X59.014 Y149.629
X58.765 Y149.471
X58.541 Y149.311
X58.508 Y149.284
X58.898 Y148.823
X59.115 Y148.967
X59.167 Y149.
X59.396 Y149.14
X59.456 Y149.175
X59.694 Y149.305
X59.75 Y149.334
X59.995 Y149.455
X60.056 Y149.483
X60.308 Y149.594
X60.373 Y149.621
X60.633 Y149.721
X60.692 Y149.742
X60.959 Y149.832
X61.028 Y149.854
X61.302 Y149.932
X61.369 Y149.949
X61.65 Y150.015
X61.72 Y150.03
X62.007 Y150.083
X62.076 Y150.094
X62.368 Y150.134
X62.446 Y150.143
X62.743 Y150.168
X62.819 Y150.172
X63.119 Y150.182
X63.194 Y150.183
X63.496 Y150.178
X63.58 Y150.174
X63.882 Y150.152
X63.962 Y150.144
X64.262 Y150.106
X64.353 Y150.092
X64.649 Y150.036
X64.738 Y150.016
X65.027 Y149.943
X65.126 Y149.915
X65.405 Y149.824
X65.511 Y149.785
X65.775 Y149.676
X65.887 Y149.624
X66.133 Y149.498
X66.253 Y149.429
X66.477 Y149.287
X66.546 Y149.24
X66.613 Y149.19
X66.81 Y149.031
X66.881 Y148.97
X66.949 Y148.905
X67.117 Y148.731
X67.19 Y148.649
X67.256 Y148.563
X67.392 Y148.374
X67.458 Y148.275
X67.515 Y148.17
X67.617 Y147.968
G2 X67.71 Y147.733 I-1.341 J-0.671
G1 X67.775 Y147.52
G2 X67.828 Y147.27 I-1.435 J-0.436
G1 X67.856 Y147.047
X67.866 Y146.925
X67.867 Y146.804
X67.858 Y146.574
X67.849 Y146.463
X67.833 Y146.354
X67.789 Y146.119
X67.768 Y146.024
X67.741 Y145.932
X67.663 Y145.694
X67.635 Y145.613
X67.602 Y145.535
X67.493 Y145.298
X67.429 Y145.172
X67.293 Y144.936
X67.223 Y144.827
X67.063 Y144.597
X66.996 Y144.508
X66.814 Y144.285
X66.747 Y144.208
X66.548 Y143.995
X66.485 Y143.931
X66.271 Y143.728
X66.208 Y143.672
X65.983 Y143.481
X65.916 Y143.428
X65.682 Y143.251
X65.62 Y143.207
X65.378 Y143.043
X65.318 Y143.004
X65.07 Y142.853
X65.005 Y142.815
X64.753 Y142.678
X64.692 Y142.647
X64.436 Y142.523
X64.378 Y142.496
X64.119 Y142.384
X64.064 Y142.361
X63.804 Y142.26
X63.724 Y142.232
X63.196 Y142.061
X63.105 Y142.035
X62.569 Y141.898
X62.487 Y141.879
X61.944 Y141.772
X61.877 Y141.761
X61.326 Y141.678
X61.265 Y141.67
X60.903 Y141.63
Y140.971
X61.204 Y140.972
X61.257 Y140.971
X61.847 Y140.951
X61.896 Y140.949
X62.482 Y140.91
X62.528 Y140.906
X63.114 Y140.849
X63.16 Y140.844
X63.745 Y140.769
X63.811 Y140.759
X64.388 Y140.659
X64.456 Y140.646
X64.737 Y140.584
X64.809 Y140.566
X65.08 Y140.492
X65.182 Y140.459
X65.437 Y140.369
X65.56 Y140.32
X65.795 Y140.213
X65.879 Y140.172
X65.959 Y140.125
X66.169 Y139.996
X66.242 Y139.949
X66.312 Y139.897
X66.405 Y139.823
X66.492 Y139.748
X66.578 Y139.669
X66.676 Y139.57
X66.754 Y139.484
X66.846 Y139.371
X66.915 Y139.278
X66.988 Y139.169
X67.048 Y139.071
X67.117 Y138.944
X67.168 Y138.839
X67.221 Y138.719
X67.263 Y138.609
X67.303 Y138.489
X67.336 Y138.373
X67.357 Y138.293
X67.373 Y138.212
X67.415 Y137.968
X67.428 Y137.877
X67.435 Y137.785
X67.447 Y137.528
Y137.38
X67.433 Y137.117
X67.422 Y136.998
X67.388 Y136.735
X67.37 Y136.632
X67.318 Y136.376
X67.296 Y136.281
X67.229 Y136.037
X67.197 Y135.932
X67.117 Y135.705
X67.068 Y135.584
X66.973 Y135.375
X66.938 Y135.304
X66.9 Y135.234
X66.788 Y135.043
X66.736 Y134.961
X66.678 Y134.883
X66.545 Y134.711
X66.482 Y134.635
X66.414 Y134.564
X66.255 Y134.407
X66.183 Y134.34
X66.107 Y134.279
X65.919 Y134.137
X65.851 Y134.089
X65.781 Y134.044
X65.563 Y133.914
X65.434 Y133.846
X65.185 Y133.729
X65.078 Y133.683
X64.801 Y133.578
X64.712 Y133.548
X64.411 Y133.455
X64.327 Y133.432
X64.007 Y133.353
X63.931 Y133.336
X63.598 Y133.272
X63.525 Y133.26
X63.185 Y133.212
X63.107 Y133.203
X62.767 Y133.173
X62.68 Y133.168
X62.346 Y133.158
X62.264 Y133.157
X61.938 Y133.165
X61.842 Y133.171
X61.527 Y133.199
X61.435 Y133.21
X61.133 Y133.256
X61.041 Y133.273
X60.75 Y133.336
X60.667 Y133.357
X60.385 Y133.435
X60.314 Y133.456
X60.04 Y133.547
X59.962 Y133.575
X59.421 Y133.788
X59.375 Y133.808
X58.823 Y134.046
X58.308 Y134.269
Y133.446
X58.565 Y133.308
X59.096 Y133.037
X59.642 Y132.774
X60.203 Y132.524
X60.786 Y132.289
X61.068 Y132.187
X61.362 Y132.091
X61.661 Y132.003
X61.963 Y131.927
X62.275 Y131.861
X62.596 Y131.806
X62.922 Y131.766
X63.261 Y131.74
X63.611 Y131.729
X63.971 Y131.736
X64.343 Y131.76
X64.726 Y131.804
X65.118 Y131.868
X65.516 Y131.952
X65.918 Y132.058
X66.322 Y132.184
X66.723 Y132.332
X67.12 Y132.501
X67.508 Y132.689
X67.882 Y132.895
X68.241 Y133.119
X68.581 Y133.358
X68.898 Y133.61
X69.191 Y133.876
X69.458 Y134.15
X69.697 Y134.431
X69.909 Y134.72
X70.09 Y135.01
X70.244 Y135.304
X70.37 Y135.598
X70.469 Y135.891
X70.54 Y136.18
X70.586 Y136.466
X70.591 Y136.533
G3 X70.315 Y136.855 I-0.299 J0.023
G1 X70.016 Y136.877
X69.949 Y136.883 Z11.954
X69.886 Y136.887 Z11.976
X69.829 Y136.892 Z12.012
X69.782 Y136.895 Z12.06
X69.746 Y136.898 Z12.116
X69.724 Y136.9 Z12.18
X69.717 Z12.247
G0 Z20.
X68.842 Y175.499
G1 Z16. F200
Z12.247
Y175.491 Z12.18 F600
Y175.469 Z12.116
Y175.434 Z12.06
Y175.386 Z12.012
Y175.329 Z11.976
Y175.266 Z11.954
Y175.199 Z11.947
Y174.899
G3 X69.142 Y174.599 I0.3 J0.
G1 X70.636
Y176.09
X69.142
G2 X67.642 Y177.59 I0. J1.5
G1 Y188.064
X65.665
X57.172 Y177.078
Y174.599
X64.134
G2 X65.634 Y173.099 I0. J-1.5
G1 Y170.109
X67.642
Y173.099
G2 X69.142 Y174.599 I1.5 J0.
G3 X69.442 Y174.899 I0. J0.3
G1 Y175.199
Y175.266 Z11.954
Y175.329 Z11.976
Y175.386 Z12.012
Y175.434 Z12.06
Y175.469 Z12.116
Y175.491 Z12.18
Y175.499 Z12.247
G0 Z20.
X63.248 Y208.277
G1 Z16. F200
Z12.247
X63.249 Y208.27 Z12.18 F600
X63.252 Y208.248 Z12.116
X63.257 Y208.213 Z12.06
X63.264 Y208.166 Z12.012
X63.272 Y208.109 Z11.976
X63.281 Y208.046 Z11.954
X63.29 Y207.98 Z11.947
X63.332 Y207.683
G3 X63.449 Y207.486 I0.297 J0.042
X63.671 Y207.428 I0.18 J0.24
G1 X63.827 Y207.451
X64.314 Y207.541
X64.802 Y207.655
X65.286 Y207.79
X65.762 Y207.947
X66.225 Y208.123
X66.669 Y208.316
X67.093 Y208.528
X67.49 Y208.752
X67.856 Y208.99
X68.19 Y209.236
X68.498 Y209.5
X68.623 Y209.62
X68.751 Y209.752
X68.871 Y209.886
X68.98 Y210.018
X69.081 Y210.153
X69.175 Y210.29
X69.262 Y210.43
X69.341 Y210.571
X69.414 Y210.714
X69.474 Y210.847
X69.595 Y211.169
X69.687 Y211.492
X69.756 Y211.835
X69.802 Y212.197
X69.826 Y212.579
Y212.977
X69.804 Y213.387
X69.761 Y213.804
X69.696 Y214.221
X69.611 Y214.634
X69.508 Y215.035
X69.388 Y215.417
X69.252 Y215.775
X69.104 Y216.103
X68.946 Y216.398
X68.781 Y216.655
X68.6 Y216.89
X68.525 Y216.976
X68.45 Y217.053
X68.259 Y217.222
X68.073 Y217.356
X67.875 Y217.471
X67.66 Y217.572
X67.426 Y217.657
X67.168 Y217.731
X66.89 Y217.792
X66.594 Y217.84
X66.278 Y217.877
X65.958 Y217.905
X65.267 Y217.934
X64.567
X63.862 Y217.911
X63.135 Y217.865
G2 X62.014 Y218.269 I-0.094 J1.497
X61.541 Y219.362 I1.027 J1.093
G1 Y222.272
G2 X63.041 Y223.772 I1.5 J0.
G1 X68.132
Y225.137
X59.616
Y216.687
X64.103
G2 X64.352 Y216.666 I0. J-1.5
G1 X64.648 Y216.616
X64.717 Y216.603
X64.994 Y216.543
X65.07 Y216.524
X65.327 Y216.454
X65.401 Y216.432
X65.639 Y216.354
X65.738 Y216.318
X65.956 Y216.229
X66.048 Y216.188
X66.247 Y216.091
X66.358 Y216.03
X66.537 Y215.923
X66.651 Y215.848
X66.81 Y215.732
X66.928 Y215.637
X67.067 Y215.512
X67.126 Y215.457
X67.181 Y215.398
X67.301 Y215.265
X67.358 Y215.197
X67.412 Y215.126
X67.512 Y214.984
X67.563 Y214.906
X67.609 Y214.826
X67.69 Y214.675
X67.73 Y214.594
X67.765 Y214.511
X67.826 Y214.353
X67.856 Y214.268
X67.881 Y214.182
X67.923 Y214.017
X67.942 Y213.933
X67.956 Y213.848
X67.979 Y213.677
X67.988 Y213.596
X67.992 Y213.515
X67.997 Y213.338
X67.993 Y213.188
X67.98 Y213.006
X67.964 Y212.87
X67.933 Y212.684
X67.907 Y212.56
X67.859 Y212.372
X67.826 Y212.261
X67.762 Y212.072
X67.724 Y211.971
X67.644 Y211.782
X67.604 Y211.694
X67.509 Y211.505
X67.462 Y211.417
X67.354 Y211.232
X67.307 Y211.158
X67.186 Y210.976
X67.132 Y210.901
X66.998 Y210.725
X66.945 Y210.658
X66.8 Y210.488
X66.741 Y210.423
X66.585 Y210.261
X66.523 Y210.2
X66.358 Y210.047
X66.291 Y209.988
X66.117 Y209.845
X66.046 Y209.79
X65.864 Y209.658
X65.792 Y209.609
X65.603 Y209.488
X65.526 Y209.442
X65.331 Y209.333
X65.253 Y209.292
X65.052 Y209.195
X64.967 Y209.157
X64.762 Y209.073
X64.682 Y209.043
X64.473 Y208.971
X64.386 Y208.944
X64.174 Y208.885
X64.093 Y208.865
X63.878 Y208.818
X63.796 Y208.802
X63.579 Y208.767
X63.504 Y208.757
X63.285 Y208.733
X63.217 Y208.727
X62.998 Y208.713
X62.899 Y208.71
X62.458 Y208.711
X62.346 Y208.715
X61.907 Y208.749
X61.814 Y208.76
X61.379 Y208.821
X61.309 Y208.832
X60.881 Y208.913
X60.828 Y208.924
X60.409 Y209.019
X60.367 Y209.029
X59.957 Y209.134
X59.924 Y209.143
X59.616 Y209.229
Y207.764
X59.905 Y207.66
X60.286 Y207.548
X60.681 Y207.458
X61.091 Y207.389
X61.515 Y207.342
X61.954 Y207.318
X62.405 Y207.316
X62.87 Y207.338
X63.345 Y207.382
X63.671 Y207.428
G3 X63.926 Y207.768 I-0.042 J0.297
G1 X63.884 Y208.065
X63.875 Y208.131 Z11.954
X63.866 Y208.193 Z11.976
X63.858 Y208.25 Z12.012
X63.851 Y208.297 Z12.06
X63.846 Y208.332 Z12.116
X63.843 Y208.354 Z12.18
X63.842 Y208.362 Z12.247
G0 Z20.
X68.374 Y252.087
G1 Z16. F200
Z12.247
X68.381 Y252.091 Z12.18 F600
X68.401 Y252.101 Z12.116
X68.433 Y252.117 Z12.06
X68.475 Y252.138 Z12.012
X68.526 Y252.164 Z11.976
X68.582 Y252.193 Z11.954
X68.642 Y252.223 Z11.947
X68.909 Y252.359
G3 X69.041 Y252.762 I-0.136 J0.268
G1 X69.024 Y252.795
X68.957 Y252.909
X68.878 Y253.029
X68.794 Y253.144
X68.704 Y253.256
X68.609 Y253.363
X68.51 Y253.465
X68.405 Y253.562
X68.292 Y253.657
X68.171 Y253.751
X68.058 Y253.829
X67.766 Y254.006
X67.456 Y254.162
X67.117 Y254.302
X66.751 Y254.425
X66.364 Y254.53
X65.96 Y254.616
X65.546 Y254.682
X65.132 Y254.728
X64.723 Y254.753
X64.324 Y254.759
X63.948 Y254.745
X63.595 Y254.714
X63.273 Y254.667
X62.988 Y254.606
X62.744 Y254.535
X62.539 Y254.457
X62.375 Y254.377
X62.253 Y254.3
X62.163 Y254.227
X62.026 Y254.086
G2 X59.906 Y254.047 I-1.08 J1.041
X59.511 Y254.693 I1.041 J1.08
G1 X59.452 Y254.889
X59.423 Y255.001
X59.402 Y255.115
X59.372 Y255.332
X59.361 Y255.43
X59.357 Y255.529
X59.356 Y255.766
X59.357 Y255.85
X59.364 Y255.934
X59.391 Y256.191
X59.412 Y256.33
X59.468 Y256.607
X59.496 Y256.723
X59.58 Y257.017
X59.611 Y257.113
X59.723 Y257.423
X59.755 Y257.506
X59.893 Y257.828
X59.926 Y257.9
X60.089 Y258.23
X60.123 Y258.294
X60.308 Y258.628
X60.346 Y258.693
X60.551 Y259.023
X60.59 Y259.083
X60.813 Y259.406
X60.861 Y259.471
X61.099 Y259.779
X61.15 Y259.842
X61.401 Y260.133
X61.466 Y260.204
X61.728 Y260.471
X61.803 Y260.542
X62.074 Y260.783
X62.161 Y260.854
X62.44 Y261.067
X62.534 Y261.133
X62.821 Y261.319
X62.93 Y261.383
X63.225 Y261.54
X63.329 Y261.591
X63.631 Y261.723
X63.742 Y261.766
X64.051 Y261.873
X64.149 Y261.904
X64.466 Y261.99
X64.556 Y262.011
X64.882 Y262.078
X64.963 Y262.093
X65.298 Y262.143
X65.363 Y262.151
X65.707 Y262.187
X65.77 Y262.192
X66.124 Y262.214
X66.176 Y262.216
X66.539 Y262.226
X66.581 Y262.227
X66.954
X66.997 Y262.226
X67.045 Y262.225
Y262.991
X66.74 Y263.039
X66.298 Y263.087
X65.872 Y263.112
X65.461 Y263.116
X65.062 Y263.097
X64.678 Y263.059
X64.304 Y262.999
X63.94 Y262.921
X63.585 Y262.822
X63.237 Y262.705
X62.894 Y262.569
X62.554 Y262.413
X62.22 Y262.24
X61.889 Y262.05
X61.562 Y261.841
X61.237 Y261.617
X60.917 Y261.378
X60.603 Y261.125
X60.295 Y260.86
X59.996 Y260.584
X59.706 Y260.295
X59.427 Y259.995
X59.161 Y259.685
X58.907 Y259.363
X58.668 Y259.027
X58.443 Y258.675
X58.232 Y258.305
X58.037 Y257.917
X57.859 Y257.505
X57.696 Y257.069
X57.553 Y256.608
X57.428 Y256.121
X57.324 Y255.609
X57.241 Y255.074
X57.181 Y254.518
X57.145 Y253.945
X57.132 Y253.36
X57.144 Y252.768
X57.18 Y252.172
X57.239 Y251.579
X57.322 Y250.995
X57.427 Y250.422
X57.554 Y249.868
X57.7 Y249.336
X57.865 Y248.83
X58.047 Y248.353
X58.244 Y247.905
X58.455 Y247.49
X58.677 Y247.105
X58.91 Y246.752
X59.154 Y246.427
X59.406 Y246.13
X59.665 Y245.859
X59.933 Y245.611
X60.207 Y245.386
X60.486 Y245.183
X60.771 Y245.001
X61.059 Y244.838
X61.35 Y244.695
X61.643 Y244.572
X61.932 Y244.469
X62.222 Y244.386
X62.511 Y244.321
X62.795 Y244.276
X63.082 Y244.25
X63.371 Y244.241
X63.659 Y244.25
X63.955 Y244.278
X64.258 Y244.323
X64.567 Y244.386
X64.883 Y244.466
X65.205 Y244.563
X65.532 Y244.676
X65.86 Y244.804
X66.189 Y244.946
X66.514 Y245.102
X66.832 Y245.269
X67.138 Y245.447
X67.431 Y245.636
X67.708 Y245.837
X67.967 Y246.048
X68.206 Y246.271
X68.427 Y246.508
X68.631 Y246.761
X68.816 Y247.032
X68.983 Y247.323
X69.133 Y247.636
X69.265 Y247.974
X69.377 Y248.334
X69.469 Y248.713
X69.539 Y249.109
X69.587 Y249.516
X69.611 Y249.928
X69.613 Y250.341
X69.591 Y250.748
X69.548 Y251.143
X69.483 Y251.52
X69.397 Y251.875
X69.293 Y252.205
X69.171 Y252.505
X69.041 Y252.762
G3 X68.867 Y252.911 I-0.268 J-0.136
X68.638 Y252.894 I-0.093 J-0.285
G1 X68.37 Y252.758
X68.311 Y252.728 Z11.954
X68.254 Y252.699 Z11.976
X68.204 Y252.674 Z12.012
X68.161 Y252.652 Z12.06
X68.129 Y252.636 Z12.116
X68.11 Y252.626 Z12.18
X68.103 Y252.622 Z12.247
G0 Z20.
X67.648 Y252.377
G1 Z16. F200
Z12.247
X67.642 Y252.373 Z12.18 F600
X67.622 Y252.362 Z12.116
X67.591 Y252.344 Z12.06
X67.55 Y252.32 Z12.012
X67.501 Y252.292 Z11.976
X67.446 Y252.26 Z11.954
X67.388 Y252.227 Z11.947
X67.128 Y252.078
G3 X67.017 Y251.668 I0.149 J-0.26
G1 X67.032 Y251.642
X67.07 Y251.572
X67.104 Y251.499
X67.215 Y251.248
X67.245 Y251.173
X67.272 Y251.096
X67.356 Y250.832
X67.378 Y250.754
X67.396 Y250.675
X67.451 Y250.401
X67.465 Y250.323
X67.474 Y250.244
X67.5 Y249.963
X67.505 Y249.886
X67.506 Y249.808
X67.503 Y249.524
X67.494 Y249.375
X67.462 Y249.092
X67.439 Y248.948
X67.38 Y248.669
X67.344 Y248.529
X67.259 Y248.26
X67.211 Y248.128
X67.102 Y247.87
X67.039 Y247.739
X66.909 Y247.498
X66.834 Y247.373
X66.684 Y247.151
X66.638 Y247.087
X66.589 Y247.025
X66.423 Y246.827
X66.371 Y246.768
X66.315 Y246.712
X66.135 Y246.538
X66.069 Y246.477
X65.998 Y246.421
X65.807 Y246.276
X65.733 Y246.223
X65.657 Y246.176
X65.456 Y246.059
X65.373 Y246.014
X65.287 Y245.974
X65.079 Y245.886
X64.982 Y245.849
X64.883 Y245.818
X64.671 Y245.761
X64.574 Y245.739
X64.476 Y245.723
X64.262 Y245.695
X64.165 Y245.685
X64.067 Y245.682
X63.853
X63.755 Y245.685
X63.657 Y245.695
X63.445 Y245.723
X63.354 Y245.737
X63.265 Y245.758
X63.056 Y245.812
X62.972 Y245.836
X62.889 Y245.865
X62.685 Y245.944
X62.548 Y246.005
X62.351 Y246.105
X62.282 Y246.143
X62.215 Y246.184
X62.027 Y246.306
X61.92 Y246.382
X61.742 Y246.521
X61.636 Y246.611
X61.469 Y246.768
X61.382 Y246.856
X61.228 Y247.027
X61.146 Y247.126
X61.006 Y247.311
X60.939 Y247.407
X60.814 Y247.602
X60.751 Y247.711
X60.642 Y247.917
X60.591 Y248.023
X60.499 Y248.236
X60.455 Y248.35
X60.381 Y248.57
X60.347 Y248.684
X60.291 Y248.908
X60.266 Y249.024
X60.227 Y249.251
X60.212 Y249.368
X60.192 Y249.597
X60.186 Y249.711
X60.183 Y249.939
X60.185 Y250.051
X60.199 Y250.277
X60.21 Y250.386
X60.24 Y250.609
X60.258 Y250.713
X60.303 Y250.931
X60.328 Y251.032
X60.387 Y251.243
X60.418 Y251.341
X60.491 Y251.544
X60.529 Y251.642
X60.614 Y251.835
X60.66 Y251.931
X60.756 Y252.113
X60.813 Y252.211
X60.919 Y252.38
X60.988 Y252.482
X61.104 Y252.637
X61.188 Y252.739
X61.313 Y252.879
X61.42 Y252.987
X61.554 Y253.11
X61.615 Y253.162
X61.678 Y253.211
X61.823 Y253.317
X61.897 Y253.368
X61.974 Y253.415
X62.128 Y253.502
X62.209 Y253.544
X62.292 Y253.581
X62.457 Y253.649
X62.547 Y253.684
X62.64 Y253.712
X62.815 Y253.759
X62.909 Y253.781
X63.004 Y253.797
X63.189 Y253.822
X63.274 Y253.831
X63.359 Y253.835
X63.554 Y253.839
X63.639 Y253.838
X63.724 Y253.833
X63.927 Y253.814
X64.074 Y253.792
X64.285 Y253.751
X64.425 Y253.717
X64.641 Y253.653
X64.776 Y253.606
X64.994 Y253.518
X65.116 Y253.463
X65.333 Y253.352
X65.45 Y253.285
X65.663 Y253.151
X65.777 Y253.072
X65.981 Y252.915
X66.086 Y252.827
X66.279 Y252.649
X66.379 Y252.547
X66.556 Y252.349
X66.653 Y252.229
X66.811 Y252.011
X66.855 Y251.946
X66.896 Y251.878
X67.017 Y251.668
G3 X67.199 Y251.528 I0.26 J0.149
X67.427 Y251.557 I0.078 J0.29
G1 X67.687 Y251.707
X67.745 Y251.74 Z11.954
X67.8 Y251.772 Z11.976
X67.849 Y251.8 Z12.012
X67.89 Y251.824 Z12.06
X67.921 Y251.842 Z12.116
X67.94 Y251.853 Z12.18
X67.947 Y251.856 Z12.247
G0 Z20.
X62.598 Y282.17
G1 Z16. F200
Z12.247
X62.605 Y282.167 Z12.18 F600
X62.625 Y282.157 Z12.116
X62.657 Y282.142 Z12.06
X62.7 Y282.121 Z12.012
X62.751 Y282.096 Z11.976
X62.808 Y282.068 Z11.954
X62.868 Y282.039 Z11.947
X63.137 Y281.908
G3 X63.367 Y281.894 I0.131 J0.27
X63.538 Y282.046 I-0.098 J0.284
G1 X70.857 Y297.062
Y300.603
X58.057
Y298.814
X66.435
G2 X67.935 Y297.314 I0. J-1.5
X67.756 Y296.604 I-1.5 J0.
G1 X59.447 Y281.152
X63.103
X63.538 Y282.046
G3 X63.4 Y282.447 I-0.27 J0.131
G1 X63.131 Y282.578
X63.071 Y282.608 Z11.954
X63.014 Y282.635 Z11.976
X62.962 Y282.66 Z12.012
X62.92 Y282.681 Z12.06
X62.888 Y282.697 Z12.116
X62.868 Y282.706 Z12.18
X62.861 Y282.71 Z12.247
G0 Z20.
X63.149 Y320.138
G1 Z16. F200
Z12.247
Y320.13 Z12.18 F600
Y320.108 Z12.116
Y320.072 Z12.06
Y320.025 Z12.012
Y319.968 Z11.976
Y319.904 Z11.954
Y319.838 Z11.947
X63.15 Y319.538
G3 X63.238 Y319.326 I0.3 J0.001
X63.45 Y319.238 I0.212 J0.212
G1 X63.883 Y319.239
X64.346 Y319.272
X64.805 Y319.336
X65.256 Y319.432
X65.697 Y319.558
X66.125 Y319.712
X66.535 Y319.895
X66.927 Y320.104
X67.299 Y320.337
X67.648 Y320.593
X67.973 Y320.87
X68.272 Y321.165
X68.545 Y321.478
X68.79 Y321.805
X69.007 Y322.145
X69.195 Y322.496
X69.353 Y322.856
X69.482 Y323.224
X69.581 Y323.596
X69.651 Y323.974
X69.69 Y324.354
X69.699 Y324.735
X69.679 Y325.115
X69.628 Y325.495
X69.548 Y325.87
X69.438 Y326.24
X69.298 Y326.605
X69.129 Y326.961
X68.931 Y327.307
X68.705 Y327.641
X68.45 Y327.963
X68.169 Y328.268
X67.861 Y328.556
X67.527 Y328.827
X67.152 Y329.088
G2 X66.78 Y331.176 I0.858 J1.23
X66.969 Y331.397 I1.23 J-0.858
G1 X67.277 Y331.695
X67.517 Y331.966
X67.73 Y332.251
X67.916 Y332.549
X68.075 Y332.857
X68.206 Y333.174
X68.31 Y333.497
X68.384 Y333.825
X68.431 Y334.157
X68.449 Y334.489
X68.439 Y334.823
X68.401 Y335.154
X68.334 Y335.484
X68.239 Y335.807
X68.116 Y336.125
X67.965 Y336.436
X67.788 Y336.737
X67.583 Y337.025
X67.352 Y337.3
X67.096 Y337.559
X66.815 Y337.801
X66.513 Y338.023
X66.189 Y338.223
X65.847 Y338.4
X65.487 Y338.551
X65.112 Y338.676
X64.726 Y338.772
X64.331 Y338.84
X63.933 Y338.877
X63.53 Y338.883
X63.127 Y338.86
X62.73 Y338.806
X62.34 Y338.722
X61.96 Y338.61
X61.593 Y338.47
X61.24 Y338.303
X60.907 Y338.112
X60.594 Y337.899
X60.302 Y337.664
X60.035 Y337.412
X59.793 Y337.143
X59.576 Y336.858
X59.386 Y336.562
X59.224 Y336.256
X59.09 Y335.94
X58.983 Y335.617
X58.905 Y335.29
X58.855 Y334.959
X58.833 Y334.626
X58.84 Y334.293
X58.874 Y333.96
X58.938 Y333.631
X59.029 Y333.306
X59.148 Y332.988
X59.296 Y332.677
X59.47 Y332.375
X59.672 Y332.085
X59.9 Y331.808
X60.166 Y331.534
X60.289 Y331.42
G2 X60.373 Y329.3 I-1.018 J-1.102
X60.133 Y329.09 I-1.102 J1.018
G1 X59.732 Y328.809
X59.4 Y328.538
X59.093 Y328.248
X58.812 Y327.94
X58.559 Y327.618
X58.335 Y327.282
X58.138 Y326.933
X57.971 Y326.575
X57.834 Y326.21
X57.726 Y325.839
X57.648 Y325.462
X57.6 Y325.083
X57.588 Y324.828
X57.582 Y324.702
X57.594 Y324.322
X57.636 Y323.942
X57.707 Y323.565
X57.809 Y323.194
X57.94 Y322.827
X58.1 Y322.468
X58.29 Y322.119
X58.508 Y321.781
X58.754 Y321.456
X59.028 Y321.146
X59.329 Y320.852
X59.654 Y320.577
X60.004 Y320.323
X60.375 Y320.092
X60.767 Y319.885
X61.178 Y319.704
X61.604 Y319.551
X62.045 Y319.427
X62.495 Y319.333
X62.955 Y319.27
X63.419 Y319.238
X63.45
G3 X63.75 Y319.539 I-0.001 J0.3
G1 X63.749 Y319.839
Y319.905 Z11.954
Y319.969 Z11.976
Y320.026 Z12.012
Y320.073 Z12.06
Y320.109 Z12.116
Y320.131 Z12.18
Y320.139 Z12.247
G0 Z20.
X64.15 Y320.144
G1 Z16. F200
Z12.247
Y320.151 Z12.18 F600
Y320.173 Z12.116
X64.149 Y320.209 Z12.06
X64.148 Y320.257 Z12.012
Y320.314 Z11.976
X64.147 Y320.377 Z11.954
X64.146 Y320.444 Z11.947
X64.141 Y320.744
G3 X63.837 Y321.039 I-0.3 J-0.004
G1 X63.814
X63.467
X63.383 Y321.041
X63.298 Y321.049
X62.954 Y321.088
X62.87 Y321.1
X62.786 Y321.117
X62.452 Y321.194
X62.368 Y321.216
X62.284 Y321.243
X61.969 Y321.356
X61.887 Y321.388
X61.807 Y321.425
X61.516 Y321.57
X61.436 Y321.613
X61.359 Y321.66
X61.096 Y321.833
X61.017 Y321.889
X60.941 Y321.95
X60.71 Y322.149
X60.64 Y322.214
X60.574 Y322.282
X60.378 Y322.5
X60.313 Y322.579
X60.252 Y322.662
X60.093 Y322.897
X60.037 Y322.986
X59.987 Y323.079
X59.866 Y323.327
X59.823 Y323.425
X59.786 Y323.525
X59.704 Y323.781
X59.673 Y323.888
X59.651 Y323.997
X59.608 Y324.259
X59.596 Y324.347
X59.589 Y324.436
X59.582 Y324.595
X59.581 Y324.685
X59.585 Y324.774
X59.604 Y325.037
X59.617 Y325.148
X59.637 Y325.256
X59.695 Y325.515
X59.723 Y325.621
X59.759 Y325.724
X59.856 Y325.976
X59.898 Y326.074
X59.946 Y326.169
X60.081 Y326.41
X60.133 Y326.496
X60.191 Y326.579
X60.362 Y326.807
X60.426 Y326.886
X60.494 Y326.96
X60.701 Y327.169
X60.769 Y327.234
X60.842 Y327.295
X61.081 Y327.483
X61.157 Y327.538
X61.235 Y327.589
X61.505 Y327.751
X61.583 Y327.795
X61.663 Y327.834
X61.96 Y327.967
X62.039 Y328.
X62.121 Y328.028
X62.439 Y328.129
X62.522 Y328.153
X62.607 Y328.172
X62.942 Y328.237
X63.026 Y328.25
X63.11 Y328.259
X63.455 Y328.286
X63.539 Y328.291
X63.624 Y328.29
X63.971 Y328.278
X64.054 Y328.273
X64.136 Y328.263
X64.478 Y328.213
X64.564 Y328.198
X64.649 Y328.178
X64.977 Y328.09
X65.061 Y328.065
X65.144 Y328.034
X65.453 Y327.911
X65.534 Y327.876
X65.614 Y327.836
X65.897 Y327.682
X65.978 Y327.635
X66.055 Y327.582
X66.309 Y327.4
X66.383 Y327.344
X66.453 Y327.283
X66.673 Y327.079
X66.745 Y327.008
X66.811 Y326.933
X66.996 Y326.709
X67.058 Y326.628
X67.115 Y326.543
X67.263 Y326.304
X67.316 Y326.211
X67.362 Y326.115
X67.472 Y325.864
X67.511 Y325.764
X67.543 Y325.661
X67.614 Y325.403
X67.64 Y325.294
X67.657 Y325.184
X67.688 Y324.921
X67.698 Y324.81
Y324.699
X67.691 Y324.436
X67.683 Y324.325
X67.668 Y324.215
X67.621 Y323.954
X67.598 Y323.847
X67.566 Y323.741
X67.481 Y323.487
X67.443 Y323.387
X67.399 Y323.29
X67.275 Y323.045
X67.226 Y322.954
X67.17 Y322.867
X67.009 Y322.635
X66.949 Y322.554
X66.884 Y322.477
X66.688 Y322.262
X66.621 Y322.194
X66.55 Y322.129
X66.32 Y321.934
X66.246 Y321.875
X66.169 Y321.821
X65.908 Y321.651
X65.832 Y321.605
X65.754 Y321.564
X65.466 Y321.421
X65.385 Y321.384
X65.302 Y321.352
X64.99 Y321.241
X64.907 Y321.214
X64.823 Y321.192
X64.493 Y321.116
X64.41 Y321.1
X64.327 Y321.088
X63.984 Y321.049
X63.837 Y321.039
G3 X63.626 Y320.948 I0.004 J-0.3
X63.541 Y320.735 I0.215 J-0.209
G1 X63.546 Y320.435
X63.547 Y320.368 Z11.954
X63.548 Y320.305 Z11.976
Y320.248 Z12.012
X63.549 Y320.2 Z12.06
X63.55 Y320.164 Z12.116
Y320.142 Z12.18
Y320.135 Z12.247
G0 Z20.
X62.581 Y330.08
G1 Z16. F200
Z12.247
X62.583 Y330.087 Z12.18 F600
X62.588 Y330.109 Z12.116
X62.596 Y330.144 Z12.06
X62.607 Y330.19 Z12.012
X62.62 Y330.245 Z11.976
X62.635 Y330.307 Z11.954
X62.65 Y330.372 Z11.947
X62.718 Y330.664
G3 X62.681 Y330.891 I-0.292 J0.068
X62.495 Y331.024 I-0.255 J-0.158
G1 X62.351 Y331.066
X62.035 Y331.174
X61.95 Y331.206
X61.867 Y331.243
X61.574 Y331.385
X61.494 Y331.426
X61.416 Y331.473
X61.15 Y331.644
X61.072 Y331.698
X60.997 Y331.756
X60.762 Y331.953
X60.69 Y332.017
X60.623 Y332.086
X60.422 Y332.304
X60.355 Y332.38
X60.295 Y332.462
X60.13 Y332.698
X60.074 Y332.784
X60.024 Y332.873
X59.896 Y333.122
X59.851 Y333.219
X59.813 Y333.318
X59.724 Y333.577
X59.692 Y333.681
X59.668 Y333.787
X59.618 Y334.052
X59.603 Y334.148
X59.595 Y334.245
X59.583 Y334.452
X59.581 Y334.549
X59.585 Y334.647
X59.604 Y334.914
X59.616 Y335.022
X59.636 Y335.13
X59.694 Y335.393
X59.721 Y335.497
X59.756 Y335.598
X59.853 Y335.854
X59.894 Y335.951
X59.941 Y336.045
X60.076 Y336.29
X60.127 Y336.377
X60.185 Y336.46
X60.356 Y336.691
X60.418 Y336.77
X60.485 Y336.844
X60.691 Y337.056
X60.76 Y337.122
X60.832 Y337.184
X61.071 Y337.374
X61.144 Y337.429
X61.22 Y337.479
X61.489 Y337.644
X61.568 Y337.689
X61.649 Y337.73
X61.944 Y337.865
X62.025 Y337.899
X62.108 Y337.929
X62.425 Y338.031
X62.506 Y338.054
X62.589 Y338.073
X62.921 Y338.14
X63.006 Y338.155
X63.091 Y338.165
X63.433 Y338.194
X63.52 Y338.198
X63.607
X63.952 Y338.187
X64.035 Y338.182
X64.118 Y338.173
X64.457 Y338.124
X64.544 Y338.109
X64.629 Y338.089
X64.956 Y338.002
X65.04 Y337.977
X65.122 Y337.947
X65.43 Y337.825
X65.511 Y337.79
X65.59 Y337.75
X65.874 Y337.597
X65.955 Y337.55
X66.033 Y337.497
X66.288 Y337.315
X66.362 Y337.259
X66.433 Y337.198
X66.655 Y336.993
X66.727 Y336.922
X66.793 Y336.847
X66.98 Y336.621
X67.042 Y336.542
X67.098 Y336.459
X67.248 Y336.218
X67.301 Y336.126
X67.347 Y336.031
X67.46 Y335.777
X67.5 Y335.678
X67.533 Y335.577
X67.607 Y335.315
X67.632 Y335.209
X67.65 Y335.102
X67.685 Y334.836
X67.695 Y334.726
X67.698 Y334.616
X67.693 Y334.349
X67.687 Y334.24
X67.674 Y334.131
X67.63 Y333.866
X67.609 Y333.761
X67.58 Y333.657
X67.498 Y333.397
X67.462 Y333.296
X67.419 Y333.197
X67.299 Y332.948
X67.251 Y332.858
X67.198 Y332.771
X67.041 Y332.534
X66.982 Y332.451
X66.917 Y332.372
X66.724 Y332.153
X66.66 Y332.085
X66.592 Y332.02
X66.365 Y331.82
X66.292 Y331.76
X66.215 Y331.704
X65.958 Y331.529
X65.882 Y331.48
X65.802 Y331.436
X65.517 Y331.289
X65.436 Y331.25
X65.354 Y331.216
X65.045 Y331.101
X64.964 Y331.074
X64.882 Y331.051
X64.555 Y330.97
X64.469 Y330.951
X64.383 Y330.938
X64.044 Y330.895
X63.961 Y330.887
X63.877 Y330.883
X63.533 Y330.878
X63.447 Y330.879
X63.363 Y330.885
X63.021 Y330.919
X62.933 Y330.931
X62.847 Y330.947
X62.515 Y331.02
X62.495 Y331.024
G3 X62.268 Y330.987 I-0.068 J-0.292
X62.134 Y330.801 I0.158 J-0.255
G1 X62.066 Y330.509
X62.05 Y330.444 Z11.954
X62.036 Y330.382 Z11.976
X62.023 Y330.327 Z12.012
X62.012 Y330.28 Z12.06
X62.004 Y330.245 Z12.116
X61.999 Y330.224 Z12.18
X61.997 Y330.217 Z12.247
G0 Z20.
X102.672 Y325.323
G1 Z16. F200
Z12.247
X102.665 Y325.324 Z12.18 F600
X102.643 Y325.329 Z12.116
X102.608 Y325.336 Z12.06
X102.562 Y325.346 Z12.012
X102.506 Y325.358 Z11.976
X102.444 Y325.37 Z11.954
X102.379 Y325.384 Z11.947
X102.085 Y325.445
G3 X101.73 Y325.212 I-0.061 J-0.294
G1 X101.722 Y325.173
X101.675 Y324.794
X101.656 Y324.41
X101.668 Y324.03
X101.709 Y323.653
X101.782 Y323.275
X101.883 Y322.902
X102.014 Y322.536
X102.174 Y322.179
X102.364 Y321.828
X102.583 Y321.49
X102.829 Y321.165
X103.102 Y320.855
X103.403 Y320.562
X103.728 Y320.286
X104.077 Y320.034
X104.449 Y319.802
X104.842 Y319.595
X105.253 Y319.414
X105.68 Y319.26
X106.12 Y319.136
X106.569 Y319.042
X107.028 Y318.979
X107.492 Y318.948
X107.958
X108.42 Y318.981
X108.879 Y319.045
X109.33 Y319.141
X109.77 Y319.267
X110.197 Y319.422
X110.609 Y319.605
X111.002 Y319.814
X111.372 Y320.046
X111.722 Y320.303
X112.048 Y320.581
X112.347 Y320.876
X112.619 Y321.187
X112.865 Y321.515
X113.082 Y321.855
X113.27 Y322.207
X113.428 Y322.565
X113.556 Y322.932
X113.655 Y323.307
X113.725 Y323.684
X113.764 Y324.063
X113.773 Y324.444
X113.752 Y324.825
X113.702 Y325.205
X113.622 Y325.579
X113.512 Y325.949
X113.372 Y326.314
X113.204 Y326.67
X113.006 Y327.015
X112.779 Y327.35
X112.523 Y327.673
X112.242 Y327.979
X111.937 Y328.265
X111.601 Y328.536
X111.224 Y328.8
G2 X110.857 Y330.889 I0.861 J1.228
X111.045 Y331.108 I1.228 J-0.861
G1 X111.351 Y331.404
X111.591 Y331.676
X111.804 Y331.961
X111.99 Y332.259
X112.149 Y332.567
X112.28 Y332.883
X112.384 Y333.207
X112.458 Y333.534
X112.505 Y333.867
X112.524 Y334.2
X112.514 Y334.532
X112.475 Y334.864
X112.409 Y335.192
X112.313 Y335.517
X112.19 Y335.835
X112.04 Y336.145
X111.862 Y336.445
X111.657 Y336.734
X111.426 Y337.009
X111.17 Y337.268
X110.889 Y337.511
X110.587 Y337.732
X110.263 Y337.932
X109.92 Y338.109
X109.56 Y338.261
X109.187 Y338.386
X108.802 Y338.482
X108.407 Y338.549
X108.005 Y338.586
X107.604 Y338.593
X107.203 Y338.569
X106.804 Y338.515
X106.414 Y338.431
X106.033 Y338.319
X105.665 Y338.179
X105.314 Y338.013
X104.981 Y337.822
X104.668 Y337.609
X104.377 Y337.375
X104.11 Y337.122
X103.866 Y336.851
X103.65 Y336.569
X103.461 Y336.272
X103.298 Y335.964
X103.163 Y335.649
X103.057 Y335.327
X102.979 Y335.
X102.929 Y334.669
X102.907 Y334.335
X102.913 Y334.003
X102.949 Y333.671
X103.012 Y333.34
X103.103 Y333.015
X103.222 Y332.698
X103.37 Y332.385
X103.545 Y332.084
X103.746 Y331.794
X103.974 Y331.517
X104.237 Y331.245
X104.358 Y331.134
G2 X104.451 Y329.015 I-1.013 J-1.106
X104.206 Y328.8 I-1.106 J1.013
G1 X103.806 Y328.52
X103.475 Y328.249
X103.167 Y327.957
X102.887 Y327.65
X102.634 Y327.327
X102.409 Y326.991
X102.213 Y326.643
X102.045 Y326.285
X101.907 Y325.92
X101.8 Y325.549
X101.73 Y325.212
G3 X101.773 Y324.987 I0.294 J-0.061
X101.963 Y324.858 I0.251 J0.165
G1 X102.257 Y324.797
X102.322 Y324.783 Z11.954
X102.384 Y324.77 Z11.976
X102.44 Y324.758 Z12.012
X102.486 Y324.749 Z12.06
X102.521 Y324.742 Z12.116
X102.543 Y324.737 Z12.18
X102.55 Y324.736 Z12.247
G0 Z20.
X102.751 Y324.401
G1 Z16. F200
Z12.247
X102.758 Z12.18 F600
X102.78 Y324.399 Z12.116
X102.816 Y324.396 Z12.06
X102.863 Y324.393 Z12.012
X102.92 Y324.389 Z11.976
X102.983 Y324.384 Z11.954
X103.05 Y324.379 Z11.947
X103.349 Y324.358
G3 X103.67 Y324.635 I0.022 J0.299
G1 X103.678 Y324.744
X103.69 Y324.857
X103.711 Y324.969
X103.77 Y325.228
X103.798 Y325.332
X103.833 Y325.434
X103.93 Y325.686
X103.972 Y325.785
X104.021 Y325.88
X104.156 Y326.121
X104.209 Y326.208
X104.267 Y326.291
X104.438 Y326.518
X104.5 Y326.595
X104.568 Y326.668
X104.774 Y326.877
X104.843 Y326.943
X104.917 Y327.005
X105.157 Y327.193
X105.229 Y327.246
X105.305 Y327.295
X105.574 Y327.458
X105.654 Y327.503
X105.738 Y327.544
X106.035 Y327.677
X106.114 Y327.71
X106.195 Y327.738
X106.514 Y327.839
X106.597 Y327.863
X106.681 Y327.882
X107.016 Y327.947
X107.1 Y327.96
X107.185 Y327.969
X107.529 Y327.996
X107.613 Y328.001
X107.698 Y328.
X108.045 Y327.988
X108.13 Y327.983
X108.214 Y327.973
X108.556 Y327.922
X108.64 Y327.907
X108.724 Y327.887
X109.052 Y327.799
X109.136 Y327.774
X109.218 Y327.744
X109.527 Y327.621
X109.609 Y327.585
X109.689 Y327.545
X109.972 Y327.391
X110.051 Y327.344
X110.128 Y327.293
X110.381 Y327.112
X110.456 Y327.054
X110.528 Y326.992
X110.749 Y326.787
X110.82 Y326.717
X110.886 Y326.642
X111.071 Y326.418
X111.134 Y326.336
X111.192 Y326.249
X111.339 Y326.01
X111.39 Y325.92
X111.435 Y325.826
X111.545 Y325.575
X111.585 Y325.474
X111.617 Y325.371
X111.688 Y325.113
X111.714 Y325.003
X111.732 Y324.891
X111.763 Y324.629
X111.771 Y324.521
X111.772 Y324.413
X111.765 Y324.149
X111.758 Y324.035
X111.742 Y323.922
X111.695 Y323.662
X111.672 Y323.555
X111.64 Y323.45
X111.554 Y323.195
X111.517 Y323.096
X111.474 Y323.001
X111.351 Y322.756
X111.3 Y322.664
X111.243 Y322.575
X111.083 Y322.344
X111.024 Y322.265
X110.961 Y322.19
X110.765 Y321.974
X110.695 Y321.902
X110.621 Y321.835
X110.391 Y321.641
X110.32 Y321.585
X110.246 Y321.533
X109.985 Y321.362
X109.906 Y321.314
X109.824 Y321.271
X109.535 Y321.129
X109.457 Y321.093
X109.377 Y321.062
X109.065 Y320.951
X108.982 Y320.924
X108.898 Y320.902
X108.567 Y320.826
X108.484 Y320.809
X108.4 Y320.798
X108.057 Y320.759
X107.973 Y320.751
X107.888 Y320.749
X107.541
X107.456 Y320.751
X107.372 Y320.759
X107.029 Y320.798
X106.944 Y320.81
X106.861 Y320.826
X106.527 Y320.903
X106.444 Y320.925
X106.361 Y320.952
X106.046 Y321.064
X105.962 Y321.097
X105.88 Y321.134
X105.589 Y321.279
X105.508 Y321.323
X105.43 Y321.371
X105.167 Y321.545
X105.091 Y321.599
X105.019 Y321.657
X104.788 Y321.855
X104.715 Y321.922
X104.646 Y321.994
X104.45 Y322.213
X104.385 Y322.29
X104.326 Y322.372
X104.167 Y322.607
X104.111 Y322.696
X104.062 Y322.788
X103.941 Y323.035
X103.897 Y323.133
X103.861 Y323.234
X103.778 Y323.491
X103.747 Y323.599
X103.725 Y323.708
X103.682 Y323.969
X103.67 Y324.058
X103.663 Y324.147
X103.656 Y324.307
X103.655 Y324.394
X103.659 Y324.481
X103.67 Y324.635
G3 X103.598 Y324.853 I-0.299 J0.022
X103.392 Y324.956 I-0.227 J-0.196
G1 X103.093 Y324.978
X103.027 Y324.983 Z11.954
X102.963 Y324.987 Z11.976
X102.907 Y324.991 Z12.012
X102.859 Y324.995 Z12.06
X102.824 Y324.997 Z12.116
X102.802 Y324.999 Z12.18
X102.794 Y325. Z12.247
G0 Z20.
X106.655 Y329.789
G1 Z16. F200
Z12.247
X106.657 Y329.796 Z12.18 F600
X106.662 Y329.818 Z12.116
X106.67 Y329.853 Z12.06
X106.681 Y329.899 Z12.012
X106.694 Y329.954 Z11.976
X106.709 Y330.016 Z11.954
X106.724 Y330.081 Z11.947
X106.792 Y330.373
G3 X106.755 Y330.6 I-0.292 J0.068
X106.569 Y330.734 I-0.255 J-0.158
G1 X106.423 Y330.776
X106.106 Y330.885
X106.024 Y330.916
X105.944 Y330.951
X105.651 Y331.092
X105.568 Y331.135
X105.489 Y331.183
X105.222 Y331.355
X105.146 Y331.407
X105.073 Y331.464
X104.838 Y331.66
X104.764 Y331.726
X104.694 Y331.798
X104.493 Y332.017
X104.429 Y332.091
X104.37 Y332.169
X104.205 Y332.404
X104.147 Y332.493
X104.096 Y332.587
X103.969 Y332.837
X103.926 Y332.929
X103.889 Y333.024
X103.799 Y333.283
X103.767 Y333.389
X103.742 Y333.497
X103.692 Y333.762
X103.677 Y333.861
X103.668 Y333.96
X103.657 Y334.167
X103.655 Y334.26
X103.659 Y334.353
X103.678 Y334.62
X103.69 Y334.732
X103.71 Y334.842
X103.769 Y335.105
X103.796 Y335.208
X103.83 Y335.308
X103.927 Y335.564
X103.967 Y335.66
X104.014 Y335.753
X104.148 Y335.998
X104.201 Y336.087
X104.26 Y336.173
X104.431 Y336.403
X104.493 Y336.48
X104.559 Y336.553
X104.765 Y336.765
X104.833 Y336.831
X104.905 Y336.892
X105.144 Y337.083
X105.219 Y337.139
X105.297 Y337.19
X105.565 Y337.354
X105.643 Y337.399
X105.724 Y337.439
X106.019 Y337.574
X106.098 Y337.607
X106.178 Y337.636
X106.494 Y337.739
X106.58 Y337.764
X106.667 Y337.784
X107. Y337.85
X107.082 Y337.864
X107.165 Y337.874
X107.507 Y337.903
X107.592 Y337.907
X107.678
X108.022 Y337.897
X108.109 Y337.892
X108.197 Y337.882
X108.536 Y337.832
X108.618 Y337.818
X108.699 Y337.799
X109.026 Y337.713
X109.112 Y337.687
X109.196 Y337.657
X109.504 Y337.535
X109.587 Y337.499
X109.667 Y337.459
X109.951 Y337.305
X110.03 Y337.258
X110.106 Y337.208
X110.36 Y337.027
X110.436 Y336.969
X110.508 Y336.907
X110.731 Y336.701
X110.801 Y336.632
X110.867 Y336.558
X111.054 Y336.333
X111.116 Y336.252
X111.173 Y336.168
X111.324 Y335.926
X111.376 Y335.834
X111.423 Y335.739
X111.535 Y335.486
X111.574 Y335.388
X111.607 Y335.287
X111.681 Y335.025
X111.706 Y334.919
X111.724 Y334.813
X111.759 Y334.547
X111.769 Y334.438
X111.772 Y334.329
X111.768 Y334.061
X111.762 Y333.949
X111.748 Y333.837
X111.704 Y333.572
X111.683 Y333.468
X111.654 Y333.365
X111.572 Y333.106
X111.537 Y333.007
X111.494 Y332.91
X111.374 Y332.66
X111.326 Y332.567
X111.271 Y332.478
X111.114 Y332.242
X111.056 Y332.161
X110.993 Y332.084
X110.8 Y331.864
X110.734 Y331.793
X110.663 Y331.727
X110.437 Y331.528
X110.366 Y331.469
X110.29 Y331.414
X110.033 Y331.239
X109.956 Y331.19
X109.877 Y331.146
X109.592 Y330.999
X109.512 Y330.961
X109.431 Y330.928
X109.122 Y330.812
X109.038 Y330.783
X108.951 Y330.759
X108.624 Y330.679
X108.543 Y330.661
X108.461 Y330.648
X108.122 Y330.604
X108.037 Y330.596
X107.951 Y330.592
X107.607 Y330.587
X107.519 Y330.588
X107.432 Y330.595
X107.09 Y330.63
X107.007 Y330.641
X106.925 Y330.656
X106.593 Y330.728
X106.569 Y330.734
G3 X106.208 Y330.51 I-0.068 J-0.292
G1 X106.14 Y330.218
X106.124 Y330.153 Z11.954
X106.11 Y330.091 Z11.976
X106.097 Y330.036 Z12.012
X106.086 Y329.99 Z12.06
X106.078 Y329.955 Z12.116
X106.073 Y329.933 Z12.18
X106.071 Y329.926 Z12.247
G0 Z20.
X114.031 Y298.333
G1 Z16. F200
Z12.247
X114.039 Z12.18 F600
X114.061 Z12.116
X114.096 Z12.06
X114.144 Z12.012
X114.201 Z11.976
X114.264 Z11.954
X114.331 Z11.947
X114.631
G3 X114.931 Y298.633 I0. J0.3
G1 Y300.313
X102.131
Y298.523
X110.51
G2 X112.01 Y297.023 I0. J-1.5
X111.831 Y296.312 I-1.5 J0.
G1 X103.521 Y280.862
X107.177
X114.931 Y296.772
Y298.633
G3 X114.631 Y298.933 I-0.3 J0.
G1 X114.331
X114.264 Z11.954
X114.201 Z11.976
X114.144 Z12.012
X114.096 Z12.06
X114.061 Z12.116
X114.039 Z12.18
X114.031 Z12.247
G0 Z20.
X107.406 Y262.286
G1 Z16. F200
Z12.247
X107.409 Y262.279 Z12.18 F600
X107.416 Y262.258 Z12.116
X107.428 Y262.224 Z12.06
X107.443 Y262.179 Z12.012
X107.462 Y262.126 Z11.976
X107.483 Y262.066 Z11.954
X107.505 Y262.003 Z11.947
X107.604 Y261.719
G3 X107.986 Y261.535 I0.283 J0.099
G1 X108.123 Y261.582
X108.223 Y261.614
X108.54 Y261.7
X108.631 Y261.721
X108.957 Y261.788
X109.037 Y261.802
X109.371 Y261.852
X109.442 Y261.861
X109.787 Y261.896
X109.845 Y261.901
X110.198 Y261.923
X110.246 Y261.925
X110.61 Y261.936
X110.659 Y261.937
X111.032 Y261.936
X111.071 Y261.935
X111.119 Y261.934
Y262.7
X110.815 Y262.748
X110.373 Y262.796
X109.946 Y262.821
X109.534 Y262.825
X109.136 Y262.806
X108.751 Y262.768
X108.378 Y262.709
X108.013 Y262.63
X107.659 Y262.532
X107.312 Y262.415
X106.967 Y262.278
X106.63 Y262.124
X106.296 Y261.95
X105.963 Y261.758
X105.634 Y261.55
X105.311 Y261.327
X104.992 Y261.088
X104.677 Y260.835
X104.37 Y260.569
X104.069 Y260.292
X103.78 Y260.004
X103.502 Y259.707
X103.235 Y259.395
X102.981 Y259.072
X102.742 Y258.737
X102.516 Y258.385
X102.307 Y258.016
X102.112 Y257.626
X101.933 Y257.215
X101.771 Y256.778
X101.627 Y256.318
X101.502 Y255.831
X101.398 Y255.319
X101.316 Y254.783
X101.256 Y254.227
X101.219 Y253.654
X101.207 Y253.07
X101.218 Y252.477
X101.254 Y251.881
X101.313 Y251.289
X101.396 Y250.704
X101.501 Y250.132
X101.628 Y249.578
X101.774 Y249.045
X101.939 Y248.54
X102.121 Y248.062
X102.318 Y247.615
X102.529 Y247.199
X102.752 Y246.815
X102.985 Y246.46
X103.228 Y246.137
X103.48 Y245.84
X103.74 Y245.569
X104.007 Y245.321
X104.281 Y245.096
X104.56 Y244.893
X104.845 Y244.71
X105.134 Y244.547
X105.426 Y244.404
X105.715 Y244.281
X106.006 Y244.179
X106.296 Y244.095
X106.583 Y244.031
X106.871 Y243.986
X107.156 Y243.959
X107.443 Y243.951
X107.735 Y243.96
X108.031 Y243.987
X108.333 Y244.032
X108.64 Y244.094
X108.957 Y244.176
X109.279 Y244.272
X109.606 Y244.386
X109.935 Y244.514
X110.264 Y244.657
X110.588 Y244.811
X110.906 Y244.979
X111.214 Y245.157
X111.506 Y245.345
X111.782 Y245.546
X112.041 Y245.757
X112.281 Y245.98
X112.502 Y246.217
X112.704 Y246.47
X112.89 Y246.741
X113.057 Y247.031
X113.207 Y247.346
X113.339 Y247.684
X113.452 Y248.043
X113.543 Y248.422
X113.613 Y248.819
X113.661 Y249.225
X113.685 Y249.638
X113.687 Y250.051
X113.665 Y250.459
X113.622 Y250.854
X113.557 Y251.229
X113.471 Y251.585
X113.367 Y251.914
X113.246 Y252.214
X113.098 Y252.506
X113.032 Y252.617
X112.951 Y252.739
X112.866 Y252.857
X112.78 Y252.964
X112.685 Y253.07
X112.585 Y253.173
X112.478 Y253.272
X112.365 Y253.368
X112.246 Y253.459
X112.132 Y253.539
X111.839 Y253.716
X111.53 Y253.872
X111.193 Y254.011
X110.827 Y254.134
X110.437 Y254.24
X110.032 Y254.326
X109.621 Y254.392
X109.206 Y254.437
X108.797 Y254.463
X108.4 Y254.468
X108.021 Y254.454
X107.67 Y254.424
X107.348 Y254.376
X107.063 Y254.316
X106.817 Y254.244
X106.613 Y254.167
X106.451 Y254.087
X106.327 Y254.009
X106.236 Y253.936
X106.1 Y253.795
G2 X103.979 Y253.758 I-1.079 J1.042
X103.585 Y254.405 I1.042 J1.079
G1 X103.526 Y254.601
X103.497 Y254.71
X103.477 Y254.821
X103.446 Y255.038
X103.435 Y255.141
X103.431 Y255.244
X103.43 Y255.481
X103.432 Y255.562
X103.438 Y255.644
X103.465 Y255.901
X103.487 Y256.042
X103.543 Y256.318
X103.57 Y256.431
X103.654 Y256.726
X103.685 Y256.822
X103.796 Y257.131
X103.829 Y257.213
X103.967 Y257.536
X104.001 Y257.611
X104.164 Y257.941
X104.198 Y258.005
X104.383 Y258.338
X104.419 Y258.4
X104.624 Y258.731
X104.666 Y258.795
X104.889 Y259.117
X104.934 Y259.178
X105.172 Y259.487
X105.226 Y259.554
X105.477 Y259.844
X105.54 Y259.913
X105.802 Y260.18
X105.876 Y260.25
X106.147 Y260.491
X106.233 Y260.562
X106.513 Y260.776
X106.611 Y260.845
X106.898 Y261.03
X107.001 Y261.09
X107.295 Y261.248
X107.406 Y261.302
X107.707 Y261.433
X107.813 Y261.474
X107.986 Y261.535
G3 X108.157 Y261.688 I-0.099 J0.283
X108.17 Y261.917 I-0.27 J0.131
G1 X108.072 Y262.2
X108.05 Y262.263 Z11.954
X108.029 Y262.323 Z11.976
X108.01 Y262.377 Z12.012
X107.994 Y262.422 Z12.06
X107.983 Y262.455 Z12.116
X107.975 Y262.476 Z12.18
X107.973 Y262.483 Z12.247
G0 Z20.
X111.722 Y252.087
G1 Z16. F200
Z12.247
X111.715 Y252.083 Z12.18 F600
X111.696 Y252.072 Z12.116
X111.665 Y252.054 Z12.06
X111.624 Y252.03 Z12.012
X111.575 Y252.001 Z11.976
X111.52 Y251.97 Z11.954
X111.462 Y251.936 Z11.947
X111.202 Y251.786
G3 X111.093 Y251.376 I0.15 J-0.26
G1 X111.104 Y251.356
X111.144 Y251.283
X111.18 Y251.207
X111.29 Y250.956
X111.32 Y250.883
X111.345 Y250.809
X111.429 Y250.545
X111.452 Y250.466
X111.471 Y250.385
X111.526 Y250.111
X111.539 Y250.033
X111.549 Y249.954
X111.575 Y249.673
X111.58 Y249.594
X111.581 Y249.514
X111.577 Y249.23
X111.568 Y249.088
X111.537 Y248.804
X111.513 Y248.656
X111.454 Y248.378
X111.418 Y248.239
X111.333 Y247.969
X111.285 Y247.838
X111.177 Y247.581
X111.115 Y247.452
X110.985 Y247.21
X110.947 Y247.143
X110.905 Y247.078
X110.755 Y246.857
X110.666 Y246.738
X110.5 Y246.539
X110.445 Y246.477
X110.387 Y246.419
X110.207 Y246.246
X110.143 Y246.187
X110.076 Y246.133
X109.884 Y245.987
X109.809 Y245.933
X109.731 Y245.885
X109.53 Y245.768
X109.444 Y245.722
X109.356 Y245.681
X109.149 Y245.594
X109.058 Y245.559
X108.964 Y245.53
X108.752 Y245.472
X108.652 Y245.448
X108.551 Y245.432
X108.337 Y245.404
X108.236 Y245.394
X108.135 Y245.391
X107.92 Y245.392
X107.826 Y245.395
X107.731 Y245.405
X107.519 Y245.433
X107.428 Y245.448
X107.339 Y245.468
X107.13 Y245.522
X107.049 Y245.545
X106.969 Y245.573
X106.765 Y245.651
X106.69 Y245.682
X106.617 Y245.717
X106.42 Y245.818
X106.292 Y245.892
X106.104 Y246.013
X105.992 Y246.092
X105.813 Y246.232
X105.713 Y246.318
X105.546 Y246.474
X105.452 Y246.569
X105.298 Y246.741
X105.222 Y246.834
X105.082 Y247.018
X105.011 Y247.119
X104.886 Y247.315
X104.827 Y247.418
X104.718 Y247.623
X104.664 Y247.735
X104.572 Y247.949
X104.529 Y248.061
X104.455 Y248.28
X104.422 Y248.39
X104.365 Y248.614
X104.34 Y248.731
X104.301 Y248.959
X104.286 Y249.081
X104.266 Y249.309
X104.26 Y249.42
X104.257 Y249.649
X104.26 Y249.762
X104.274 Y249.988
X104.284 Y250.095
X104.314 Y250.318
X104.332 Y250.421
X104.377 Y250.639
X104.401 Y250.74
X104.46 Y250.951
X104.494 Y251.057
X104.567 Y251.259
X104.603 Y251.348
X104.687 Y251.541
X104.735 Y251.642
X104.831 Y251.824
X104.887 Y251.921
X104.993 Y252.09
X105.06 Y252.188
X105.176 Y252.344
X105.265 Y252.452
X105.39 Y252.591
X105.49 Y252.693
X105.625 Y252.817
X105.687 Y252.87
X105.751 Y252.92
X105.895 Y253.026
X105.971 Y253.078
X106.05 Y253.126
X106.205 Y253.213
X106.287 Y253.256
X106.372 Y253.294
X106.536 Y253.361
X106.624 Y253.393
X106.714 Y253.421
X106.889 Y253.468
X106.979 Y253.489
X107.07 Y253.505
X107.256 Y253.531
X107.345 Y253.54
X107.433 Y253.545
X107.628 Y253.549
X107.714 Y253.548
X107.799 Y253.542
X108.002 Y253.523
X108.148 Y253.502
X108.359 Y253.461
X108.505 Y253.425
X108.721 Y253.36
X108.848 Y253.316
X109.067 Y253.228
X109.191 Y253.171
X109.408 Y253.06
X109.524 Y252.995
X109.737 Y252.861
X109.846 Y252.785
X110.051 Y252.629
X110.163 Y252.535
X110.355 Y252.357
X110.456 Y252.254
X110.633 Y252.055
X110.727 Y251.938
X110.885 Y251.72
X110.968 Y251.591
X111.093 Y251.376
G3 X111.503 Y251.267 I0.26 J0.15
G1 X111.762 Y251.417
X111.82 Y251.45 Z11.954
X111.875 Y251.482 Z11.976
X111.924 Y251.511 Z12.012
X111.965 Y251.534 Z12.06
X111.996 Y251.552 Z12.116
X112.016 Y251.563 Z12.18
X112.022 Y251.567 Z12.247
G0 Z30.

(2D Pocket4)
G64
X130.819 Y347.799
Z30.
Z20.
G1 Z12.747 F200
Y347.791 Z12.68 F600
Y347.769 Z12.616
Y347.734 Z12.56
Y347.686 Z12.512
Y347.629 Z12.476
Y347.566 Z12.454
Y347.499 Z12.447
Y346.399
Y46.866
Y46.854
Y46.787 Z12.454
Y46.724 Z12.476
Y46.667 Z12.512
Y46.619 Z12.56
Y46.584 Z12.616
Y46.562 Z12.68
Y46.554 Z12.747
G0 Z20.
X129.304 Y349.314
G1 Z12.717 F200
X129.303 Y349.308 Z12.657 F600
X129.3 Y349.288 Z12.599
X129.295 Y349.256 Z12.548
X129.288 Y349.214 Z12.506
X129.28 Y349.163 Z12.473
X129.271 Y349.107 Z12.453
X129.262 Y349.048 Z12.447
X129.118 Y348.137
X129.114 Y348.09
Y45.146
X129.118 Y45.099
X129.22 Y44.451
X129.231 Y44.385 Z12.454
X129.241 Y44.322 Z12.476
X129.25 Y44.266 Z12.512
X129.257 Y44.219 Z12.56
X129.263 Y44.184 Z12.616
X129.266 Y44.162 Z12.68
X129.267 Y44.155 Z12.747
G0 Z30.
X164.919 Y282.135
Z20.
G1 Z10.247 F200
Y282.128 Z10.18 F600
Y282.106 Z10.116
Y282.07 Z10.06
Y282.022 Z10.012
Y281.966 Z9.976
Y281.902 Z9.954
Y281.835 Z9.947
Y279.969
Y265.446
G3 X165.344 Y265.021 I0.425 J0.
X165.769 Y265.446 I0. J0.425
G1 Y272.708
X165.344 Y279.969
X165.332 Y280.046
X165.307 Y280.119
X164.032 Y282.955
G3 X163.47 Y283.168 I-0.388 J-0.174
X163.219 Y282.78 I0.174 J-0.388
G1 Y262.636
G3 X163.644 Y262.211 I0.425 J0.
X164.069 Y262.636 I0. J0.425
G1 Y272.708
X163.644 Y282.78
X163.634 Y282.855
X163.611 Y282.927
X163.576 Y282.993
X162.301 Y284.964
G3 X161.713 Y285.089 I-0.357 J-0.231
X161.519 Y284.733 I0.231 J-0.357
G1 Y260.684
G3 X161.944 Y260.259 I0.425 J0.
X162.369 Y260.684 I0. J0.425
G1 Y272.709
X161.944 Y284.733
G3 X161.84 Y284.997 I-0.425 J-0.015
G1 X160.564 Y286.46
G3 X159.965 Y286.501 I-0.32 J-0.279
X159.819 Y286.18 I0.279 J-0.32
G1 Y259.221
G3 X160.244 Y258.796 I0.425 J0.
X160.669 Y259.221 I0. J0.425
G1 Y272.7
X160.244 Y286.18
G3 X160.105 Y286.481 I-0.425 J-0.013
G1 X158.83 Y287.639
G3 X158.229 Y287.611 I-0.286 J-0.315
X158.119 Y287.325 I0.315 J-0.286
G1 Y258.094
G3 X158.544 Y257.669 I0.425 J0.
X158.969 Y258.093 I0. J0.425
G1 Y272.709
X158.544 Y287.325
G3 X158.365 Y287.659 I-0.425 J-0.012
G1 X157.09 Y288.564
G3 X156.497 Y288.463 I-0.246 J-0.347
X156.419 Y288.217 I0.347 J-0.246
G1 Y257.202
G3 X156.844 Y256.777 I0.425 J0.
X157.269 Y257.202 I0. J0.425
G1 Y272.709
X156.844 Y288.217
G3 X156.6 Y288.59 I-0.425 J-0.012
G1 X155.325 Y289.191
G3 X154.76 Y288.988 I-0.181 J-0.384
X154.719 Y288.806 I0.384 J-0.181
G1 Y256.613
G3 X155.144 Y256.188 I0.425 J0.
X155.569 Y256.613 I0. J0.425
G1 Y272.71
X155.144 Y288.806
G3 X154.856 Y289.198 I-0.425 J-0.011
G1 X153.58 Y289.63
G3 X153.041 Y289.364 I-0.136 J-0.403
X153.019 Y289.227 I0.403 J-0.136
G1 Y256.176
G3 X153.444 Y255.751 I0.425 J0.
X153.869 Y256.176 I0. J0.425
G1 Y272.702
X153.444 Y289.227
G3 X153.121 Y289.629 I-0.425 J-0.011
G1 X151.846 Y289.943
G3 X151.331 Y289.632 I-0.102 J-0.413
X151.319 Y289.531 I0.413 J-0.102
G1 Y255.89
G3 X151.744 Y255.465 I0.425 J0.
X152.169 Y255.89 I0. J0.425
G1 Y272.71
X151.744 Y289.531
G3 X151.334 Y289.945 I-0.425 J-0.011
G1 X150.059 Y289.989
G3 X149.749 Y289.87 I-0.015 J-0.425
X149.619 Y289.565 I0.295 J-0.306
G1 Y255.857
G3 X150.044 Y255.432 I0.425 J0.
X150.469 Y255.857 I0. J0.425
G1 Y272.711
X150.044 Y289.565
G3 X149.907 Y289.867 I-0.425 J-0.011
X149.595 Y289.978 I-0.288 J-0.313
G1 X148.32 Y289.905
G3 X147.919 Y289.481 I0.024 J-0.424
G1 Y255.941
G3 X148.344 Y255.516 I0.425 J0.
X148.769 Y255.941 I0. J0.425
G1 Y272.711
X148.344 Y289.481
G3 X147.908 Y289.895 I-0.425 J-0.011
X147.84 Y289.888 I0.011 J-0.425
G1 X146.565 Y289.646
G3 X146.219 Y289.229 I0.079 J-0.418
G1 Y256.177
G3 X146.644 Y255.752 I0.425 J0.
X147.069 Y256.177 I0. J0.425
G1 Y272.703
X146.644 Y289.229
G3 X146.208 Y289.643 I-0.425 J-0.011
X146.07 Y289.616 I0.011 J-0.425
G1 X144.795 Y289.139
G3 X144.519 Y288.741 I0.149 J-0.398
G1 Y256.666
G3 X144.944 Y256.241 I0.425 J0.
X145.369 Y256.666 I0. J0.425
G1 Y272.703
X144.944 Y288.741
G3 X144.508 Y289.155 I-0.425 J-0.011
X144.331 Y289.111 I0.011 J-0.425
G1 X143.056 Y288.483
G3 X142.819 Y288.102 I0.188 J-0.381
G1 Y257.305
G3 X143.244 Y256.88 I0.425 J0.
X143.669 Y257.305 I0. J0.425
G1 Y272.704
X143.244 Y288.102
G3 X142.807 Y288.515 I-0.425 J-0.012
X142.587 Y288.446 I0.012 J-0.425
G1 X141.312 Y287.617
G3 X141.119 Y287.261 I0.232 J-0.356
G1 Y258.147
G3 X141.544 Y257.722 I0.425 J0.
X141.969 Y258.147 I0. J0.425
G1 Y272.704
X141.544 Y287.261
G3 X141.107 Y287.673 I-0.425 J-0.012
X140.835 Y287.564 I0.012 J-0.425
G1 X139.56 Y286.416
G3 X139.419 Y286.1 I0.284 J-0.316
G1 Y259.309
G3 X139.844 Y258.884 I0.425 J0.
X140.269 Y259.309 I0. J0.425
G1 Y272.704
X139.844 Y286.1
G3 X139.424 Y286.511 I-0.425 J-0.013
G1 X138.149 Y286.525
G3 X137.845 Y286.402 I-0.005 J-0.425
X137.719 Y286.1 I0.299 J-0.302
G1 Y259.309
G3 X138.144 Y258.884 I0.425 J0.
X138.569 Y259.309 I0. J0.425
G1 Y272.704
X138.144 Y286.1
G3 X137.724 Y286.512 I-0.425 J-0.013
G1 X136.449 Y286.525
G3 X136.145 Y286.402 I-0.005 J-0.425
X136.019 Y286.1 I0.299 J-0.302
G1 Y259.309
G3 X136.444 Y258.884 I0.425 J0.
X136.869 Y259.309 I0. J0.425
G1 Y272.705
X136.444 Y286.1
G3 X136.024 Y286.512 I-0.425 J-0.013
G1 X134.778 Y286.526
G3 X134.475 Y286.403 I-0.005 J-0.425
X134.349 Y286.101 I0.299 J-0.302
G1 X134.364 Y260.706
X134.363 Y259.309
G3 X134.787 Y258.884 I0.425 J0.
X135.088 Y259.008 I0. J0.425
X135.213 Y259.309 I-0.3 J0.301
G1 X135.207 Y272.705
X134.774 Y286.101
G3 X134.355 Y286.512 I-0.425 J-0.014
G1 X133.045 Y286.531
G3 X132.741 Y286.408 I-0.006 J-0.425
X132.614 Y286.106 I0.298 J-0.303
G1 Y260.706
Y259.309
X132.618 Y259.262
X132.72 Y258.614
X132.731 Y258.548 Z9.954
X132.741 Y258.486 Z9.976
X132.75 Y258.429 Z10.012
X132.757 Y258.382 Z10.06
X132.763 Y258.347 Z10.116
X132.766 Y258.325 Z10.18
X132.767 Y258.318 Z10.247
G0 Z30.
X6.235 Y263.615
Z20.
G1 Z10.247 F200
Y263.623 Z10.18 F600
Y263.645 Z10.116
Y263.681 Z10.06
Y263.728 Z10.012
Y263.785 Z9.976
Y263.849 Z9.954
Y263.915 Z9.947
Y265.734
Y280.258
G3 X5.81 Y280.683 I-0.425 J0.
X5.385 Y280.258 I0. J-0.425
G1 Y272.996
X5.81 Y265.734
X5.821 Y265.658
X5.847 Y265.585
X7.122 Y262.749
G3 X7.684 Y262.536 I0.388 J0.174
X7.935 Y262.924 I-0.174 J0.388
G1 Y283.068
G3 X7.51 Y283.493 I-0.425 J0.
X7.085 Y283.068 I0. J-0.425
G1 Y272.996
X7.51 Y262.924
X7.52 Y262.849
X7.543 Y262.777
X7.578 Y262.711
X8.853 Y260.74
G3 X9.441 Y260.615 I0.357 J0.231
X9.635 Y260.971 I-0.231 J0.357
G1 Y285.02
G3 X9.21 Y285.445 I-0.425 J0.
X8.785 Y285.02 I0. J-0.425
G1 Y272.995
X9.21 Y260.971
G3 X9.314 Y260.707 I0.425 J0.015
G1 X10.59 Y259.245
G3 X11.189 Y259.203 I0.32 J0.279
X11.335 Y259.524 I-0.279 J0.32
G1 Y286.483
G3 X10.91 Y286.908 I-0.425 J0.
X10.485 Y286.483 I0. J-0.425
G1 Y273.004
X10.91 Y259.524
G3 X11.049 Y259.223 I0.425 J0.013
G1 X12.303 Y258.081
G3 X12.903 Y258.11 I0.286 J0.314
X13.014 Y258.396 I-0.314 J0.286
G1 X12.99 Y284.997
X12.994 Y287.589
G3 X12.57 Y288.014 I-0.425 J0.001
X12.269 Y287.89 I-0.001 J-0.425
X12.144 Y287.589 I0.3 J-0.301
G1 X12.151 Y272.992
X12.589 Y258.396
G3 X12.767 Y258.062 I0.425 J0.013
G1 X14.064 Y257.141
G3 X14.656 Y257.241 I0.246 J0.346
X14.735 Y257.487 I-0.346 J0.246
G1 Y288.502
G3 X14.31 Y288.927 I-0.425 J0.
X13.885 Y288.502 I0. J-0.425
G1 Y272.995
X14.31 Y257.487
G3 X14.554 Y257.114 I0.425 J0.012
G1 X15.829 Y256.513
G3 X16.394 Y256.716 I0.181 J0.384
X16.435 Y256.898 I-0.384 J0.181
G1 Y289.091
G3 X16.01 Y289.516 I-0.425 J0.
X15.585 Y289.091 I0. J-0.425
G1 Y272.994
X16.01 Y256.898
G3 X16.294 Y256.508 I0.425 J0.011
G1 X17.569 Y256.059
G3 X18.111 Y256.319 I0.141 J0.401
X18.135 Y256.46 I-0.401 J0.141
G1 Y289.528
G3 X17.71 Y289.953 I-0.425 J0.
X17.285 Y289.528 I0. J-0.425
G1 Y272.994
X17.71 Y256.46
G3 X18.038 Y256.057 I0.425 J0.011
G1 X19.313 Y255.759
G3 X19.824 Y256.077 I0.097 J0.414
X19.835 Y256.173 I-0.414 J0.097
G1 Y289.814
G3 X19.41 Y290.239 I-0.425 J0.
X18.985 Y289.814 I0. J-0.425
G1 Y272.994
X19.41 Y256.173
G3 X19.82 Y255.759 I0.425 J0.011
G1 X21.095 Y255.715
G3 X21.405 Y255.834 I0.015 J0.425
X21.535 Y256.139 I-0.295 J0.306
G1 Y289.847
G3 X21.11 Y290.272 I-0.425 J0.
X20.685 Y289.847 I0. J-0.425
G1 Y272.993
X21.11 Y256.139
G3 X21.247 Y255.837 I0.425 J0.011
X21.559 Y255.726 I0.288 J0.313
G1 X22.834 Y255.799
G3 X23.235 Y256.223 I-0.024 J0.424
G1 Y289.763
G3 X22.81 Y290.188 I-0.425 J0.
X22.385 Y289.763 I0. J-0.425
G1 Y272.993
X22.81 Y256.223
G3 X23.246 Y255.809 I0.425 J0.011
X23.314 Y255.816 I-0.011 J0.425
G1 X24.589 Y256.058
G3 X24.935 Y256.475 I-0.079 J0.418
G1 Y289.527
G3 X24.51 Y289.952 I-0.425 J0.
X24.085 Y289.527 I0. J-0.425
G1 Y273.001
X24.51 Y256.475
G3 X24.946 Y256.061 I0.425 J0.011
X25.084 Y256.088 I-0.011 J0.425
G1 X26.359 Y256.565
G3 X26.635 Y256.963 I-0.149 J0.398
G1 Y289.038
G3 X26.21 Y289.463 I-0.425 J0.
X25.785 Y289.038 I0. J-0.425
G1 Y273.001
X26.21 Y256.963
G3 X26.646 Y256.55 I0.425 J0.011
X26.823 Y256.593 I-0.011 J0.425
G1 X28.098 Y257.221
G3 X28.335 Y257.602 I-0.188 J0.381
G1 Y288.399
G3 X27.91 Y288.824 I-0.425 J0.
X27.485 Y288.399 I0. J-0.425
G1 Y273.
X27.91 Y257.602
G3 X28.346 Y257.189 I0.425 J0.012
X28.566 Y257.258 I-0.012 J0.425
G1 X29.842 Y258.087
G3 X30.035 Y258.443 I-0.232 J0.356
G1 Y287.557
G3 X29.61 Y287.982 I-0.425 J0.
X29.185 Y287.557 I0. J-0.425
G1 Y273.
X29.61 Y258.443
G3 X30.047 Y258.031 I0.425 J0.012
X30.319 Y258.14 I-0.012 J0.425
G1 X31.594 Y259.288
G3 X31.735 Y259.604 I-0.284 J0.316
G1 Y286.395
G3 X31.31 Y286.82 I-0.425 J0.
X30.885 Y286.395 I0. J-0.425
G1 Y273.
X31.31 Y259.604
G3 X31.73 Y259.193 I0.425 J0.013
G1 X32.976 Y259.179
G3 X33.28 Y259.302 I0.005 J0.425
X33.406 Y259.604 I-0.299 J0.302
G1 X33.39 Y284.997
X33.391 Y286.394
G3 X32.967 Y286.819 I-0.425 J0.
X32.666 Y286.695 I0. J-0.425
X32.541 Y286.394 I0.3 J-0.301
G1 X32.548 Y272.998
X32.981 Y259.604
G3 X33.401 Y259.192 I0.425 J0.014
G1 X34.705 Y259.179
G3 X35.009 Y259.302 I0.004 J0.425
X35.135 Y259.604 I-0.299 J0.302
G1 Y286.395
G3 X34.71 Y286.82 I-0.425 J0.
X34.285 Y286.395 I0. J-0.425
G1 Y272.999
X34.71 Y259.604
G3 X35.13 Y259.192 I0.425 J0.013
G1 X36.405 Y259.178
G3 X36.709 Y259.301 I0.005 J0.425
X36.835 Y259.603 I-0.299 J0.302
G1 Y286.395
G3 X36.41 Y286.82 I-0.425 J0.
X35.985 Y286.395 I0. J-0.425
G1 Y272.999
X36.41 Y259.603
G3 X36.829 Y259.192 I0.425 J0.013
G1 X38.109 Y259.173
G3 X38.413 Y259.296 I0.006 J0.425
X38.54 Y259.598 I-0.298 J0.303
G1 Y284.997
Y286.394
X38.536 Y286.441
X38.434 Y287.089
X38.423 Y287.155 Z9.954
X38.413 Y287.217 Z9.976
X38.404 Y287.274 Z10.012
X38.397 Y287.321 Z10.06
X38.391 Y287.356 Z10.116
X38.388 Y287.378 Z10.18
X38.387 Y287.385 Z10.247
G0 Z30.
X164.919 Y129.97
Z20.
G1 Z10.247 F200
Y129.963 Z10.18 F600
Y129.941 Z10.116
Y129.905 Z10.06
Y129.857 Z10.012
Y129.801 Z9.976
Y129.737 Z9.954
Y129.67 Z9.947
Y127.804
Y113.281
G3 X165.344 Y112.856 I0.425 J0.
X165.769 Y113.281 I0. J0.425
G1 Y120.543
X165.344 Y127.804
X165.332 Y127.881
X165.307 Y127.954
X164.032 Y130.79
G3 X163.47 Y131.003 I-0.388 J-0.174
X163.219 Y130.615 I0.174 J-0.388
G1 Y110.471
G3 X163.644 Y110.046 I0.425 J0.
X164.069 Y110.471 I0. J0.425
G1 Y120.543
X163.644 Y130.615
X163.634 Y130.69
X163.611 Y130.762
X163.576 Y130.828
X162.301 Y132.799
G3 X161.713 Y132.924 I-0.357 J-0.231
X161.519 Y132.568 I0.231 J-0.357
G1 Y108.519
G3 X161.944 Y108.094 I0.425 J0.
X162.369 Y108.519 I0. J0.425
G1 Y120.544
X161.944 Y132.568
G3 X161.84 Y132.832 I-0.425 J-0.015
G1 X160.564 Y134.294
G3 X159.965 Y134.336 I-0.32 J-0.279
X159.819 Y134.015 I0.279 J-0.32
G1 Y107.056
G3 X160.244 Y106.631 I0.425 J0.
X160.669 Y107.056 I0. J0.425
G1 Y120.535
X160.244 Y134.015
G3 X160.105 Y134.316 I-0.425 J-0.013
G1 X158.83 Y135.474
G3 X158.229 Y135.446 I-0.286 J-0.315
X158.119 Y135.16 I0.315 J-0.286
G1 Y105.928
G3 X158.544 Y105.503 I0.425 J0.
X158.969 Y105.928 I0. J0.425
G1 Y120.544
X158.544 Y135.16
G3 X158.365 Y135.494 I-0.425 J-0.012
G1 X157.111 Y136.382
G3 X156.518 Y136.281 I-0.246 J-0.347
X156.44 Y136.035 I0.347 J-0.246
G1 X156.464 Y108.541
X156.458 Y105.057
G3 X156.883 Y104.632 I0.425 J-0.001
X157.184 Y104.756 I0.001 J0.425
X157.308 Y105.057 I-0.3 J0.301
G1 X157.304 Y120.547
X156.865 Y136.036
G3 X156.623 Y136.407 I-0.425 J-0.012
G1 X155.327 Y137.025
G3 X154.76 Y136.824 I-0.183 J-0.384
X154.719 Y136.641 I0.384 J-0.183
G1 Y104.448
G3 X155.144 Y104.023 I0.425 J0.
X155.569 Y104.448 I0. J0.425
G1 Y120.545
X155.144 Y136.641
G3 X154.856 Y137.033 I-0.425 J-0.011
G1 X153.58 Y137.465
G3 X153.041 Y137.199 I-0.136 J-0.403
X153.019 Y137.062 I0.403 J-0.136
G1 Y104.011
G3 X153.444 Y103.586 I0.425 J0.
X153.869 Y104.011 I0. J0.425
G1 Y120.537
X153.444 Y137.062
G3 X153.121 Y137.464 I-0.425 J-0.011
G1 X151.846 Y137.778
G3 X151.331 Y137.467 I-0.102 J-0.413
X151.319 Y137.366 I0.413 J-0.102
G1 Y103.725
G3 X151.744 Y103.3 I0.425 J0.
X152.169 Y103.725 I0. J0.425
G1 Y120.545
X151.744 Y137.366
G3 X151.334 Y137.78 I-0.425 J-0.011
G1 X150.059 Y137.824
G3 X149.749 Y137.705 I-0.015 J-0.425
X149.619 Y137.4 I0.295 J-0.306
G1 Y103.692
G3 X150.044 Y103.267 I0.425 J0.
X150.469 Y103.692 I0. J0.425
G1 Y120.546
X150.044 Y137.4
G3 X149.907 Y137.702 I-0.425 J-0.011
X149.595 Y137.813 I-0.288 J-0.313
G1 X148.32 Y137.74
G3 X147.919 Y137.316 I0.024 J-0.424
G1 Y103.776
G3 X148.344 Y103.351 I0.425 J0.
X148.769 Y103.776 I0. J0.425
G1 Y120.546
X148.344 Y137.316
G3 X147.908 Y137.73 I-0.425 J-0.011
X147.84 Y137.723 I0.011 J-0.425
G1 X146.565 Y137.481
G3 X146.219 Y137.064 I0.079 J-0.418
G1 Y104.012
G3 X146.644 Y103.587 I0.425 J0.
X147.069 Y104.012 I0. J0.425
G1 Y120.538
X146.644 Y137.064
G3 X146.208 Y137.478 I-0.425 J-0.011
X146.07 Y137.451 I0.011 J-0.425
G1 X144.795 Y136.974
G3 X144.519 Y136.576 I0.149 J-0.398
G1 Y104.501
G3 X144.944 Y104.076 I0.425 J0.
X145.369 Y104.501 I0. J0.425
G1 Y120.538
X144.944 Y136.576
G3 X144.508 Y136.989 I-0.425 J-0.011
X144.331 Y136.946 I0.011 J-0.425
G1 X143.056 Y136.318
G3 X142.819 Y135.937 I0.188 J-0.381
G1 Y105.14
G3 X143.244 Y104.715 I0.425 J0.
X143.669 Y105.14 I0. J0.425
G1 Y120.539
X143.244 Y135.937
G3 X142.807 Y136.35 I-0.425 J-0.012
X142.587 Y136.281 I0.012 J-0.425
G1 X141.312 Y135.452
G3 X141.119 Y135.096 I0.232 J-0.356
G1 Y105.982
G3 X141.544 Y105.557 I0.425 J0.
X141.969 Y105.982 I0. J0.425
G1 Y120.539
X141.544 Y135.096
G3 X141.107 Y135.508 I-0.425 J-0.012
X140.835 Y135.399 I0.012 J-0.425
G1 X139.56 Y134.251
G3 X139.419 Y133.935 I0.284 J-0.316
G1 Y107.144
G3 X139.844 Y106.719 I0.425 J0.
X140.269 Y107.144 I0. J0.425
G1 Y120.539
X139.844 Y133.935
G3 X139.424 Y134.346 I-0.425 J-0.013
G1 X138.149 Y134.36
G3 X137.845 Y134.237 I-0.005 J-0.425
X137.719 Y133.935 I0.299 J-0.302
G1 Y107.144
G3 X138.144 Y106.719 I0.425 J0.
X138.569 Y107.144 I0. J0.425
G1 Y120.539
X138.144 Y133.935
G3 X137.724 Y134.347 I-0.425 J-0.013
G1 X136.449 Y134.36
G3 X136.145 Y134.237 I-0.005 J-0.425
X136.019 Y133.935 I0.299 J-0.302
G1 Y107.144
G3 X136.444 Y106.719 I0.425 J0.
X136.869 Y107.144 I0. J0.425
G1 Y120.54
X136.444 Y133.935
G3 X136.024 Y134.347 I-0.425 J-0.013
G1 X134.749 Y134.361
G3 X134.445 Y134.238 I-0.005 J-0.425
X134.319 Y133.936 I0.299 J-0.302
G1 Y107.144
G3 X134.744 Y106.719 I0.425 J0.
X135.169 Y107.144 I0. J0.425
G1 Y120.54
X134.744 Y133.936
G3 X134.325 Y134.347 I-0.425 J-0.013
G1 X133.045 Y134.366
G3 X132.741 Y134.243 I-0.006 J-0.425
X132.614 Y133.941 I0.298 J-0.303
G1 Y108.541
Y107.144
X132.618 Y107.097
X132.72 Y106.449
X132.731 Y106.383 Z9.954
X132.741 Y106.321 Z9.976
X132.75 Y106.264 Z10.012
X132.757 Y106.217 Z10.06
X132.763 Y106.182 Z10.116
X132.766 Y106.16 Z10.18
X132.767 Y106.153 Z10.247
G0 Z30.
X6.212 Y111.493
Z20.
G1 Z10.247 F200
Y111.5 Z10.18 F600
Y111.522 Z10.116
Y111.558 Z10.06
Y111.606 Z10.012
Y111.663 Z9.976
Y111.726 Z9.954
Y111.793 Z9.947
X6.21 Y113.62
X6.195 Y128.008
G3 X5.769 Y128.433 I-0.425 J0.
X5.345 Y128.007 I0. J-0.425
G1 X5.352 Y120.813
X5.785 Y113.619
X5.796 Y113.543
X5.822 Y113.47
X7.122 Y110.584
G3 X7.685 Y110.371 I0.387 J0.175
X7.935 Y110.758 I-0.175 J0.387
G1 Y130.902
G3 X7.51 Y131.327 I-0.425 J0.
X7.085 Y130.902 I0. J-0.425
G1 Y120.83
X7.51 Y110.758
X7.52 Y110.684
X7.543 Y110.612
X7.578 Y110.545
X8.853 Y108.575
G3 X9.441 Y108.449 I0.357 J0.231
X9.635 Y108.806 I-0.231 J0.357
G1 Y132.854
G3 X9.21 Y133.279 I-0.425 J0.
X8.785 Y132.854 I0. J-0.425
G1 Y120.83
X9.21 Y108.806
G3 X9.314 Y108.542 I0.425 J0.015
G1 X10.59 Y107.079
G3 X11.189 Y107.038 I0.32 J0.279
X11.335 Y107.358 I-0.279 J0.32
G1 Y134.318
G3 X10.91 Y134.743 I-0.425 J0.
X10.485 Y134.318 I0. J-0.425
G1 Y120.838
X10.91 Y107.358
G3 X11.049 Y107.057 I0.425 J0.013
G1 X12.324 Y105.899
G3 X12.925 Y105.928 I0.286 J0.315
X13.035 Y106.214 I-0.315 J0.286
G1 Y135.445
G3 X12.61 Y135.87 I-0.425 J0.
X12.185 Y135.445 I0. J-0.425
G1 Y120.829
X12.61 Y106.214
G3 X12.789 Y105.879 I0.425 J0.012
G1 X14.064 Y104.975
G3 X14.657 Y105.076 I0.246 J0.347
X14.735 Y105.322 I-0.347 J0.246
G1 Y136.337
G3 X14.31 Y136.762 I-0.425 J0.
X13.885 Y136.337 I0. J-0.425
G1 Y120.829
X14.31 Y105.322
G3 X14.554 Y104.949 I0.425 J0.012
G1 X15.829 Y104.348
G3 X16.394 Y104.551 I0.181 J0.384
X16.435 Y104.732 I-0.384 J0.181
G1 Y136.925
G3 X16.01 Y137.35 I-0.425 J0.
X15.585 Y136.925 I0. J-0.425
G1 Y120.829
X16.01 Y104.732
G3 X16.294 Y104.343 I0.425 J0.011
G1 X17.569 Y103.894
G3 X18.111 Y104.153 I0.141 J0.401
X18.135 Y104.294 I-0.401 J0.141
G1 Y137.363
G3 X17.71 Y137.788 I-0.425 J0.
X17.285 Y137.363 I0. J-0.425
G1 Y120.829
X17.71 Y104.294
G3 X18.038 Y103.891 I0.425 J0.011
G1 X19.313 Y103.594
G3 X19.824 Y103.911 I0.097 J0.414
X19.835 Y104.008 I-0.414 J0.097
G1 Y137.648
G3 X19.41 Y138.073 I-0.425 J0.
X18.985 Y137.648 I0. J-0.425
G1 Y120.828
X19.41 Y104.008
G3 X19.82 Y103.594 I0.425 J0.011
G1 X21.095 Y103.549
G3 X21.405 Y103.668 I0.015 J0.425
X21.535 Y103.974 I-0.295 J0.306
G1 Y137.682
G3 X21.11 Y138.107 I-0.425 J0.
X20.685 Y137.682 I0. J-0.425
G1 Y120.828
X21.11 Y103.974
G3 X21.247 Y103.672 I0.425 J0.011
X21.559 Y103.56 I0.288 J0.313
G1 X22.834 Y103.634
G3 X23.235 Y104.058 I-0.024 J0.424
G1 Y137.597
G3 X22.81 Y138.022 I-0.425 J0.
X22.385 Y137.597 I0. J-0.425
G1 Y120.828
X22.81 Y104.058
G3 X23.246 Y103.644 I0.425 J0.011
X23.314 Y103.651 I-0.011 J0.425
G1 X24.589 Y103.892
G3 X24.935 Y104.31 I-0.079 J0.418
G1 Y137.361
G3 X24.51 Y137.786 I-0.425 J0.
X24.085 Y137.361 I0. J-0.425
G1 Y120.836
X24.51 Y104.31
G3 X24.946 Y103.896 I0.425 J0.011
X25.084 Y103.923 I-0.011 J0.425
G1 X26.359 Y104.4
G3 X26.635 Y104.798 I-0.149 J0.398
G1 Y136.873
G3 X26.21 Y137.298 I-0.425 J0.
X25.785 Y136.873 I0. J-0.425
G1 Y120.835
X26.21 Y104.798
G3 X26.646 Y104.384 I0.425 J0.011
X26.823 Y104.428 I-0.011 J0.425
G1 X28.098 Y105.056
G3 X28.335 Y105.437 I-0.188 J0.381
G1 Y136.233
G3 X27.91 Y136.658 I-0.425 J0.
X27.485 Y136.233 I0. J-0.425
G1 Y120.835
X27.91 Y105.437
G3 X28.346 Y105.024 I0.425 J0.012
X28.566 Y105.092 I-0.012 J0.425
G1 X29.842 Y105.922
G3 X30.035 Y106.278 I-0.232 J0.356
G1 Y135.392
G3 X29.61 Y135.817 I-0.425 J0.
X29.185 Y135.392 I0. J-0.425
G1 Y120.835
X29.61 Y106.278
G3 X30.047 Y105.866 I0.425 J0.012
X30.319 Y105.975 I-0.012 J0.425
G1 X31.594 Y107.123
G3 X31.735 Y107.439 I-0.284 J0.316
G1 Y134.23
G3 X31.31 Y134.655 I-0.425 J0.
X30.885 Y134.23 I0. J-0.425
G1 Y120.834
X31.31 Y107.439
G3 X31.73 Y107.027 I0.425 J0.013
G1 X32.976 Y107.013
G3 X33.28 Y107.136 I0.005 J0.425
X33.406 Y107.439 I-0.299 J0.302
G1 X33.39 Y132.832
X33.391 Y134.229
G3 X32.967 Y134.654 I-0.425 J0.
X32.666 Y134.53 I0. J-0.425
X32.541 Y134.229 I0.3 J-0.301
G1 X32.548 Y120.833
X32.981 Y107.438
G3 X33.401 Y107.027 I0.425 J0.014
G1 X34.676 Y107.013
G3 X34.98 Y107.136 I0.005 J0.425
X35.106 Y107.438 I-0.299 J0.302
G1 X35.09 Y132.832
X35.091 Y134.229
G3 X34.667 Y134.654 I-0.425 J0.
X34.366 Y134.53 I0. J-0.425
X34.241 Y134.229 I0.3 J-0.301
G1 X34.247 Y120.833
X34.681 Y107.438
G3 X35.101 Y107.027 I0.425 J0.014
G1 X36.405 Y107.013
G3 X36.709 Y107.136 I0.004 J0.425
X36.835 Y107.438 I-0.299 J0.302
G1 Y134.229
G3 X36.41 Y134.654 I-0.425 J0.
X35.985 Y134.229 I0. J-0.425
G1 Y120.834
X36.41 Y107.438
G3 X36.829 Y107.026 I0.425 J0.013
G1 X38.109 Y107.008
G3 X38.413 Y107.13 I0.006 J0.425
X38.54 Y107.433 I-0.298 J0.303
G1 Y132.832
Y134.229
X38.536 Y134.276
X38.434 Y134.924
X38.423 Y134.99 Z9.954
X38.413 Y135.052 Z9.976
X38.404 Y135.109 Z10.012
X38.397 Y135.156 Z10.06
X38.391 Y135.191 Z10.116
X38.388 Y135.213 Z10.18
X38.387 Y135.22 Z10.247
G0 Z30.
X40.335 Y45.725
Z20.
G1 Z12.747 F200
Y45.732 Z12.68 F600
Y45.754 Z12.616
Y45.79 Z12.56
Y45.838 Z12.512
Y45.894 Z12.476
Y45.958 Z12.454
Y46.025 Z12.447
Y47.156
Y346.672
Y346.684
Y346.751 Z12.454
Y346.814 Z12.476
Y346.871 Z12.512
Y346.919 Z12.56
Y346.954 Z12.616
Y346.976 Z12.68
Y346.984 Z12.747
G0 Z20.
X41.847 Y44.208
G1 Z12.717 F200
X41.848 Y44.215 Z12.657 F600
X41.851 Y44.235 Z12.599
X41.857 Y44.267 Z12.548
X41.863 Y44.309 Z12.506
X41.871 Y44.359 Z12.473
X41.88 Y44.416 Z12.453
X41.89 Y44.475 Z12.447
X42.036 Y45.401
X42.04 Y45.448
Y348.392
X42.036 Y348.439
X41.934 Y349.087
X41.923 Y349.153 Z12.454
X41.913 Y349.216 Z12.476
X41.904 Y349.272 Z12.512
X41.897 Y349.319 Z12.56
X41.891 Y349.354 Z12.616
X41.888 Y349.376 Z12.68
X41.887 Y349.383 Z12.747
G0 Z30.

(2D Contour15)
G64
X88.403 Y389.033
Z30.
Z20.
G1 Z16. F133.3
Z0.247
Y389.026 Z0.18 F400
X88.402 Y389.004 Z0.116
X88.4 Y388.968 Z0.06
X88.399 Y388.921 Z0.012
X88.397 Y388.864 Z-0.024
X88.394 Y388.8 Z-0.046
X88.392 Y388.734 Z-0.053
X88.381 Y388.434
G3 X88.461 Y388.219 I0.3 J-0.011
X88.669 Y388.123 I0.22 J0.204
G2 X89.675 Y387.685 I-0.055 J-1.499
G1 X95.084 Y382.276
Z0.197
X98.266 Y379.094
Z-0.053 F133.3
X109.084 Y368.276 F400
Z0.197
X112.266 Y365.094
Z-0.053 F133.3
X123.084 Y354.276 F400
Z0.197
X126.266 Y351.094
Z-0.053 F133.3
X131.675 Y345.685 F400
G2 X132.114 Y344.624 I-1.061 J-1.061
G1 Y336.888
Z0.197
Y332.388
Z-0.053 F133.3
Y316.915 F400
Z0.197
Y312.415
Z-0.053 F133.3
Y296.943 F400
Z0.197
Y292.443
Z-0.053 F133.3
Y286.206 F400
X139.355
G2 X145.419 Y289.166 I10.345 J-13.5
G1 Z0.197
G2 X149.885 Y289.713 I4.281 J-16.46
G1 Z-0.053 F133.3
G2 X162.742 Y283.622 I-0.185 J-17.007 F400
G1 Z0.197
G2 X165.148 Y279.82 I-13.042 J-10.916
G1 Z-0.053 F133.3
G2 X165.149 Y265.593 I-15.449 J-7.114 F400
G1 Z0.197
G2 X162.743 Y261.79 I-15.449 J7.113
G1 Z-0.053 F133.3
G2 X149.885 Y255.699 I-13.043 J10.916 F400
G1 Z0.197
G2 X145.419 Y256.246 I-0.185 J17.007
G1 Z-0.053 F133.3
G2 X139.355 Y259.206 I4.281 J16.46 F400
G1 X132.114
Y254.946
Z0.197
Y250.446
Z-0.053 F133.3
Y238.925 F400
Z0.197
Y234.425
Z-0.053 F133.3
Y222.905 F400
Z0.197
Y218.405
Z-0.053 F133.3
Y206.884 F400
Z0.197
Y202.384
Z-0.053 F133.3
Y190.864 F400
Z0.197
Y186.364
Z-0.053 F133.3
Y174.843 F400
Z0.197
Y170.343
Z-0.053 F133.3
Y158.822 F400
Z0.197
Y154.322
Z-0.053 F133.3
Y142.802 F400
Z0.197
Y138.302
Z-0.053 F133.3
Y134.041 F400
X139.355
G2 X145.419 Y137.001 I10.345 J-13.5
G1 Z0.197
G2 X149.885 Y137.548 I4.281 J-16.46
G1 Z-0.053 F133.3
G2 X162.742 Y131.457 I-0.185 J-17.007 F400
G1 Z0.197
G2 X165.148 Y127.655 I-13.042 J-10.916
G1 Z-0.053 F133.3
G2 X165.149 Y113.428 I-15.449 J-7.114 F400
G1 Z0.197
G2 X162.743 Y109.625 I-15.449 J7.113
G1 Z-0.053 F133.3
G2 X149.885 Y103.534 I-13.043 J10.916 F400
G1 Z0.197
G2 X145.419 Y104.081 I-0.185 J17.007
G1 Z-0.053 F133.3
G2 X139.355 Y107.041 I4.281 J16.46 F400
G1 X132.114
Y100.805
Z0.197
Y96.305
Z-0.053 F133.3
Y80.833 F400
Z0.197
Y76.333
Z-0.053 F133.3
Y60.86 F400
Z0.197
Y56.36
Z-0.053 F133.3
Y48.624 F400
G2 X131.675 Y47.563 I-1.5 J0.
G1 X126.266 Y42.154
Z0.197
X123.084 Y38.972
Z-0.053 F133.3
X112.266 Y28.154 F400
Z0.197
X109.084 Y24.972
Z-0.053 F133.3
X98.266 Y14.154 F400
Z0.197
X95.084 Y10.972
Z-0.053 F133.3
X89.675 Y5.563 F400
G2 X87.553 I-1.061 J1.061
X87.114 Y6.624 I1.061 J1.061
G1 Y11.974
Z0.197
Y16.474
Z-0.053 F133.3
Y27.174 F400
Z0.197
Y31.674
Z-0.053 F133.3
Y42.374 F400
Z0.197
Y46.874
Z-0.053 F133.3
Y57.574 F400
Z0.197
Y62.074
Z-0.053 F133.3
Y72.774 F400
Z0.197
Y77.274
Z-0.053 F133.3
Y87.974 F400
Z0.197
Y92.474
Z-0.053 F133.3
Y103.174 F400
Z0.197
Y107.674
Z-0.053 F133.3
Y118.374 F400
Z0.197
Y122.874
Z-0.053 F133.3
Y133.574 F400
Z0.197
Y138.074
Z-0.053 F133.3
Y148.774 F400
Z0.197
Y153.274
Z-0.053 F133.3
Y163.974 F400
Z0.197
Y168.474
Z-0.053 F133.3
Y179.174 F400
Z0.197
Y183.674
Z-0.053 F133.3
Y194.374 F400
Z0.197
Y198.874
Z-0.053 F133.3
Y209.574 F400
Z0.197
Y214.074
Z-0.053 F133.3
Y224.774 F400
Z0.197
Y229.274
Z-0.053 F133.3
Y239.974 F400
Z0.197
Y244.474
Z-0.053 F133.3
Y255.174 F400
Z0.197
Y259.674
Z-0.053 F133.3
Y270.374 F400
Z0.197
Y274.874
Z-0.053 F133.3
Y285.574 F400
Z0.197
Y290.074
Z-0.053 F133.3
Y300.774 F400
Z0.197
Y305.274
Z-0.053 F133.3
Y315.974 F400
Z0.197
Y320.474
Z-0.053 F133.3
Y331.174 F400
Z0.197
Y335.674
Z-0.053 F133.3
Y346.374 F400
Z0.197
Y350.874
Z-0.053 F133.3
Y361.574 F400
Z0.197
Y366.074
Z-0.053 F133.3
Y376.774 F400
Z0.197
Y381.274
Z-0.053 F133.3
Y386.624 F400
G2 X87.573 Y387.704 I1.5 J0.
X88.669 Y388.123 I1.041 J-1.08
G3 X88.885 Y388.203 I0.011 J0.3
X88.98 Y388.412 I-0.204 J0.22
G1 X88.991 Y388.711
X88.994 Y388.778 Z-0.046
X88.996 Y388.842 Z-0.024
X88.998 Y388.898 Z0.012
X89. Y388.946 Z0.06
X89.001 Y388.982 Z0.116
X89.002 Y389.004 Z0.18
Y389.011 Z0.247
G0 Z20.
X82.265 Y389.318
G1 Z16. F133.3
Z0.247
Y389.311 Z0.18 F400
Y389.288 Z0.116
Y389.253 Z0.06
X82.264 Y389.205 Z0.012
Y389.148 Z-0.024
X82.263 Y389.085 Z-0.046
X82.262 Y389.018 Z-0.053
X82.259 Y388.718
G3 X82.556 Y388.415 I0.3 J-0.003
G2 X84.04 Y386.915 I-0.016 J-1.5
G1 Y381.565
Z0.197
Y377.065
Z-0.053 F133.3
Y366.364 F400
Z0.197
Y361.864
Z-0.053 F133.3
Y351.164 F400
Z0.197
Y346.664
Z-0.053 F133.3
Y335.964 F400
Z0.197
Y331.464
Z-0.053 F133.3
Y320.764 F400
Z0.197
Y316.264
Z-0.053 F133.3
Y305.564 F400
Z0.197
Y301.064
Z-0.053 F133.3
Y290.364 F400
Z0.197
Y285.864
Z-0.053 F133.3
Y275.164 F400
Z0.197
Y270.664
Z-0.053 F133.3
Y259.964 F400
Z0.197
Y255.464
Z-0.053 F133.3
Y244.764 F400
Z0.197
Y240.264
Z-0.053 F133.3
Y229.564 F400
Z0.197
Y225.064
Z-0.053 F133.3
Y214.364 F400
Z0.197
Y209.864
Z-0.053 F133.3
Y199.164 F400
Z0.197
Y194.664
Z-0.053 F133.3
Y183.964 F400
Z0.197
Y179.464
Z-0.053 F133.3
Y168.764 F400
Z0.197
Y164.264
Z-0.053 F133.3
Y153.564 F400
Z0.197
Y149.064
Z-0.053 F133.3
Y138.364 F400
Z0.197
Y133.864
Z-0.053 F133.3
Y123.164 F400
Z0.197
Y118.664
Z-0.053 F133.3
Y107.964 F400
Z0.197
Y103.464
Z-0.053 F133.3
Y92.764 F400
Z0.197
Y88.264
Z-0.053 F133.3
Y77.564 F400
Z0.197
Y73.064
Z-0.053 F133.3
Y62.364 F400
Z0.197
Y57.864
Z-0.053 F133.3
Y47.164 F400
Z0.197
Y42.664
Z-0.053 F133.3
Y31.964 F400
Z0.197
Y27.464
Z-0.053 F133.3
Y16.764 F400
Z0.197
Y12.264
Z-0.053 F133.3
Y6.914 F400
G2 X82.54 Y5.414 I-1.5 J0.
X81.479 Y5.854 I0. J1.5
G1 X76.07 Y11.263
Z0.197
X72.888 Y14.445
Z-0.053 F133.3
X62.07 Y25.263 F400
Z0.197
X58.888 Y28.445
Z-0.053 F133.3
X48.07 Y39.263 F400
Z0.197
X44.888 Y42.445
Z-0.053 F133.3
X39.479 Y47.854 F400
G2 X39.04 Y48.914 I1.061 J1.061
G1 Y56.651
Z0.197
Y61.151
Z-0.053 F133.3
Y76.623 F400
Z0.197
Y81.123
Z-0.053 F133.3
Y96.596 F400
Z0.197
Y101.096
Z-0.053 F133.3
Y107.332 F400
X31.799
G2 X25.736 Y104.372 I-10.345 J13.5
G1 Z0.197
G2 X21.269 Y103.825 I-4.281 J16.46
G1 Z-0.053 F133.3
G2 X8.412 Y109.916 I0.185 J17.007 F400
G1 Z0.197
G2 X6.006 Y113.718 I13.042 J10.916
G1 Z-0.053 F133.3
G2 X6.005 Y127.945 I15.449 J7.114 F400
G1 Z0.197
G2 X8.411 Y131.748 I15.449 J-7.113
G1 Z-0.053 F133.3
G2 X21.269 Y137.839 I13.043 J-10.916 F400
G1 Z0.197
G2 X25.736 Y137.292 I0.185 J-17.007
G1 Z-0.053 F133.3
G2 X31.799 Y134.332 I-4.281 J-16.46 F400
G1 X39.04
Y138.592
Z0.197
Y143.092
Z-0.053 F133.3
Y154.613 F400
Z0.197
Y159.113
Z-0.053 F133.3
Y170.633 F400
Z0.197
Y175.133
Z-0.053 F133.3
Y186.654 F400
Z0.197
Y191.154
Z-0.053 F133.3
Y202.675 F400
Z0.197
Y207.175
Z-0.053 F133.3
Y218.695 F400
Z0.197
Y223.195
Z-0.053 F133.3
Y234.716 F400
Z0.197
Y239.216
Z-0.053 F133.3
Y250.737 F400
Z0.197
Y255.237
Z-0.053 F133.3
Y259.497 F400
X31.799
G2 X25.736 Y256.537 I-10.345 J13.5
G1 Z0.197
G2 X21.269 Y255.99 I-4.281 J16.46
G1 Z-0.053 F133.3
G2 X8.412 Y262.081 I0.185 J17.007 F400
G1 Z0.197
G2 X6.006 Y265.883 I13.042 J10.916
G1 Z-0.053 F133.3
G2 X6.005 Y280.11 I15.449 J7.114 F400
G1 Z0.197
G2 X8.411 Y283.913 I15.449 J-7.113
G1 Z-0.053 F133.3
G2 X21.269 Y290.004 I13.043 J-10.916 F400
G1 Z0.197
G2 X25.736 Y289.457 I0.185 J-17.007
G1 Z-0.053 F133.3
G2 X31.799 Y286.497 I-4.281 J-16.46 F400
G1 X39.04
Y292.733
Z0.197
Y297.233
Z-0.053 F133.3
Y312.706 F400
Z0.197
Y317.206
Z-0.053 F133.3
Y332.678 F400
Z0.197
Y337.178
Z-0.053 F133.3
Y344.914 F400
G2 X39.479 Y345.975 I1.5 J0.
G1 X44.888 Y351.384
Z0.197
X48.07 Y354.566
Z-0.053 F133.3
X58.888 Y365.384 F400
Z0.197
X62.07 Y368.566
Z-0.053 F133.3
X72.888 Y379.384 F400
Z0.197
X76.07 Y382.566
Z-0.053 F133.3
X81.479 Y387.976 F400
G2 X82.556 Y388.415 I1.061 J-1.061
G3 X82.859 Y388.712 I0.003 J0.3
G1 X82.862 Y389.012
X82.863 Y389.078 Z-0.046
Y389.142 Z-0.024
X82.864 Y389.199 Z0.012
X82.865 Y389.246 Z0.06
Y389.282 Z0.116
Y389.304 Z0.18
Y389.312 Z0.247
G0 Z30.
M5
M30
