(Bogstavsramme v2)
(Machine)
(  vendor: Autodesk)
(  model: Generic 3-axis)
(  description: This machine has XYZ axis on the Head)
(T1  D=3. CR=0. - ZMIN=-0.053 - flat end mill)
G90

(2D Contour6)
T1 M6 (flat end mill D=3.)
S15000 M3
G64
G54
G43 H1
G0 Z30.
G0 X103.574 Y182.214
Z30.
Z20.
G1 Z16. F200
Z12.247
Y182.207 Z12.18 F600
Y182.184 Z12.116
X103.576 Y182.149 Z12.06
X103.577 Y182.101 Z12.012
X103.579 Y182.044 Z11.976
X103.581 Y181.981 Z11.954
X103.582 Y181.914 Z11.947
X103.591 Y181.614
G3 X103.9 Y181.323 I0.3 J0.009
G1 X104.232 Y181.333
X104.273 Y181.334
X104.661 Y181.335
X104.726 Y181.334
X105.122 Y181.318
X105.185 Y181.314
X105.378 Y181.298
X105.466 Y181.288
X105.648 Y181.262
X105.762 Y181.241
X105.928 Y181.204
X106.019 Y181.181
X106.109 Y181.152
X106.251 Y181.101
G2 X106.506 Y180.981 I-0.507 J-1.412
G1 X106.618 Y180.915
G2 X106.878 Y180.721 I-0.762 J-1.292
G1 X106.921 Y180.681
G2 X107.096 Y180.487 I-1.022 J-1.098
G1 X107.13 Y180.442
G2 X107.263 Y180.231 I-1.197 J-0.904
G1 X107.288 Y180.183
G2 X107.403 Y179.891 I-1.33 J-0.693
G1 X107.418 Y179.837
G2 X107.465 Y179.59 I-1.445 J-0.401
G1 X107.471 Y179.532
X107.478 Y179.42
X107.477 Y179.307
X107.474 Y179.244
X107.466 Y179.138
X107.449 Y179.033
X107.436 Y178.965
X107.417 Y178.877
X107.392 Y178.791
X107.369 Y178.719
X107.322 Y178.593
X107.29 Y178.517
X107.246 Y178.422
X107.205 Y178.341
X107.172 Y178.279
X106.966 Y177.915
X106.791 Y177.58
X106.634 Y177.254
X106.495 Y176.935
X106.374 Y176.626
X106.27 Y176.325
X106.183 Y176.035
X106.113 Y175.754
X106.06 Y175.484
X106.022 Y175.221
X105.998 Y174.966
X105.989 Y174.723
X105.994 Y174.488
X106.012 Y174.257
X106.043 Y174.033
X106.086 Y173.818
X106.141 Y173.61
X106.21 Y173.404
X106.292 Y173.201
X106.387 Y173.001
X106.495 Y172.806
X106.618 Y172.612
X106.753 Y172.421
X106.903 Y172.235
X107.069 Y172.05
X107.25 Y171.868
X107.444 Y171.692
X107.654 Y171.521
X107.878 Y171.354
X108.117 Y171.193
X108.372 Y171.037
X108.639 Y170.889
X108.917 Y170.749
X109.209 Y170.618
X109.516 Y170.494
X109.832 Y170.379
X110.159 Y170.275
X110.497 Y170.18
X110.843 Y170.095
X111.198 Y170.022
X111.56 Y169.959
X111.929 Y169.908
X112.304 Y169.868
X112.684 Y169.839
X113.067 Y169.822
X113.45 Y169.816
X113.836 Y169.822
X114.223 Y169.839
X114.605 Y169.866
X114.986 Y169.906
X115.364 Y169.955
X115.736 Y170.015
X116.102 Y170.085
X116.457 Y170.164
X116.805 Y170.252
X117.141 Y170.348
X117.465 Y170.453
X117.778 Y170.565
X118.076 Y170.683
X118.357 Y170.807
X118.622 Y170.936
X118.873 Y171.07
X119.106 Y171.208
X119.322 Y171.349
X119.519 Y171.49
X119.699 Y171.634
X119.864 Y171.781
X120.013 Y171.927
X120.146 Y172.075
X120.266 Y172.224
X120.374 Y172.375
X120.474 Y172.533
X120.563 Y172.694
X120.643 Y172.859
X120.716 Y173.035
X120.782 Y173.217
X120.841 Y173.406
X120.893 Y173.607
X120.939 Y173.815
X120.975 Y174.018
X121.034 Y174.482
X121.066 Y174.947
X121.071 Y175.416
X121.051 Y175.88
X121.033 Y176.079
X121.008 Y176.28
X120.978 Y176.469
X120.942 Y176.642
X120.904 Y176.798
X120.864 Y176.932
X120.819 Y177.053
X120.776 Y177.154
X120.732 Y177.24
X120.687 Y177.316
X120.64 Y177.385
X120.597 Y177.441
X120.445 Y177.61
X120.259 Y177.797
X120.235 Y177.821
X120.039 Y178.027
X119.971 Y178.104
X119.884 Y178.209
X119.823 Y178.288
X119.745 Y178.396
X119.671 Y178.509
X119.604 Y178.622
X119.565 Y178.691
X119.53 Y178.763
X119.476 Y178.881
X119.42 Y179.02
X119.378 Y179.143
X119.353 Y179.225
X119.333 Y179.307
X119.305 Y179.435
X119.281 Y179.576
X119.265 Y179.708
X119.257 Y179.786
X119.254 Y179.866
X119.252 Y180.
X119.257 Y180.144
X119.268 Y180.279
X119.285 Y180.413
X119.308 Y180.546
X119.34 Y180.69
X119.376 Y180.82
X119.414 Y180.938
X119.46 Y181.063
X119.52 Y181.202
X119.577 Y181.319
X119.613 Y181.388
X119.652 Y181.456
X119.72 Y181.565
X119.809 Y181.692
X119.886 Y181.791
X119.94 Y181.856
X119.997 Y181.919
X120.084 Y182.008
X120.153 Y182.074
X120.226 Y182.135
X120.322 Y182.211
X120.368 Y182.246
Y183.407
X99.42
Y181.323
X103.885
X103.9
G3 X104.11 Y181.418 I-0.009 J0.3
X104.191 Y181.632 I-0.218 J0.206
G1 X104.182 Y181.932
X104.18 Y181.999 Z11.954
X104.178 Y182.062 Z11.976
X104.177 Y182.119 Z12.012
X104.175 Y182.167 Z12.06
X104.174 Y182.202 Z12.116
Y182.224 Z12.18
X104.173 Y182.232 Z12.247
G0 Z20.
X108.202 Y181.081
G1 Z16. F200
Z12.247
X108.206 Y181.074 Z12.18 F600
X108.219 Y181.057 Z12.116
X108.24 Y181.028 Z12.06
X108.268 Y180.989 Z12.012
X108.302 Y180.943 Z11.976
X108.339 Y180.892 Z11.954
X108.378 Y180.838 Z11.947
X108.555 Y180.596
G3 X108.751 Y180.476 I0.242 J0.177
X108.974 Y180.53 I0.046 J0.296
G1 X108.995 Y180.545
X109.167 Y180.666
X109.243 Y180.716
X109.42 Y180.825
X109.501 Y180.872
X109.683 Y180.969
X109.757 Y181.005
X109.942 Y181.091
X110.016 Y181.123
X110.203 Y181.198
X110.275 Y181.225
X110.465 Y181.29
X110.543 Y181.314
X110.734 Y181.368
X110.832 Y181.393
X111.216 Y181.474
X111.326 Y181.493
X111.712 Y181.545
X111.8 Y181.554
X112.187 Y181.583
X112.253 Y181.586
X113.032 Y181.61
X113.059 Y181.611
X113.846 Y181.621
X113.882
X114.672 Y181.612
X114.754 Y181.609
X115.146 Y181.583
X115.247 Y181.573
X115.633 Y181.521
X115.769 Y181.496
X116.147 Y181.409
X116.265 Y181.377
X116.451 Y181.318
X116.533 Y181.289
X116.716 Y181.219
X116.799 Y181.184
X116.98 Y181.102
X117.058 Y181.064
X117.237 Y180.97
X117.317 Y180.925
X117.492 Y180.819
X117.555 Y180.779
X117.728 Y180.662
X117.797 Y180.612
X117.965 Y180.484
X118.025 Y180.436
X118.188 Y180.298
X118.244 Y180.248
X118.402 Y180.1
X118.455 Y180.048
X118.606 Y179.892
X118.649 Y179.846
X118.793 Y179.684
X118.844 Y179.623
X118.979 Y179.454
X119.02 Y179.4
X119.145 Y179.228
X119.193 Y179.158
X119.307 Y178.981
X119.351 Y178.909
X119.452 Y178.731
X119.49 Y178.659
X119.579 Y178.48
X119.619 Y178.392
X119.694 Y178.213
X119.731 Y178.117
X119.792 Y177.938
X119.826 Y177.824
X119.871 Y177.647
X119.897 Y177.521
X119.926 Y177.345
X119.942 Y177.213
X119.955 Y177.039
X119.959 Y176.892
X119.955 Y176.721
X119.945 Y176.581
X119.925 Y176.411
X119.899 Y176.262
X119.862 Y176.095
X119.824 Y175.952
X119.77 Y175.787
X119.721 Y175.659
X119.651 Y175.497
X119.595 Y175.382
X119.509 Y175.222
X119.448 Y175.118
X119.346 Y174.96
X119.286 Y174.874
X119.169 Y174.718
X119.108 Y174.642
X118.977 Y174.489
X118.92 Y174.426
X118.776 Y174.276
X118.719 Y174.22
X118.562 Y174.073
X118.509 Y174.026
X118.341 Y173.883
X118.288 Y173.84
X118.11 Y173.702
X118.039 Y173.65
X117.657 Y173.388
X117.562 Y173.328
X117.154 Y173.091
X117.063 Y173.042
X116.638 Y172.833
X116.539 Y172.789
X116.107 Y172.614
X116.002 Y172.575
X115.568 Y172.436
X115.458 Y172.406
X115.03 Y172.304
X114.914 Y172.281
X114.492 Y172.215
X114.376 Y172.201
X113.962 Y172.169
X113.857 Y172.165
X113.449 Y172.162
X113.357 Y172.164
X112.952 Y172.186
X112.87 Y172.193
X112.467 Y172.237
X112.41 Y172.244
X112.005 Y172.304
X111.946 Y172.314
X111.539 Y172.391
X111.486 Y172.403
X111.078 Y172.496
X111.01 Y172.513
X110.606 Y172.625
X110.52 Y172.651
X110.124 Y172.787
X110.021 Y172.827
X109.638 Y172.991
X109.537 Y173.039
X109.354 Y173.134
X109.285 Y173.172
X109.108 Y173.276
X109.033 Y173.323
X108.863 Y173.437
X108.787 Y173.491
X108.626 Y173.614
X108.549 Y173.677
X108.397 Y173.81
X108.313 Y173.89
X108.172 Y174.034
X108.101 Y174.112
X107.971 Y174.265
X107.903 Y174.352
X107.784 Y174.515
X107.715 Y174.617
X107.61 Y174.789
X107.553 Y174.891
X107.461 Y175.072
X107.413 Y175.177
X107.335 Y175.365
X107.293 Y175.479
X107.23 Y175.674
X107.197 Y175.792
X107.15 Y175.992
X107.128 Y176.104
X107.096 Y176.309
X107.082 Y176.425
X107.066 Y176.633
X107.062 Y176.741
X107.061 Y176.951
X107.065 Y177.071
X107.081 Y177.282
X107.094 Y177.396
X107.126 Y177.605
X107.147 Y177.715
X107.195 Y177.923
X107.223 Y178.027
X107.286 Y178.232
X107.319 Y178.328
X107.396 Y178.529
X107.444 Y178.64
X107.537 Y178.834
X107.579 Y178.914
X107.684 Y179.103
X107.741 Y179.197
X107.859 Y179.377
X107.914 Y179.456
X108.044 Y179.629
X108.109 Y179.709
X108.25 Y179.872
X108.313 Y179.941
X108.463 Y180.094
X108.527 Y180.156
X108.685 Y180.299
X108.763 Y180.365
X108.929 Y180.495
X108.974 Y180.53
G3 X109.04 Y180.949 I-0.177 J0.242
G1 X108.863 Y181.192
X108.824 Y181.246 Z11.954
X108.787 Y181.297 Z11.976
X108.753 Y181.343 Z12.012
X108.725 Y181.381 Z12.06
X108.704 Y181.41 Z12.116
X108.691 Y181.428 Z12.18
X108.686 Y181.434 Z12.247
G0 Z20.
X112.881 Y210.206
G1 Z16. F200
Z12.247
X112.886 Y210.212 Z12.18 F600
X112.901 Y210.229 Z12.116
X112.924 Y210.256 Z12.06
X112.955 Y210.291 Z12.012
X112.993 Y210.334 Z11.976
X113.035 Y210.382 Z11.954
X113.079 Y210.432 Z11.947
X113.276 Y210.658
G3 X113.249 Y211.081 I-0.226 J0.198
G1 X113.222 Y211.104
X113.133 Y211.189
X113.052 Y211.28
X112.974 Y211.375
X112.908 Y211.461
X112.849 Y211.552
X112.782 Y211.663
X112.732 Y211.753
X112.688 Y211.846
X112.633 Y211.974
X112.602 Y212.051
X112.576 Y212.13
X112.532 Y212.275
X112.498 Y212.41
X112.465 Y212.571
X112.444 Y212.697
X112.423 Y212.876
X112.415 Y212.974
X112.405 Y213.169
X112.403 Y213.246
Y220.752
X112.245 Y220.749
X111.963 Y220.742
X111.663 Y220.731
X111.361 Y220.718
X110.728 Y220.679
X110.095 Y220.623
X109.476 Y220.545
X108.875 Y220.44
X108.606 Y220.38
X108.34 Y220.312
X108.087 Y220.235
X107.848 Y220.151
X107.629 Y220.062
X107.422 Y219.964
X107.23 Y219.861
X107.054 Y219.75
X106.885 Y219.629
X106.722 Y219.494
X106.562 Y219.345
X106.407 Y219.184
X106.255 Y219.004
X106.105 Y218.807
X105.958 Y218.593
X105.818 Y218.365
X105.684 Y218.122
X105.557 Y217.866
X105.44 Y217.602
X105.332 Y217.327
X105.235 Y217.044
X105.15 Y216.757
X105.077 Y216.463
X105.016 Y216.168
X104.968 Y215.869
X104.932 Y215.569
X104.91 Y215.271
X104.901 Y214.972
X104.905 Y214.669
X104.92 Y214.366
X104.947 Y214.063
X104.985 Y213.757
X105.034 Y213.453
X105.094 Y213.149
X105.164 Y212.842
X105.242 Y212.539
X105.331 Y212.235
X105.428 Y211.934
X105.532 Y211.643
X105.644 Y211.358
X105.764 Y211.081
X105.889 Y210.822
X106.024 Y210.574
X106.165 Y210.342
X106.318 Y210.124
X106.481 Y209.918
X106.659 Y209.724
X106.851 Y209.54
X107.065 Y209.364
X107.304 Y209.193
X107.564 Y209.032
X107.85 Y208.88
X108.16 Y208.737
X108.491 Y208.607
X108.843 Y208.489
X109.214 Y208.385
X109.6 Y208.293
X109.998 Y208.218
X110.405 Y208.155
X110.818 Y208.108
X111.236 Y208.075
X111.651 Y208.056
X112.064 Y208.05
X112.473 Y208.056
X112.87 Y208.074
X113.255 Y208.104
X113.624 Y208.143
X113.975 Y208.191
X114.304 Y208.248
X114.616 Y208.314
X114.912 Y208.388
X115.188 Y208.468
X115.453 Y208.557
X115.712 Y208.656
X115.964 Y208.763
X116.215 Y208.881
X116.465 Y209.009
X116.705 Y209.143
X117.219 Y209.459
X117.45 Y209.616
X117.683 Y209.785
X117.905 Y209.96
X118.118 Y210.142
X118.324 Y210.335
X118.523 Y210.54
X118.715 Y210.759
X118.899 Y210.995
X119.077 Y211.252
X119.248 Y211.53
X119.41 Y211.829
X119.56 Y212.148
X119.694 Y212.482
X119.813 Y212.834
X119.914 Y213.202
X119.996 Y213.587
X120.06 Y213.99
X120.101 Y214.41
X120.122 Y214.85
X120.119 Y215.315
X120.094 Y215.804
X120.045 Y216.318
X119.971 Y216.858
X119.873 Y217.427
X119.75 Y218.023
X119.602 Y218.649
X119.431 Y219.304
X119.234 Y219.989
X119.046 Y220.597
X118.954 Y220.612
X118.97 Y220.562
X118.986 Y220.507
X119.147 Y219.927
X119.162 Y219.869
X119.296 Y219.298
X119.309 Y219.236
X119.416 Y218.675
X119.428 Y218.606
X119.507 Y218.053
X119.515 Y217.982
X119.566 Y217.441
X119.572 Y217.365
X119.595 Y216.838
X119.596 Y216.758
X119.591 Y216.253
X119.587 Y216.165
X119.554 Y215.686
X119.544 Y215.588
X119.483 Y215.137
X119.464 Y215.027
X119.374 Y214.603
X119.344 Y214.485
X119.225 Y214.086
X119.185 Y213.968
X119.038 Y213.593
X118.982 Y213.468
X118.807 Y213.119
X118.741 Y213.001
X118.542 Y212.68
X118.499 Y212.614
X118.453 Y212.552
X118.23 Y212.264
X118.13 Y212.147
X117.884 Y211.889
X117.775 Y211.786
X117.507 Y211.556
X117.392 Y211.467
X117.103 Y211.264
X116.994 Y211.194
X116.691 Y211.018
X116.565 Y210.952
X116.254 Y210.809
X116.148 Y210.765
X115.994 Y210.708
X115.913 Y210.681
X115.76 Y210.634
X115.672 Y210.61
X115.523 Y210.574
X115.416 Y210.552
X115.271 Y210.528
X115.144 Y210.513
X115.005 Y210.502
X114.865 Y210.497
X114.731 Y210.499
X114.647 Y210.503
X114.564 Y210.511
X114.438 Y210.527
X114.341 Y210.542
X114.246 Y210.564
X114.128 Y210.595
X114.028 Y210.625
X113.93 Y210.662
X113.82 Y210.708
X113.709 Y210.76
X113.603 Y210.821
X113.504 Y210.883
X113.405 Y210.95
X113.311 Y211.026
X113.249 Y211.081
G3 X112.825 Y211.053 I-0.198 J-0.226
G1 X112.628 Y210.827
X112.584 Y210.777 Z11.954
X112.542 Y210.73 Z11.976
X112.504 Y210.687 Z12.012
X112.473 Y210.651 Z12.06
X112.449 Y210.624 Z12.116
X112.435 Y210.607 Z12.18
X112.43 Y210.602 Z12.247
G0 Z20.
X111.761 Y210.591
G1 Z16. F200
Z12.247
X111.756 Y210.597 Z12.18 F600
X111.741 Y210.613 Z12.116
X111.717 Y210.639 Z12.06
X111.684 Y210.674 Z12.012
X111.645 Y210.715 Z11.976
X111.602 Y210.761 Z11.954
X111.557 Y210.81 Z11.947
X111.352 Y211.029
G3 X111.143 Y211.124 I-0.219 J-0.205
X110.928 Y211.043 I-0.01 J-0.3
G2 X109.647 Y210.661 I-1.025 J1.096
G1 X109.307 Y210.72
X109.206 Y210.741
X108.884 Y210.82
X108.785 Y210.848
X108.481 Y210.945
X108.369 Y210.986
X108.083 Y211.103
X107.974 Y211.152
X107.705 Y211.288
X107.586 Y211.356
X107.337 Y211.512
X107.225 Y211.589
X106.995 Y211.764
X106.883 Y211.858
X106.675 Y212.051
X106.569 Y212.159
X106.384 Y212.369
X106.332 Y212.433
X106.282 Y212.499
X106.122 Y212.727
X106.077 Y212.796
X106.035 Y212.867
X105.902 Y213.109
X105.864 Y213.184
X105.829 Y213.262
X105.724 Y213.518
X105.694 Y213.597
X105.669 Y213.678
X105.593 Y213.946
X105.572 Y214.03
X105.555 Y214.115
X105.51 Y214.393
X105.5 Y214.473
X105.493 Y214.554
X105.478 Y214.837
X105.476 Y214.918
X105.478 Y215.
X105.494 Y215.285
X105.501 Y215.364
X105.511 Y215.442
X105.557 Y215.725
X105.59 Y215.875
X105.665 Y216.153
X105.712 Y216.298
X105.815 Y216.567
X105.874 Y216.702
X106.002 Y216.958
X106.074 Y217.086
X106.225 Y217.326
X106.304 Y217.439
X106.474 Y217.661
X106.57 Y217.774
X106.758 Y217.975
X106.855 Y218.07
X107.057 Y218.25
X107.161 Y218.335
X107.374 Y218.493
X107.486 Y218.568
X107.707 Y218.703
X107.832 Y218.772
X108.06 Y218.883
X108.185 Y218.936
X108.417 Y219.024
X108.555 Y219.069
X108.79 Y219.133
X108.935 Y219.165
X109.173 Y219.205
X109.316 Y219.222
X109.555 Y219.239
X109.704 Y219.242
X109.946 Y219.235
G2 X111.403 Y217.736 I-0.043 J-1.499
G1 Y212.139
G2 X110.928 Y211.043 I-1.5 J0.
G3 X110.913 Y210.619 I0.205 J-0.219
G1 X111.118 Y210.4
X111.164 Y210.352 Z11.954
X111.207 Y210.305 Z11.976
X111.246 Y210.264 Z12.012
X111.278 Y210.229 Z12.06
X111.303 Y210.203 Z12.116
X111.318 Y210.187 Z12.18
X111.323 Y210.181 Z12.247
G0 Z20.
X108.76 Y250.213
G1 Z16. F200
Z12.247
Y250.205 Z12.18 F600
Y250.183 Z12.116
Y250.148 Z12.06
Y250.1 Z12.012
Y250.043 Z11.976
Y249.98 Z11.954
Y249.913 Z11.947
Y249.613
G3 X109.06 Y249.313 I0.3 J0.
G1 X121.668
Y251.708
X108.715
G2 X107.215 Y253.208 I0. J1.5
G1 Y255.361
X107.208 Y255.366
X107.119 Y255.412
X107.013 Y255.452
X106.886 Y255.483
X106.885
X106.874 Y255.463
Y253.208
G2 X105.374 Y251.708 I-1.5 J0.
G1 X102.845
G2 X101.569 Y252.42 I0. J1.5
G1 X101.432 Y252.642
X101.412 Y252.675
X101.285 Y252.893
X101.253 Y252.951
X101.138 Y253.17
X101.08 Y253.294
X100.985 Y253.524
X100.957 Y253.597
X100.933 Y253.671
X100.896 Y253.796
X100.86 Y253.942
X100.834 Y254.079
X100.816 Y254.209
X100.801 Y254.358
X100.793 Y254.481
X100.79 Y254.647
X100.791 Y254.74
X100.799 Y254.921
X100.804 Y254.991
X100.822 Y255.189
X100.826 Y255.222
X100.85 Y255.434
Y255.439
X100.873 Y255.635
X100.883 Y255.764
X100.763 Y255.758
X100.617 Y255.744
X100.449 Y255.723
X100.266 Y255.694
X100.067 Y255.658
X100.056 Y255.655
X99.993 Y255.489
X99.932 Y255.301
X99.878 Y255.116
X99.833 Y254.93
X99.796 Y254.745
X99.767 Y254.56
X99.746 Y254.373
X99.733 Y254.187
X99.727 Y254.001
X99.729 Y253.812
X99.738 Y253.638
X99.782 Y253.242
X99.855 Y252.859
X99.956 Y252.477
X100.085 Y252.099
X100.236 Y251.733
X100.405 Y251.387
X100.586 Y251.071
X100.779 Y250.779
X100.865 Y250.664
X100.955 Y250.551
X101.044 Y250.448
X101.13 Y250.357
X101.205 Y250.284
X101.283 Y250.216
X101.357 Y250.158
X101.404 Y250.124
X101.548 Y250.04
X101.672 Y249.985
X101.82 Y249.939
X101.998 Y249.9
X102.219 Y249.869
X102.487 Y249.846
X102.793 Y249.832
X103.139 Y249.826
X103.518
X103.926 Y249.831
X104.361 Y249.841
X104.825 Y249.856
X105.317 Y249.875
G2 X106.414 Y249.457 I0.057 J-1.499
X106.874 Y248.376 I-1.04 J-1.081
G1 Y247.739
X106.89 Y247.636
X106.924 Y247.479
X106.96 Y247.349
X106.996 Y247.246
X107.03 Y247.169
X107.056 Y247.121
X107.076 Y247.092
X107.081 Y247.086
X107.088 Y247.083
X107.112 Y247.078
X107.145 Y247.073
X107.184 Y247.07
X107.215
Y247.813
G2 X108.715 Y249.313 I1.5 J0.
G1 X109.06
G3 X109.36 Y249.613 I0. J0.3
G1 Y249.913
Y249.98 Z11.954
Y250.043 Z11.976
Y250.1 Z12.012
Y250.148 Z12.06
Y250.183 Z12.116
Y250.205 Z12.18
Y250.213 Z12.247
G0 Z20.
X106.833 Y283.193
G1 Z16. F200
Z12.247
X106.835 Y283.185 Z12.18 F600
X106.841 Y283.164 Z12.116
X106.851 Y283.13 Z12.06
X106.863 Y283.084 Z12.012
X106.879 Y283.029 Z11.976
X106.896 Y282.968 Z11.954
X106.913 Y282.904 Z11.947
X106.993 Y282.615
G3 X107.135 Y282.434 I0.289 J0.08
X107.363 Y282.405 I0.148 J0.261
G1 X107.558 Y282.46
X107.768 Y282.534
X107.957 Y282.617
X108.129 Y282.709
X108.285 Y282.81
X108.427 Y282.92
X108.557 Y283.04
X108.676 Y283.172
X108.789 Y283.32
X108.895 Y283.486
X108.993 Y283.672
X109.106 Y283.929
G2 X110.033 Y284.759 I1.374 J-0.602
X111.268 Y284.604 I0.447 J-1.432
G1 X111.625 Y284.383
X111.958 Y284.182
X112.263 Y284.001
X112.54 Y283.847
X112.78 Y283.724
X112.983 Y283.637
X113.165 Y283.577
X113.364 Y283.536
X113.432 Y283.527
X113.513 Y283.522
X113.592
X113.667 Y283.527
X113.729 Y283.535
X113.781 Y283.546
X113.837 Y283.561
X113.888 Y283.579
X114.102 Y283.671
X114.367 Y283.794
X114.465 Y283.835
X114.774 Y283.953
X114.912 Y283.999
X115.076 Y284.044
X115.202 Y284.072
X115.371 Y284.103
X115.459 Y284.117
X115.546 Y284.125
X115.718 Y284.136
X115.815 Y284.139
X115.911 Y284.136
X116.081 Y284.125
X116.187 Y284.114
X116.292 Y284.096
X116.459 Y284.061
G2 X116.701 Y283.989 I-0.308 J-1.468
G1 X116.861 Y283.926
X116.965 Y283.88
X117.065 Y283.827
X117.218 Y283.738
X117.309 Y283.68
X117.396 Y283.616
X117.541 Y283.501
X117.611 Y283.442
X117.677 Y283.379
X117.814 Y283.24
X117.904 Y283.141
X118.035 Y282.982
X118.084 Y282.918
X118.213 Y282.743
X118.236 Y282.711
X118.361 Y282.532
X118.606 Y282.188
X118.705 Y282.062
X118.801 Y281.954
X118.895 Y281.862
X118.993 Y281.779
X119.094 Y281.705
X119.202 Y281.639
X119.324 Y281.576
X119.456 Y281.519
X119.597 Y281.469
X119.751 Y281.424
X119.908 Y281.387
X120.069 Y281.358
X120.231 Y281.337
X120.389 Y281.326
X120.545 Y281.322
X120.695 Y281.327
X120.842 Y281.34
X120.98 Y281.36
X121.119 Y281.389
X121.257 Y281.427
X121.395 Y281.474
X121.531 Y281.529
X121.626 Y281.574
X121.666 Y281.593
X121.803 Y281.668
X121.943 Y281.755
X122.079 Y281.849
X122.213 Y281.952
X122.344 Y282.064
X122.47 Y282.183
X122.59 Y282.308
X122.705 Y282.441
X122.812 Y282.577
X122.913 Y282.721
X123.007 Y282.87
X123.093 Y283.024
X123.176 Y283.192
X123.251 Y283.365
X123.318 Y283.546
X123.38 Y283.744
X123.438 Y283.957
X123.489 Y284.182
X123.535 Y284.425
X123.575 Y284.681
X123.608 Y284.943
X123.662 Y285.536
X123.7 Y286.164
X123.727 Y286.824
X123.746 Y287.5
X123.768 Y288.873
X123.762 Y289.529
X123.734 Y290.176
X123.711 Y290.476
X123.679 Y290.776
X123.636 Y291.073
X123.584 Y291.362
X123.519 Y291.649
X123.442 Y291.932
X123.352 Y292.212
X123.247 Y292.492
X123.129 Y292.768
X122.995 Y293.042
X122.846 Y293.314
X122.681 Y293.582
X122.501 Y293.848
X122.309 Y294.104
X122.103 Y294.353
X121.888 Y294.59
X121.666 Y294.813
X121.434 Y295.023
X121.198 Y295.217
X120.956 Y295.396
X120.718 Y295.554
X120.481 Y295.691
X120.242 Y295.811
X120.009 Y295.912
X119.78 Y295.993
X119.554 Y296.057
X119.334 Y296.103
X119.114 Y296.133
X118.895 Y296.148
X118.677
X118.462 Y296.133
X118.243 Y296.103
X118.023 Y296.058
X117.807 Y296.
X117.59 Y295.926
X117.381 Y295.84
X117.176 Y295.74
X116.978 Y295.628
X116.794 Y295.507
X116.621 Y295.373
X116.458 Y295.229
X116.311 Y295.076
X116.177 Y294.913
X116.054 Y294.736
X115.943 Y294.545
X115.844 Y294.336
X115.755 Y294.106
X115.679 Y293.857
X115.615 Y293.582
X115.564 Y293.282
X115.527 Y292.958
X115.502 Y292.61
X115.488 Y292.241
X115.484 Y291.861
X115.498 Y291.041
X115.517 Y290.215
Y290.196
X115.521 Y289.796
Y289.766
X115.517 Y289.379
X115.516 Y289.337
X115.502 Y288.968
X115.499 Y288.91
X115.472 Y288.56
X115.464 Y288.488
X115.423 Y288.162
X115.41 Y288.075
X115.354 Y287.774
X115.331 Y287.67
X115.26 Y287.397
X115.22 Y287.269
X115.133 Y287.026
X115.076 Y286.89
X114.976 Y286.679
X114.936 Y286.599
X114.891 Y286.522
X114.779 Y286.344
X114.719 Y286.257
X114.653 Y286.173
X114.531 Y286.029
G2 X114.351 Y285.85 I-1.144 J0.97
G1 X114.221 Y285.741
G2 X113.994 Y285.583 I-0.964 J1.149
G1 X113.861 Y285.508
G2 X113.547 Y285.376 I-0.737 J1.307
G1 X113.411 Y285.336
G2 X113.077 Y285.278 I-0.423 J1.439
G1 X112.943 Y285.27
G2 X112.584 Y285.292 I-0.089 J1.497
G1 X112.453 Y285.316
G2 X112.141 Y285.408 I0.27 J1.475
G1 X112.015 Y285.461
G2 X111.748 Y285.607 I0.582 J1.383
G1 X111.63 Y285.688
G2 X111.428 Y285.854 I0.849 J1.237
G1 X111.32 Y285.96
X111.25 Y286.035
X111.184 Y286.113
X111.085 Y286.241
X111.029 Y286.319
X110.978 Y286.4
X110.89 Y286.55
X110.823 Y286.677
X110.745 Y286.845
X110.698 Y286.96
X110.63 Y287.145
X110.599 Y287.24
X110.54 Y287.441
X110.517 Y287.526
X110.467 Y287.743
X110.456 Y287.798
X110.412 Y288.028
X110.404 Y288.072
X110.365 Y288.315
X110.361 Y288.344
X110.325 Y288.6
X110.321 Y288.625
X110.254 Y289.167
Y289.169
X110.185 Y289.732
X110.109 Y290.294
X110.022 Y290.834
X109.918 Y291.348
X109.864 Y291.571
X109.805 Y291.787
X109.742 Y291.987
X109.677 Y292.167
X109.611 Y292.327
X109.541 Y292.472
X109.466 Y292.604
X109.385 Y292.729
X109.294 Y292.851
X109.195 Y292.969
X109.083 Y293.085
X108.95 Y293.207
X108.799 Y293.331
X108.632 Y293.454
X108.448 Y293.574
X108.247 Y293.692
X108.035 Y293.802
X107.811 Y293.904
X107.58 Y293.994
X107.34 Y294.074
X107.096 Y294.139
X106.852 Y294.19
X106.604 Y294.227
X106.354 Y294.249
X106.103 Y294.258
X105.851 Y294.253
X105.592 Y294.236
X105.325 Y294.21
X105.055 Y294.177
X104.784 Y294.143
X104.752 Y294.139
X104.495 Y294.112
X104.426 Y294.107
X104.189 Y294.093
X104.073 Y294.09
X103.858 Y294.094
X103.768 Y294.099
X103.678 Y294.108
X103.485 Y294.135
G2 X103.241 Y294.191 I0.208 J1.486
G1 X103.07 Y294.245
G2 X102.792 Y294.365 I0.452 J1.43
G1 X102.643 Y294.448
G2 X102.389 Y294.626 I0.73 J1.31
G1 X102.259 Y294.739
G2 X102.084 Y294.919 I0.984 J1.132
G1 X101.969 Y295.059
X101.906 Y295.141
X101.849 Y295.228
X101.748 Y295.393
X101.691 Y295.494
X101.597 Y295.678
X101.569 Y295.736
X101.392 Y296.124
X101.32 Y296.272
X101.264 Y296.371
X101.224 Y296.43
X101.211 Y296.444
X101.204 Y296.446
X101.185 Y296.45
X101.144 Y296.455
X101.081 Y296.458
X101.012
X100.926 Y296.453
X100.823 Y296.442
X100.718 Y296.426
X100.723 Y296.149
X100.724 Y296.143
X100.735 Y295.454
Y295.448
X100.743 Y294.776
Y294.77
X100.749 Y294.114
Y294.108
X100.751 Y293.469
X100.752 Y293.462
Y292.839
Y292.833
X100.749 Y292.227
Y292.222
X100.745 Y291.634
Y291.628
X100.739 Y291.056
Y291.052
X100.731 Y290.497
Y290.494
X100.722 Y289.957
Y289.955
X100.713 Y289.434
X100.704 Y288.932
X100.697 Y288.45
X100.691 Y287.989
X100.69 Y287.549
X100.692 Y287.132
X100.7 Y286.739
X100.715 Y286.37
X100.738 Y286.027
X100.769 Y285.711
X100.81 Y285.421
X100.86 Y285.158
X100.919 Y284.922
X100.988 Y284.709
X101.066 Y284.515
X101.153 Y284.339
X101.253 Y284.174
X101.368 Y284.015
X101.497 Y283.864
X101.647 Y283.714
X101.82 Y283.565
X102.015 Y283.419
X102.234 Y283.277
X102.475 Y283.138
X102.736 Y283.006
X103.016 Y282.882
X103.31 Y282.767
X103.62 Y282.662
X103.943 Y282.566
X104.269 Y282.483
X104.603 Y282.413
X104.936 Y282.355
X105.269 Y282.312
X105.597 Y282.282
X105.917 Y282.267
X106.23 Y282.265
X106.528 Y282.278
X106.813 Y282.305
X107.081 Y282.344
X107.33 Y282.396
X107.363 Y282.405
G3 X107.544 Y282.547 I-0.08 J0.289
X107.572 Y282.775 I-0.261 J0.148
G1 X107.492 Y283.064
X107.474 Y283.128 Z11.954
X107.457 Y283.189 Z11.976
X107.442 Y283.244 Z12.012
X107.429 Y283.29 Z12.06
X107.419 Y283.324 Z12.116
X107.414 Y283.346 Z12.18
X107.412 Y283.353 Z12.247
G0 Z20.
X107.328 Y283.672
G1 Z16. F200
Z12.247
X107.327 Y283.679 Z12.18 F600
X107.321 Y283.701 Z12.116
X107.313 Y283.735 Z12.06
X107.302 Y283.782 Z12.012
X107.288 Y283.837 Z11.976
X107.273 Y283.898 Z11.954
X107.257 Y283.963 Z11.947
X107.186 Y284.255
G3 X106.824 Y284.475 I-0.291 J-0.071
G1 X106.764 Y284.461
X106.63 Y284.434
X106.375 Y284.396
X106.251 Y284.383
X105.99 Y284.366
X105.871 Y284.363
X105.603 Y284.367
X105.492 Y284.373
X105.222 Y284.397
X105.121 Y284.409
X104.849 Y284.452
X104.75 Y284.471
X104.482 Y284.532
X104.394 Y284.555
X104.131 Y284.632
X104.034 Y284.664
X103.781 Y284.757
X103.686 Y284.796
X103.445 Y284.904
X103.341 Y284.955
X103.115 Y285.078
X103.014 Y285.139
X102.805 Y285.275
X102.694 Y285.354
X102.505 Y285.503
X102.389 Y285.604
X102.221 Y285.767
X102.165 Y285.826
X102.111 Y285.887
X101.966 Y286.062
X101.913 Y286.13
X101.864 Y286.201
X101.743 Y286.387
X101.695 Y286.466
X101.652 Y286.548
X101.556 Y286.745
X101.516 Y286.834
X101.482 Y286.926
X101.413 Y287.132
X101.386 Y287.222
X101.364 Y287.314
X101.321 Y287.529
X101.306 Y287.618
X101.296 Y287.708
X101.279 Y287.929
X101.275 Y288.02
X101.277 Y288.111
X101.287 Y288.334
X101.301 Y288.486
X101.334 Y288.71
X101.364 Y288.858
X101.419 Y289.076
X101.457 Y289.204
X101.53 Y289.413
X101.576 Y289.529
X101.663 Y289.724
X101.725 Y289.848
X101.825 Y290.026
X101.901 Y290.146
X102.012 Y290.306
X102.102 Y290.424
X102.223 Y290.566
X102.321 Y290.67
X102.453 Y290.798
X102.553 Y290.887
X102.7 Y291.006
X102.783 Y291.068
X102.947 Y291.183
X103.018 Y291.23
X103.202 Y291.344
X103.253 Y291.374
X103.458 Y291.49
X103.526 Y291.527
X103.754 Y291.641
X103.821 Y291.672
X104.069 Y291.781
X104.158 Y291.817
X104.426 Y291.915
X104.534 Y291.95
X104.818 Y292.03
X104.957 Y292.062
X105.254 Y292.116
X105.404 Y292.135
X105.709 Y292.159
X105.797 Y292.164
X105.885 Y292.163
X106.194 Y292.151
X106.285 Y292.145
X106.376 Y292.133
X106.685 Y292.083
X106.773 Y292.066
X106.86 Y292.043
X107.162 Y291.956
X107.249 Y291.929
X107.333 Y291.896
X107.625 Y291.772
X107.702 Y291.736
X107.777 Y291.697
X108.053 Y291.541
X108.125 Y291.498
X108.194 Y291.451
X108.45 Y291.266
X108.516 Y291.215
X108.58 Y291.16
X108.811 Y290.95
X108.872 Y290.892
X108.929 Y290.83
X109.131 Y290.6
X109.185 Y290.534
X109.236 Y290.466
X109.407 Y290.22
X109.457 Y290.143
X109.502 Y290.063
X109.638 Y289.805
X109.679 Y289.721
X109.715 Y289.634
X109.815 Y289.368
X109.848 Y289.27
X109.874 Y289.171
X109.935 Y288.901
X109.954 Y288.799
X109.967 Y288.697
X109.99 Y288.426
X109.995 Y288.323
X109.993 Y288.221
X109.979 Y287.952
X109.97 Y287.848
X109.954 Y287.745
X109.903 Y287.481
X109.882 Y287.389
X109.855 Y287.298
X109.771 Y287.042
X109.741 Y286.959
X109.706 Y286.877
X109.592 Y286.632
X109.554 Y286.555
X109.511 Y286.481
X109.37 Y286.251
X109.284 Y286.126
X109.121 Y285.912
X109.025 Y285.798
X108.843 Y285.603
X108.745 Y285.507
X108.549 Y285.332
X108.436 Y285.241
X108.227 Y285.088
X108.102 Y285.006
X107.883 Y284.877
X107.757 Y284.81
X107.528 Y284.703
X107.392 Y284.648
X107.154 Y284.564
X107.01 Y284.521
X106.824 Y284.475
G3 X106.603 Y284.113 I0.071 J-0.291
G1 X106.674 Y283.821
X106.69 Y283.756 Z11.954
X106.705 Y283.695 Z11.976
X106.719 Y283.639 Z12.012
X106.73 Y283.593 Z12.06
X106.738 Y283.559 Z12.116
X106.744 Y283.537 Z12.18
X106.746 Y283.53 Z12.247
G0 Z20.
X115.764 Y285.091
G1 Z16. F200
Z12.247
X115.771 Y285.093 Z12.18 F600
X115.792 Y285.101 Z12.116
X115.826 Y285.114 Z12.06
X115.87 Y285.131 Z12.012
X115.923 Y285.151 Z11.976
X115.982 Y285.174 Z11.954
X116.045 Y285.198 Z11.947
X116.325 Y285.306
G3 X116.497 Y285.693 I-0.107 J0.28
G1 X116.459 Y285.806
X116.395 Y286.023
X116.36 Y286.168
X116.316 Y286.4
X116.302 Y286.493
X116.286 Y286.621
X116.281 Y286.667
X116.268 Y286.806
X116.264 Y286.848
X116.254 Y287.
X116.253 Y287.016
X116.244 Y287.18
X116.243 Y287.203
X116.236 Y287.381
Y287.393
X116.23 Y287.583
X116.229 Y287.601
X116.221 Y288.013
Y288.035
X116.217 Y288.922
Y288.946
X116.222 Y289.378
Y289.398
X116.227 Y289.602
X116.228 Y289.619
X116.235 Y289.813
X116.236 Y289.842
X116.246 Y290.023
X116.248 Y290.046
X116.26 Y290.215
X116.263 Y290.253
X116.278 Y290.409
X116.281 Y290.442
X116.298 Y290.585
X116.307 Y290.644
X116.328 Y290.776
X116.34 Y290.841
X116.365 Y290.963
X116.386 Y291.053
X116.446 Y291.275
X116.49 Y291.411
X116.567 Y291.616
X116.616 Y291.733
X116.712 Y291.935
X116.776 Y292.054
X116.896 Y292.257
X116.977 Y292.381
X117.125 Y292.583
X117.183 Y292.657
X117.246 Y292.727
X117.425 Y292.916
X117.488 Y292.979
X117.554 Y293.037
X117.656 Y293.122
X117.761 Y293.202
X117.872 Y293.279
X117.991 Y293.354
X118.11 Y293.421
X118.187 Y293.462
X118.267 Y293.498
X118.396 Y293.552
X118.529 Y293.6
X118.664 Y293.642
X118.814 Y293.68
X118.958 Y293.709
X119.035 Y293.723
X119.114 Y293.732
X119.263 Y293.746
X119.393 Y293.753
X119.547 Y293.754
X119.681 Y293.749
X119.838 Y293.736
X119.955 Y293.722
X120.115 Y293.696
X120.221 Y293.674
X120.381 Y293.636
X120.476 Y293.61
X120.635 Y293.561
X120.728 Y293.529
X120.885 Y293.469
X120.981 Y293.429
X121.134 Y293.358
X121.216 Y293.317
X121.364 Y293.237
X121.441 Y293.192
X121.583 Y293.104
X121.674 Y293.043
X121.809 Y292.945
X121.889 Y292.883
X122.016 Y292.777
X122.093 Y292.708
X122.213 Y292.593
X122.293 Y292.51
X122.404 Y292.386
X122.476 Y292.299
X122.578 Y292.166
X122.64 Y292.079
X122.735 Y291.935
X122.793 Y291.84
X122.879 Y291.686
X122.92 Y291.606
X122.999 Y291.442
X123.039 Y291.352
X123.11 Y291.176
X123.139 Y291.098
X123.203 Y290.91
X123.223 Y290.847
X123.281 Y290.648
X123.299 Y290.58
X123.35 Y290.369
X123.362 Y290.316
X123.407 Y290.095
X123.415 Y290.051
X123.455 Y289.819
X123.464 Y289.761
X123.529 Y289.271
X123.536 Y289.205
X123.581 Y288.691
X123.585 Y288.635
X123.611 Y288.113
X123.613 Y288.058
X123.62 Y287.545
Y287.501
X123.616 Y287.254
X123.615 Y287.222
X123.606 Y286.982
X123.604 Y286.946
X123.59 Y286.718
X123.587 Y286.672
X123.567 Y286.455
X123.563 Y286.416
X123.539 Y286.214
X123.53 Y286.156
X123.5 Y285.967
X123.489 Y285.903
X123.454 Y285.731
X123.435 Y285.651
X123.394 Y285.494
X123.373 Y285.42
X123.328 Y285.278
X123.294 Y285.181
X123.244 Y285.055
X123.197 Y284.948
X123.142 Y284.835
X123.083 Y284.725
X123.023 Y284.624
X122.978 Y284.553
X122.929 Y284.484
X122.798 Y284.311
X122.735 Y284.234
X122.666 Y284.16
X122.52 Y284.013
X122.422 Y283.922
X122.264 Y283.789
X122.206 Y283.743
X122.035 Y283.613
X122.003 Y283.59
X121.821 Y283.459
X121.77 Y283.423
X121.574 Y283.294
X121.51 Y283.254
X121.301 Y283.131
X121.186 Y283.07
X120.964 Y282.964
X120.871 Y282.924
X120.776 Y282.89
X120.542 Y282.815
X120.448 Y282.788
X120.352 Y282.767
X120.231 Y282.745
X120.152 Y282.733
X120.072 Y282.725
X119.949 Y282.716
X119.865 Y282.712
X119.78 Y282.713
X119.655 Y282.718
X119.567 Y282.724
X119.48 Y282.736
X119.354 Y282.756
X119.258 Y282.774
X119.163 Y282.799
X119.038 Y282.836
X118.955 Y282.863
X118.873 Y282.895
X118.747 Y282.949
X118.675 Y282.982
X118.605 Y283.019
X118.48 Y283.089
X118.353 Y283.169
X118.23 Y283.255
X118.13 Y283.332
X118.01 Y283.432
X117.933 Y283.501
X117.815 Y283.614
X117.721 Y283.712
X117.498 Y283.968
X117.416 Y284.07
X117.215 Y284.346
X117.161 Y284.427
X116.985 Y284.705
X116.944 Y284.773
X116.797 Y285.035
X116.759 Y285.107
X116.641 Y285.347
X116.596 Y285.449
X116.507 Y285.67
X116.497 Y285.693
G3 X116.339 Y285.86 I-0.28 J-0.107
X116.11 Y285.866 I-0.122 J-0.274
G1 X115.83 Y285.758
X115.767 Y285.734 Z11.954
X115.708 Y285.712 Z11.976
X115.655 Y285.691 Z12.012
X115.611 Y285.674 Z12.06
X115.577 Y285.662 Z12.116
X115.557 Y285.654 Z12.18
X115.55 Y285.651 Z12.247
G0 Z20.
X112.173 Y321.357
G1 Z16. F200
Z12.247
Y321.349 Z12.18 F600
Y321.327 Z12.116
Y321.292 Z12.06
Y321.244 Z12.012
Y321.187 Z11.976
Y321.124 Z11.954
Y321.057 Z11.947
Y320.757
G3 X112.473 Y320.457 I0.3 J0.
G1 X121.379
Y322.86
X112.441
X112.195 Y322.847
X112.104 Y322.845
X112.014 Y322.849
X111.722 Y322.868
X111.635 Y322.877
X111.55 Y322.89
X111.254 Y322.945
X111.173 Y322.963
X111.094 Y322.984
X110.793 Y323.075
X110.657 Y323.123
X110.355 Y323.247
X110.231 Y323.305
X109.93 Y323.462
X109.824 Y323.523
X109.529 Y323.709
X109.428 Y323.779
X109.146 Y323.991
X109.052 Y324.067
X108.788 Y324.301
X108.697 Y324.39
X108.458 Y324.641
X108.365 Y324.748
X108.156 Y325.014
X108.068 Y325.139
X107.892 Y325.417
X107.851 Y325.484
X107.815 Y325.554
X107.674 Y325.839
X107.637 Y325.917
X107.606 Y325.998
X107.501 Y326.291
X107.475 Y326.369
X107.454 Y326.448
X107.383 Y326.745
X107.366 Y326.828
X107.353 Y326.911
X107.316 Y327.212
X107.308 Y327.296
X107.305 Y327.38
X107.302 Y327.682
X107.303 Y327.764
X107.309 Y327.845
X107.339 Y328.147
X107.35 Y328.231
X107.366 Y328.315
X107.43 Y328.612
X107.45 Y328.696
X107.476 Y328.779
X107.575 Y329.07
X107.604 Y329.148
X107.637 Y329.225
X107.769 Y329.506
X107.808 Y329.583
X107.852 Y329.658
X108.018 Y329.926
X108.065 Y329.998
X108.117 Y330.067
X108.315 Y330.317
X108.368 Y330.38
X108.423 Y330.44
X108.651 Y330.671
X108.712 Y330.729
X108.776 Y330.783
X109.032 Y330.99
X109.097 Y331.04
X109.165 Y331.086
X109.447 Y331.267
X109.515 Y331.309
X109.586 Y331.347
X109.892 Y331.5
X110.031 Y331.561
X110.358 Y331.685
X110.504 Y331.731
X110.853 Y331.824
X110.986 Y331.853
X111.354 Y331.917
X111.484 Y331.933
X111.872 Y331.965
X111.991 Y331.97
X112.398 Y331.971
X112.402
X121.379
Y333.921
X109.551
X109.345 Y333.881
X109.048 Y333.806
X108.759 Y333.714
X108.477 Y333.604
X108.206 Y333.478
X107.948 Y333.336
X107.705 Y333.178
X107.482 Y333.005
X107.267 Y332.805
X107.186 Y332.718
X107.098 Y332.614
X107.016 Y332.504
X106.936 Y332.386
X106.863 Y332.265
X106.793 Y332.132
X106.727 Y331.991
X106.666 Y331.841
X106.61 Y331.682
X106.56 Y331.514
X106.513 Y331.329
X106.475 Y331.15
X106.412 Y330.73
X106.375 Y330.292
X106.363 Y329.834
X106.375 Y329.365
X106.406 Y328.899
X106.456 Y328.441
X106.521 Y327.997
X106.596 Y327.573
X106.679 Y327.174
X106.767 Y326.804
X106.858 Y326.462
X106.949 Y326.149
X107.038 Y325.869
X107.122 Y325.625
X107.2 Y325.419
X107.268 Y325.257
X107.342 Y325.102
G2 X106.633 Y323.103 I-1.354 J-0.645
X105.988 Y322.957 I-0.645 J1.354
G1 X98.935
Y320.457
X112.473
G3 X112.773 Y320.757 I0. J0.3
G1 Y321.057
Y321.124 Z11.954
Y321.187 Z11.976
Y321.244 Z12.012
Y321.292 Z12.06
Y321.327 Z12.116
Y321.349 Z12.18
Y321.357 Z12.247
G0 Z20.
X62.552 Y319.926
G1 Z16. F200
Z12.247
X62.558 Y319.93 Z12.18 F600
X62.577 Y319.942 Z12.116
X62.607 Y319.961 Z12.06
X62.647 Y319.987 Z12.012
X62.695 Y320.017 Z11.976
X62.749 Y320.051 Z11.954
X62.805 Y320.086 Z11.947
X63.059 Y320.247
G3 X63.152 Y320.66 I-0.16 J0.254
G2 X62.921 Y321.461 I1.268 J0.801
G1 Y329.722
G2 X64.421 Y331.222 I1.5 J0.
G1 X71.703
Y334.209
X50.755
Y331.222
X58.675
G2 X60.175 Y329.722 I0. J-1.5
G1 Y321.544
G2 X58.675 Y320.044 I-1.5 J0.
G1 X50.755
Y317.701
X71.703
Y319.961
X64.421
G2 X63.152 Y320.66 I0. J1.5
G3 X62.739 Y320.754 I-0.254 J-0.16
G1 X62.485 Y320.594
X62.428 Y320.558 Z11.954
X62.375 Y320.524 Z11.976
X62.327 Y320.494 Z12.012
X62.287 Y320.469 Z12.06
X62.256 Y320.45 Z12.116
X62.238 Y320.438 Z12.18
X62.231 Y320.434 Z12.247
G0 Z20.
X63.08 Y293.354
G1 Z16. F200
Z12.247
X63.084 Y293.347 Z12.18 F600
X63.093 Y293.327 Z12.116
X63.109 Y293.295 Z12.06
X63.13 Y293.252 Z12.012
X63.155 Y293.201 Z11.976
X63.183 Y293.144 Z11.954
X63.213 Y293.085 Z11.947
X63.345 Y292.815
G3 X63.518 Y292.664 I0.269 J0.133
X63.747 Y292.679 I0.097 J0.284
G2 X64.41 Y292.833 I0.663 J-1.346
G1 X68.824
G2 X70.32 Y291.451 I0. J-1.5
G1 X70.345 Y291.128
X70.347 Y291.094
X70.366 Y290.754
X70.368 Y290.723
X70.38 Y290.368
X70.381 Y290.338
X70.387 Y289.967
Y289.937
X70.385 Y289.551
X70.384 Y289.518
X70.374 Y289.119
X70.372 Y289.082
X70.351 Y288.67
X70.348 Y288.627
X70.314 Y288.205
X70.309 Y288.152
X70.259 Y287.723
X70.25 Y287.656
X70.18 Y287.225
X70.165 Y287.144
X70.071 Y286.714
X70.046 Y286.616
X69.923 Y286.193
X69.885 Y286.08
X69.729 Y285.668
X69.688 Y285.572
X69.596 Y285.373
X69.565 Y285.308
X69.463 Y285.113
X69.426 Y285.046
X69.314 Y284.856
X69.269 Y284.784
X69.147 Y284.601
X69.099 Y284.533
X68.967 Y284.356
X68.913 Y284.289
X68.77 Y284.119
X68.713 Y284.055
X68.558 Y283.892
X68.496 Y283.83
X68.332 Y283.675
X68.268 Y283.619
X68.093 Y283.472
X68.029 Y283.421
X67.844 Y283.282
X67.776 Y283.234
X67.581 Y283.104
X67.518 Y283.064
X67.314 Y282.942
X67.249 Y282.906
X67.036 Y282.793
X66.972 Y282.761
X66.752 Y282.657
X66.7 Y282.633
X66.473 Y282.536
X66.408 Y282.51
X66.174 Y282.423
X66.099 Y282.397
X65.616 Y282.246
X65.517 Y282.219
X65.02 Y282.1
X64.931 Y282.082
X64.426 Y281.993
X64.348 Y281.981
X63.841 Y281.919
X63.769 Y281.912
X63.266 Y281.875
X63.195 Y281.872
X62.7 Y281.859
X62.639 Y281.858
X62.154 Y281.865
X62.094 Y281.867
X61.621 Y281.893
X61.564 Y281.897
X61.103 Y281.94
X61.051 Y281.946
X60.6 Y282.004
X60.55 Y282.011
X60.108 Y282.083
X60.058 Y282.092
X59.622 Y282.178
X59.574 Y282.189
X59.142 Y282.289
X59.098 Y282.3
X58.67 Y282.413
X58.62 Y282.427
X58.195 Y282.555
X58.142 Y282.571
X57.72 Y282.715
X57.661 Y282.737
X57.244 Y282.899
X57.174 Y282.929
X56.766 Y283.112
X56.684 Y283.152
X56.289 Y283.359
X56.198 Y283.41
X55.821 Y283.643
X55.716 Y283.714
X55.361 Y283.977
X55.285 Y284.037
X55.117 Y284.179
X55.059 Y284.23
X54.898 Y284.381
X54.844 Y284.434
X54.691 Y284.593
X54.639 Y284.649
X54.493 Y284.816
X54.444 Y284.876
X54.306 Y285.051
X54.259 Y285.115
X54.131 Y285.298
X54.087 Y285.363
X53.967 Y285.554
X53.926 Y285.625
X53.815 Y285.825
X53.781 Y285.89
X53.679 Y286.097
X53.649 Y286.163
X53.557 Y286.377
X53.53 Y286.442
X53.447 Y286.663
X53.425 Y286.725
X53.35 Y286.952
X53.332 Y287.012
X53.266 Y287.245
X53.251 Y287.303
X53.194 Y287.542
X53.177 Y287.621
X53.087 Y288.113
X53.072 Y288.208
X53.013 Y288.714
X53.005 Y288.797
X52.973 Y289.313
X52.97 Y289.385
X52.963 Y289.906
Y289.969
X52.978 Y290.49
X52.98 Y290.545
X53.014 Y291.063
X53.018 Y291.114
X53.069 Y291.623
X53.074 Y291.671
X53.14 Y292.17
X53.147 Y292.215
X53.226 Y292.702
X53.234 Y292.748
X53.326 Y293.219
X53.336 Y293.265
X53.44 Y293.721
X53.451 Y293.769
X53.566 Y294.207
X53.58 Y294.256
X53.706 Y294.678
X53.716 Y294.707
X52.284 Y295.242
X52.279 Y295.231
X52.112 Y294.83
X51.956 Y294.431
X51.812 Y294.034
X51.679 Y293.639
X51.557 Y293.246
X51.446 Y292.856
X51.347 Y292.469
X51.259 Y292.083
X51.182 Y291.7
X51.115 Y291.319
X51.06 Y290.941
X51.015 Y290.565
X50.981 Y290.192
X50.958 Y289.821
X50.945 Y289.454
X50.942 Y289.089
X50.949 Y288.728
X50.967 Y288.37
X50.994 Y288.016
X51.031 Y287.667
X51.077 Y287.321
X51.133 Y286.981
X51.198 Y286.647
X51.271 Y286.318
X51.354 Y285.997
X51.445 Y285.681
X51.544 Y285.374
X51.651 Y285.074
X51.766 Y284.782
X51.889 Y284.498
X52.019 Y284.224
X52.157 Y283.958
X52.303 Y283.702
X52.457 Y283.453
X52.618 Y283.213
X52.787 Y282.982
X52.965 Y282.759
X53.153 Y282.542
X53.349 Y282.333
X53.557 Y282.13
X53.777 Y281.932
X54.007 Y281.742
X54.252 Y281.555
X54.51 Y281.373
X54.781 Y281.198
X55.068 Y281.026
X55.37 Y280.86
X55.686 Y280.7
X56.016 Y280.546
X56.364 Y280.398
X56.725 Y280.255
X57.098 Y280.121
X57.487 Y279.994
X57.889 Y279.875
X58.301 Y279.765
X58.724 Y279.664
X59.159 Y279.573
X59.601 Y279.493
X60.049 Y279.424
X60.508 Y279.367
X60.971 Y279.321
X61.436 Y279.289
X61.906 Y279.271
X62.378 Y279.266
X62.851 Y279.276
X63.323 Y279.301
X63.792 Y279.34
X64.258 Y279.396
X64.719 Y279.468
X65.176 Y279.556
X65.626 Y279.661
X66.066 Y279.781
X66.499 Y279.919
X66.921 Y280.074
X67.333 Y280.246
X67.733 Y280.435
X68.122 Y280.641
X68.499 Y280.863
X68.861 Y281.103
X69.21 Y281.358
X69.544 Y281.63
X69.865 Y281.921
X70.171 Y282.227
X70.461 Y282.55
X70.737 Y282.89
X70.997 Y283.246
X71.241 Y283.617
X71.469 Y284.005
X71.68 Y284.407
X71.874 Y284.825
X72.052 Y285.257
X72.212 Y285.701
X72.355 Y286.156
X72.48 Y286.623
X72.587 Y287.097
X72.676 Y287.578
X72.748 Y288.064
X72.802 Y288.552
X72.84 Y289.041
X72.86 Y289.529
X72.864 Y290.013
X72.853 Y290.49
X72.825 Y290.959
X72.784 Y291.417
X72.728 Y291.862
X72.659 Y292.291
X72.578 Y292.702
X72.486 Y293.092
X72.383 Y293.461
X72.272 Y293.804
X72.153 Y294.12
X72.027 Y294.408
X71.898 Y294.667
X71.767 Y294.894
X71.636 Y295.088
X71.508 Y295.252
X71.385 Y295.385
X71.267 Y295.492
X71.159 Y295.572
X71.056 Y295.632
X70.954 Y295.678
X70.853 Y295.711
X70.747 Y295.733
X70.624 Y295.744
X70.412 Y295.742
X70.396
X61.419
Y291.333
Y289.053
X62.91
Y291.333
G2 X63.747 Y292.679 I1.5 J0.
G3 X63.884 Y293.08 I-0.133 J0.269
G1 X63.751 Y293.35
X63.722 Y293.409 Z11.954
X63.694 Y293.466 Z11.976
X63.669 Y293.517 Z12.012
X63.648 Y293.56 Z12.06
X63.632 Y293.592 Z12.116
X63.622 Y293.612 Z12.18
X63.619 Y293.619 Z12.247
G0 Z20.
X62.983 Y248.013
G1 Z16. F200
Z12.247
X62.988 Y248.019 Z12.18 F600
X63.005 Y248.033 Z12.116
X63.031 Y248.058 Z12.06
X63.066 Y248.09 Z12.012
X63.108 Y248.128 Z11.976
X63.155 Y248.171 Z11.954
X63.204 Y248.216 Z11.947
X63.426 Y248.418
G3 X63.523 Y248.626 I-0.202 J0.222
X63.445 Y248.842 I-0.3 J0.014
G2 X63.053 Y249.853 I1.108 J1.011
G1 Y255.831
X61.563
Y249.853
G2 X60.063 Y248.353 I-1.5 J0.
G1 X54.076
G2 X52.576 Y249.853 I0. J1.5
G1 Y255.831
X51.086
Y246.264
X72.034
Y248.353
X64.553
G2 X63.445 Y248.842 I0. J1.5
G3 X63.021 Y248.861 I-0.222 J-0.202
G1 X62.8 Y248.659
X62.751 Y248.614 Z11.954
X62.704 Y248.571 Z11.976
X62.662 Y248.533 Z12.012
X62.627 Y248.501 Z12.06
X62.6 Y248.477 Z12.116
X62.584 Y248.462 Z12.18
X62.578 Y248.457 Z12.247
G0 Z20.
X61.815 Y210.625
G1 Z16. F200
Z12.247
X61.821 Y210.63 Z12.18 F600
X61.836 Y210.646 Z12.116
X61.861 Y210.672 Z12.06
X61.895 Y210.705 Z12.012
X61.935 Y210.746 Z11.976
X61.979 Y210.791 Z11.954
X62.026 Y210.839 Z11.947
X62.237 Y211.052
G3 X62.235 Y211.476 I-0.213 J0.211
G2 X61.789 Y212.543 I1.054 J1.067
G1 Y218.08
X60.389
Y212.543
G2 X58.889 Y211.043 I-1.5 J0.
G1 X54.166
G2 X52.666 Y212.543 I0. J1.5
G1 Y219.13
X51.309
Y208.687
X71.437
Y219.13
X70.314
Y212.543
G2 X68.814 Y211.043 I-1.5 J0.
G1 X63.289
G2 X62.235 Y211.476 I0. J1.5
G3 X62.022 Y211.563 I-0.211 J-0.213
X61.81 Y211.474 I0.002 J-0.3
G1 X61.599 Y211.26
X61.553 Y211.213 Z11.954
X61.508 Y211.168 Z11.976
X61.468 Y211.127 Z12.012
X61.435 Y211.093 Z12.06
X61.409 Y211.068 Z12.116
X61.394 Y211.052 Z12.18
X61.389 Y211.047 Z12.247
G0 Z20.
X58.965 Y183.817
G1 Z16. F200
Z12.247
X58.964 Y183.825 Z12.18 F600
X58.96 Y183.846 Z12.116
X58.953 Y183.882 Z12.06
X58.945 Y183.928 Z12.012
X58.934 Y183.984 Z11.976
X58.922 Y184.047 Z11.954
X58.91 Y184.112 Z11.947
X58.855 Y184.407
G3 X58.505 Y184.647 I-0.295 J-0.055
G1 X58.478 Y184.642
X57.982 Y184.526
X57.504 Y184.389
X57.047 Y184.231
X56.609 Y184.053
X56.19 Y183.852
X55.793 Y183.63
X55.417 Y183.386
X55.058 Y183.118
X54.718 Y182.825
X54.395 Y182.505
X54.089 Y182.158
X53.799 Y181.781
X53.518 Y181.363
X53.393 Y181.156
X53.267 Y180.932
X53.144 Y180.698
X53.026 Y180.456
X52.912 Y180.205
X52.802 Y179.945
X52.697 Y179.676
X52.596 Y179.398
X52.5 Y179.112
X52.409 Y178.816
X52.322 Y178.511
X52.241 Y178.196
X52.164 Y177.874
X52.094 Y177.549
X51.965 Y176.85
X51.858 Y176.122
X51.779 Y175.419
Y169.473
X71.634
Y174.318
Y175.503
X71.636 Y175.582
X71.642 Y175.661
X71.662 Y175.849
X71.667 Y176.011
X71.66 Y176.209
X71.64 Y176.442
X71.604 Y176.706
X71.551 Y176.998
X71.481 Y177.316
X71.393 Y177.658
X71.287 Y178.019
X71.162 Y178.395
X71.019 Y178.784
X70.856 Y179.182
X70.675 Y179.585
X70.473 Y179.989
X70.252 Y180.39
X70.011 Y180.785
X69.749 Y181.171
X69.469 Y181.542
X69.167 Y181.899
X68.845 Y182.241
X68.503 Y182.562
X68.139 Y182.865
X67.754 Y183.148
X67.347 Y183.411
X66.918 Y183.653
X66.468 Y183.875
X65.998 Y184.074
X65.507 Y184.253
X65. Y184.411
X64.477 Y184.546
X63.941 Y184.66
X63.394 Y184.752
X62.838 Y184.824
X62.279 Y184.873
X61.718 Y184.903
X61.158 Y184.911
X60.602 Y184.898
X60.054 Y184.865
X59.515 Y184.811
X58.989 Y184.737
X58.505 Y184.647
G3 X58.265 Y184.297 I0.055 J-0.295
G1 X58.32 Y184.002
X58.333 Y183.936 Z11.954
X58.344 Y183.874 Z11.976
X58.355 Y183.818 Z12.012
X58.364 Y183.771 Z12.06
X58.37 Y183.736 Z12.116
X58.374 Y183.714 Z12.18
X58.376 Y183.707 Z12.247
G0 Z20.
X58.09 Y182.901
G1 Z16. F200
Z12.247
X58.092 Y182.893 Z12.18 F600
X58.097 Y182.872 Z12.116
X58.105 Y182.837 Z12.06
X58.117 Y182.791 Z12.012
X58.13 Y182.736 Z11.976
X58.146 Y182.674 Z11.954
X58.162 Y182.609 Z11.947
X58.234 Y182.318
G3 X58.37 Y182.133 I0.291 J0.072
X58.597 Y182.099 I0.155 J0.257
G1 X58.878 Y182.168
X58.939 Y182.182
X59.396 Y182.275
X59.461 Y182.287
X59.93 Y182.361
X59.98 Y182.368
X60.457 Y182.427
X60.511 Y182.432
X60.993 Y182.474
X61.043 Y182.478
X61.527 Y182.504
X61.574 Y182.506
X62.056 Y182.517
X62.109
X62.588 Y182.511
X62.642 Y182.509
X63.114 Y182.486
X63.176 Y182.482
X63.639 Y182.44
X63.707 Y182.432
X64.159 Y182.37
X64.233 Y182.358
X64.672 Y182.275
X64.756 Y182.256
X65.181 Y182.15
X65.278 Y182.122
X65.687 Y181.99
X65.783 Y181.956
X66.176 Y181.799
X66.28 Y181.752
X66.654 Y181.568
X66.757 Y181.513
X67.114 Y181.302
X67.217 Y181.235
X67.554 Y180.996
X67.651 Y180.921
X67.968 Y180.655
X68.056 Y180.575
X68.353 Y180.283
X68.432 Y180.199
X68.707 Y179.883
X68.776 Y179.797
X69.029 Y179.459
X69.091 Y179.37
X69.321 Y179.011
X69.374 Y178.923
X69.581 Y178.545
X69.626 Y178.456
X69.81 Y178.061
X69.847 Y177.975
X70.007 Y177.566
X70.038 Y177.478
X70.174 Y177.055
X70.199 Y176.969
X70.311 Y176.534
X70.33 Y176.449
X70.418 Y176.003
X70.432 Y175.919
X70.495 Y175.462
X70.503 Y175.381
X70.542 Y174.916
X70.546 Y174.837
X70.56 Y174.362
Y174.285
X70.55 Y173.802
X70.546 Y173.728
X70.511 Y173.236
X70.504 Y173.166
X70.445 Y172.666
X70.435 Y172.598
X70.351 Y172.09
G2 X68.871 Y170.835 I-1.48 J0.245
G1 X54.203
G2 X52.721 Y172.104 I0. J1.5
G1 X52.656 Y172.524
X52.648 Y172.58
X52.599 Y172.991
X52.594 Y173.05
X52.563 Y173.451
X52.559 Y173.514
X52.545 Y173.905
X52.544 Y173.971
X52.547 Y174.353
X52.55 Y174.423
X52.57 Y174.795
X52.576 Y174.866
X52.613 Y175.229
X52.623 Y175.303
X52.677 Y175.657
X52.69 Y175.731
X52.761 Y176.076
X52.779 Y176.15
X52.866 Y176.486
X52.886 Y176.558
X52.989 Y176.887
X53.013 Y176.958
X53.132 Y177.279
X53.158 Y177.346
X53.291 Y177.66
X53.321 Y177.725
X53.469 Y178.032
X53.5 Y178.094
X53.663 Y178.395
X53.697 Y178.455
X53.874 Y178.75
X53.914 Y178.813
X54.107 Y179.1
X54.15 Y179.161
X54.359 Y179.441
X54.411 Y179.507
X54.638 Y179.777
X54.696 Y179.843
X54.941 Y180.103
X55.008 Y180.17
X55.274 Y180.418
X55.348 Y180.483
X55.635 Y180.718
X55.723 Y180.784
X56.033 Y181.002
X56.116 Y181.057
X56.45 Y181.26
X56.543 Y181.312
X56.901 Y181.496
X56.991 Y181.539
X57.373 Y181.704
X57.455 Y181.736
X57.858 Y181.883
X57.935 Y181.909
X58.359 Y182.038
X58.437 Y182.059
X58.597 Y182.099
G3 X58.782 Y182.235 I-0.072 J0.291
X58.816 Y182.462 I-0.257 J0.155
G1 X58.744 Y182.753
X58.728 Y182.818 Z11.954
X58.713 Y182.88 Z11.976
X58.699 Y182.935 Z12.012
X58.688 Y182.981 Z12.06
X58.679 Y183.016 Z12.116
X58.674 Y183.037 Z12.18
X58.672 Y183.044 Z12.247
G0 Z20.
X52.057 Y143.926
G1 Z16. F200
Z12.247
X52.064 Y143.924 Z12.18 F600
X52.085 Y143.918 Z12.116
X52.12 Y143.909 Z12.06
X52.166 Y143.897 Z12.012
X52.221 Y143.883 Z11.976
X52.282 Y143.867 Z11.954
X52.347 Y143.851 Z11.947
X52.637 Y143.775
G3 X52.865 Y143.807 I0.075 J0.29
X53.003 Y143.991 I-0.152 J0.258
G1 X53.014 Y144.032
X53.144 Y144.481
X53.159 Y144.527
X53.305 Y144.977
X53.32 Y145.023
X53.368 Y145.156
X52.367 Y145.675
X52.189 Y145.234
X52.027 Y144.77
X51.884 Y144.287
X51.76 Y143.781
X51.656 Y143.255
X51.574 Y142.714
X51.516 Y142.16
X51.483 Y141.598
X51.478 Y141.03
X51.503 Y140.457
X51.561 Y139.869
X51.601 Y139.59
X51.651 Y139.301
X51.71 Y139.009
X51.778 Y138.72
X51.856 Y138.429
X51.944 Y138.137
X52.042 Y137.847
X52.15 Y137.56
X52.268 Y137.273
X52.396 Y136.99
X52.533 Y136.711
X52.682 Y136.435
X52.841 Y136.163
X53.01 Y135.896
X53.189 Y135.634
X53.379 Y135.379
X53.581 Y135.128
X53.794 Y134.883
X54.017 Y134.645
X54.252 Y134.413
X54.5 Y134.186
X54.758 Y133.968
X55.03 Y133.755
X55.313 Y133.55
X55.607 Y133.353
X55.915 Y133.163
X56.233 Y132.981
X56.561 Y132.809
X56.901 Y132.647
X57.252 Y132.493
X57.611 Y132.35
X57.98 Y132.218
X58.356 Y132.096
X58.738 Y131.987
X59.129 Y131.888
X59.525 Y131.801
X59.923 Y131.727
X60.327 Y131.666
X60.734 Y131.617
X61.143 Y131.581
X61.555 Y131.558
X61.967 Y131.547
X62.379 Y131.549
X62.789 Y131.564
X63.197 Y131.592
X63.604 Y131.633
X64.01 Y131.686
X64.407 Y131.751
X64.8 Y131.83
X65.191 Y131.92
X65.573 Y132.021
X65.946 Y132.134
X66.314 Y132.259
X66.673 Y132.394
X67.019 Y132.539
X67.357 Y132.696
X67.685 Y132.861
X68. Y133.035
X68.305 Y133.22
X68.598 Y133.413
X68.878 Y133.612
X69.146 Y133.821
X69.404 Y134.039
X69.649 Y134.263
X69.881 Y134.494
X70.103 Y134.733
X70.312 Y134.979
X70.51 Y135.23
X70.696 Y135.489
X70.872 Y135.756
X71.037 Y136.028
X71.189 Y136.305
X71.331 Y136.59
X71.463 Y136.881
X71.582 Y137.177
X71.691 Y137.479
X71.789 Y137.787
X71.876 Y138.099
X71.951 Y138.417
X72.015 Y138.739
X72.068 Y139.065
X72.109 Y139.397
X72.139 Y139.734
X72.158 Y140.076
X72.165 Y140.422
X72.16 Y140.773
X72.144 Y141.129
X72.115 Y141.489
X72.075 Y141.855
X72.023 Y142.224
X71.959 Y142.6
X71.883 Y142.98
X71.795 Y143.364
X71.695 Y143.753
X71.582 Y144.148
X71.457 Y144.547
X71.356 Y144.843
X70.213 Y144.398
X70.26 Y144.233
X70.268 Y144.204
X70.327 Y143.977
X70.334 Y143.948
X70.392 Y143.708
X70.399 Y143.68
X70.454 Y143.429
X70.463 Y143.384
X70.563 Y142.855
X70.574 Y142.79
X70.653 Y142.239
X70.662 Y142.16
X70.712 Y141.598
X70.718 Y141.505
X70.733 Y140.938
Y140.858
X70.726 Y140.575
X70.723 Y140.516
X70.705 Y140.234
X70.7 Y140.173
X70.67 Y139.892
X70.661 Y139.828
X70.619 Y139.549
X70.608 Y139.482
X70.553 Y139.205
X70.538 Y139.135
X70.47 Y138.863
X70.452 Y138.793
X70.371 Y138.524
X70.347 Y138.451
X70.254 Y138.188
X70.226 Y138.115
X70.119 Y137.858
X70.085 Y137.783
X69.965 Y137.534
X69.929 Y137.465
X69.797 Y137.223
X69.756 Y137.152
X69.611 Y136.919
X69.569 Y136.855
X69.413 Y136.63
X69.367 Y136.568
X69.2 Y136.352
X69.154 Y136.295
X68.977 Y136.088
X68.933 Y136.038
X68.747 Y135.839
X68.7 Y135.791
X68.506 Y135.601
X68.466 Y135.563
X68.264 Y135.38
X68.199 Y135.324
X67.778 Y134.983
X67.702 Y134.925
X67.261 Y134.613
X67.185 Y134.563
X66.731 Y134.281
X66.659 Y134.238
X66.193 Y133.984
X66.112 Y133.943
X65.637 Y133.72
X65.551 Y133.683
X65.066 Y133.491
X64.972 Y133.458
X64.476 Y133.299
X64.376 Y133.27
X63.868 Y133.145
X63.765 Y133.124
X63.244 Y133.034
X63.142 Y133.02
X62.609 Y132.965
X62.513 Y132.958
X61.969 Y132.937
X61.873 Y132.936
X61.322 Y132.95
X61.233 Y132.955
X60.68 Y133.002
X60.599 Y133.011
X60.049 Y133.088
X59.969 Y133.102
X59.426 Y133.208
X59.348 Y133.225
X58.819 Y133.358
X58.741 Y133.38
X58.23 Y133.538
X58.149 Y133.566
X57.661 Y133.748
X57.578 Y133.782
X57.118 Y133.986
X57.029 Y134.029
X56.599 Y134.255
X56.505 Y134.308
X56.104 Y134.557
X56.01 Y134.621
X55.636 Y134.894
X55.545 Y134.966
X55.198 Y135.264
X55.113 Y135.342
X54.789 Y135.667
X54.715 Y135.746
X54.414 Y136.094
X54.345 Y136.18
X54.068 Y136.553
X54.009 Y136.639
X53.756 Y137.033
X53.703 Y137.122
X53.478 Y137.534
X53.431 Y137.626
X53.234 Y138.053
X53.194 Y138.149
X53.028 Y138.586
X52.994 Y138.688
X52.861 Y139.133
X52.833 Y139.239
X52.734 Y139.689
X52.714 Y139.796
X52.649 Y140.247
X52.637 Y140.354
X52.604 Y140.806
X52.6 Y140.908
X52.597 Y141.359
X52.6 Y141.452
X52.625 Y141.903
X52.632 Y141.988
X52.684 Y142.438
X52.694 Y142.512
X52.768 Y142.961
X52.78 Y143.025
X52.874 Y143.474
X52.888 Y143.532
X53. Y143.981
X53.003 Y143.991
G3 X52.788 Y144.356 I-0.29 J0.075
G1 X52.497 Y144.431
X52.433 Y144.448 Z11.954
X52.371 Y144.464 Z11.976
X52.316 Y144.478 Z12.012
X52.27 Y144.49 Z12.06
X52.236 Y144.499 Z12.116
X52.214 Y144.505 Z12.18
X52.207 Y144.507 Z12.247
G0 Z20.
X55.748 Y107.79
G1 Z16. F200
Z12.247
X55.745 Y107.797 Z12.18 F600
X55.739 Y107.818 Z12.116
X55.728 Y107.852 Z12.06
X55.713 Y107.897 Z12.012
X55.695 Y107.951 Z11.976
X55.676 Y108.012 Z11.954
X55.655 Y108.075 Z11.947
X55.563 Y108.361
G3 X55.185 Y108.554 I-0.285 J-0.092
G1 X55.158 Y108.545
X54.987 Y108.481
X54.825 Y108.414
X54.675 Y108.343
X54.531 Y108.267
X54.398 Y108.19
X54.277 Y108.112
X54.162 Y108.029
X54.055 Y107.944
X53.965 Y107.866
X53.761 Y107.66
X53.582 Y107.447
X53.413 Y107.208
X53.252 Y106.943
X53.101 Y106.655
X52.961 Y106.348
X52.833 Y106.026
X52.719 Y105.692
X52.62 Y105.351
X52.536 Y105.004
X52.467 Y104.652
X52.413 Y104.296
X52.374 Y103.937
X52.352 Y103.592
Y95.27
X72.527
Y103.535
X72.519 Y103.59
X72.494 Y103.749
X72.463 Y103.921
X72.428 Y104.106
X72.387 Y104.302
X72.342 Y104.509
X72.292 Y104.727
X72.238 Y104.949
X72.111 Y105.428
X71.965 Y105.925
X71.797 Y106.426
X71.602 Y106.928
X71.503 Y107.153
X71.394 Y107.378
X71.281 Y107.592
X71.164 Y107.79
X71.042 Y107.974
X70.916 Y108.144
X70.787 Y108.297
X70.655 Y108.437
X70.519 Y108.562
X70.377 Y108.675
X70.227 Y108.779
X70.068 Y108.874
X69.899 Y108.961
X69.718 Y109.04
X69.524 Y109.111
X69.318 Y109.175
X69.099 Y109.231
X68.866 Y109.281
X68.625 Y109.322
X68.384 Y109.355
X67.853 Y109.405
X67.325 Y109.425
X66.801 Y109.418
X66.283 Y109.384
X66.048 Y109.357
X65.813 Y109.323
X65.586 Y109.282
X65.366 Y109.233
X65.16 Y109.178
X64.962 Y109.116
X64.771 Y109.045
X64.587 Y108.966
X64.412 Y108.881
X64.245 Y108.788
X64.08 Y108.683
X63.921 Y108.571
X63.766 Y108.447
X63.613 Y108.312
X63.465 Y108.166
X63.318 Y108.006
X63.174 Y107.832
X63.032 Y107.645
X62.893 Y107.442
X62.741 Y107.2
G2 X60.673 Y106.726 I-1.271 J0.797
X60.309 Y107.048 I0.797 J1.271
G1 X60.124 Y107.274
X59.958 Y107.461
X59.791 Y107.633
X59.623 Y107.79
X59.452 Y107.936
X59.279 Y108.069
X59.106 Y108.189
X58.929 Y108.298
X58.751 Y108.395
X58.571 Y108.481
X58.386 Y108.558
X58.197 Y108.625
X58.003 Y108.682
X57.806 Y108.731
X57.608 Y108.768
X57.403 Y108.797
X57.194 Y108.816
X56.984 Y108.826
X56.772 Y108.827
X56.557 Y108.818
X56.342 Y108.802
X56.136 Y108.777
X55.927 Y108.743
X55.723 Y108.703
X55.528 Y108.656
X55.337 Y108.603
X55.185 Y108.554
G3 X54.992 Y108.176 I0.092 J-0.285
G1 X55.084 Y107.89
X55.105 Y107.827 Z11.954
X55.125 Y107.766 Z11.976
X55.142 Y107.712 Z12.012
X55.157 Y107.667 Z12.06
X55.168 Y107.633 Z12.116
X55.175 Y107.612 Z12.18
X55.177 Y107.605 Z12.247
G0 Z20.
X55.472 Y106.713
G1 Z16. F200
Z12.247
X55.475 Y106.706 Z12.18 F600
X55.482 Y106.685 Z12.116
X55.493 Y106.651 Z12.06
X55.508 Y106.606 Z12.012
X55.527 Y106.552 Z11.976
X55.547 Y106.492 Z11.954
X55.568 Y106.429 Z11.947
X55.665 Y106.144
G3 X55.816 Y105.972 I0.284 J0.096
X56.045 Y105.956 I0.133 J0.269
G1 X56.17 Y105.999
X56.287 Y106.033
X56.478 Y106.081
X56.604 Y106.107
X56.803 Y106.139
X56.939 Y106.154
X57.143 Y106.168
X57.267 Y106.172
X57.475 Y106.169
X57.61 Y106.161
X57.819 Y106.139
X57.938 Y106.121
X58.146 Y106.082
X58.272 Y106.053
X58.477 Y105.996
X58.584 Y105.962
X58.783 Y105.89
X58.888 Y105.848
X59.08 Y105.762
X59.173 Y105.717
X59.355 Y105.62
X59.438 Y105.571
X59.608 Y105.466
X59.695 Y105.408
X59.85 Y105.296
X59.922 Y105.241
X60.062 Y105.127
X60.143 Y105.056
X60.266 Y104.94
X60.351 Y104.853
X60.456 Y104.736
X60.534 Y104.643
X60.622 Y104.528
X60.667 Y104.465
X60.71 Y104.399
X60.781 Y104.283
X60.82 Y104.215
X60.855 Y104.146
X60.91 Y104.03
X60.944 Y103.954
X60.973 Y103.876
X61.015 Y103.757
X61.057 Y103.609
X61.086 Y103.486
X61.111 Y103.357
X61.13 Y103.226
X61.14 Y103.129
X61.151 Y102.989
X61.155 Y102.921
X61.16 Y102.768
X61.161 Y102.727
X61.162 Y102.56
Y102.536
X61.16 Y102.354
Y102.345
X61.156 Y102.145
Y102.143
X61.152 Y101.926
X61.149 Y101.693
X61.146 Y101.442
X61.144 Y101.172
X61.143 Y100.881
X61.144 Y100.57
X61.147 Y100.237
X61.151 Y99.881
Y99.862
Y99.221
G2 X59.651 Y97.721 I-1.5 J0.
G1 X54.854
G2 X53.354 Y99.221 I0. J1.5
G1 Y99.818
X53.339 Y100.081
X53.337 Y100.136
X53.329 Y100.465
Y100.513
X53.333 Y100.864
X53.334 Y100.911
X53.349 Y101.281
X53.352 Y101.329
X53.38 Y101.713
X53.385 Y101.767
X53.428 Y102.159
X53.437 Y102.227
X53.498 Y102.618
X53.515 Y102.706
X53.598 Y103.085
X53.628 Y103.201
X53.737 Y103.56
X53.775 Y103.67
X53.841 Y103.839
X53.876 Y103.921
X53.951 Y104.083
X53.996 Y104.173
X54.08 Y104.327
X54.137 Y104.422
X54.231 Y104.568
X54.297 Y104.663
X54.402 Y104.801
X54.486 Y104.902
X54.602 Y105.03
X54.686 Y105.115
X54.814 Y105.235
X54.912 Y105.32
X55.052 Y105.43
X55.154 Y105.503
X55.305 Y105.603
X55.418 Y105.671
X55.581 Y105.759
X55.686 Y105.81
X55.859 Y105.887
X55.987 Y105.937
X56.045 Y105.956
G3 X56.218 Y106.108 I-0.096 J0.284
X56.233 Y106.337 I-0.269 J0.133
G1 X56.137 Y106.621
X56.115 Y106.684 Z11.954
X56.095 Y106.744 Z11.976
X56.077 Y106.798 Z12.012
X56.062 Y106.843 Z12.06
X56.05 Y106.877 Z12.116
X56.043 Y106.898 Z12.18
X56.041 Y106.905 Z12.247
G0 Z20.
X62.134 Y104.707
G1 Z16. F200
Z12.247
X62.141 Y104.704 Z12.18 F600
X62.161 Y104.695 Z12.116
X62.194 Y104.681 Z12.06
X62.238 Y104.662 Z12.012
X62.29 Y104.639 Z11.976
X62.348 Y104.614 Z11.954
X62.41 Y104.588 Z11.947
X62.685 Y104.469
G3 X63.079 Y104.626 I0.119 J0.276
G1 X63.155 Y104.802
X63.196 Y104.889
X63.286 Y105.066
X63.335 Y105.154
X63.435 Y105.322
X63.488 Y105.405
X63.598 Y105.564
X63.661 Y105.649
X63.779 Y105.797
X63.847 Y105.877
X63.973 Y106.014
X64.059 Y106.1
X64.193 Y106.223
X64.281 Y106.299
X64.421 Y106.409
X64.517 Y106.479
X64.662 Y106.576
X64.778 Y106.645
X64.928 Y106.727
X65.046 Y106.785
X65.202 Y106.853
X65.31 Y106.895
X65.471 Y106.951
X65.588 Y106.987
X65.755 Y107.03
X65.865 Y107.053
X66.037 Y107.084
X66.135 Y107.099
X66.314 Y107.119
X66.4 Y107.126
X66.585 Y107.136
X66.658 Y107.138
X66.849 Y107.139
X66.933 Y107.137
X67.129 Y107.127
X67.194 Y107.122
X67.395 Y107.103
X67.464 Y107.095
X67.669 Y107.066
X67.75 Y107.053
X67.957 Y107.012
X68.043 Y106.992
X68.251 Y106.938
X68.336 Y106.913
X68.543 Y106.846
X68.646 Y106.809
X68.85 Y106.726
X68.958 Y106.677
X69.157 Y106.577
X69.278 Y106.509
X69.471 Y106.389
X69.586 Y106.31
X69.77 Y106.17
X69.885 Y106.073
X70.058 Y105.911
X70.164 Y105.801
X70.326 Y105.616
X70.421 Y105.495
X70.57 Y105.285
X70.648 Y105.163
X70.782 Y104.928
X70.844 Y104.807
X70.963 Y104.546
X71.012 Y104.427
X71.115 Y104.138
X71.148 Y104.031
X71.235 Y103.716
X71.259 Y103.617
X71.328 Y103.274
X71.343 Y103.184
X71.395 Y102.813
X71.404 Y102.734
X71.439 Y102.335
X71.443 Y102.264
X71.46 Y101.837
X71.461 Y101.774
X71.459 Y101.318
X71.458 Y101.263
X71.439 Y100.78
X71.436 Y100.731
X71.399 Y100.219
X71.395 Y100.174
X71.339 Y99.635
X71.335 Y99.596
X71.261 Y99.029
G2 X69.774 Y97.721 I-1.488 J0.193
G1 X64.149
G2 X63.083 Y98.165 I0. J1.5
X62.649 Y99.234 I1.065 J1.056
G1 X62.653 Y99.744
X62.654 Y100.239
X62.653 Y100.724
X62.649 Y101.203
Y101.208
X62.648 Y101.677
Y101.696
X62.652 Y102.154
X62.653 Y102.198
X62.671 Y102.643
X62.675 Y102.72
X62.714 Y103.152
X62.729 Y103.262
X62.798 Y103.679
X62.819 Y103.784
X62.867 Y103.985
X62.888 Y104.062
X62.946 Y104.259
X62.972 Y104.339
X63.041 Y104.531
X63.075 Y104.617
X63.079 Y104.626
G3 X63.083 Y104.856 I-0.276 J0.119
X62.922 Y105.021 I-0.279 J-0.111
G1 X62.647 Y105.139
X62.586 Y105.166 Z11.954
X62.527 Y105.191 Z11.976
X62.475 Y105.213 Z12.012
X62.431 Y105.232 Z12.06
X62.399 Y105.246 Z12.116
X62.378 Y105.255 Z12.18
X62.371 Y105.258 Z12.247
G0 Z20.
X66.969 Y68.88
G1 Z16. F200
Z12.247
X66.976 Y68.877 Z12.18 F600
X66.997 Y68.869 Z12.116
X67.03 Y68.856 Z12.06
X67.075 Y68.84 Z12.012
X67.128 Y68.819 Z11.976
X67.187 Y68.797 Z11.954
X67.249 Y68.773 Z11.947
X67.53 Y68.666
G3 X67.917 Y68.839 I0.107 J0.28
G2 X68.707 Y69.674 I1.401 J-0.535
G1 X72.68 Y71.447
Y74.377
X52.131 Y66.541
Y62.655
X72.68 Y55.528
Y57.632
X68.693 Y59.462
G2 X67.818 Y60.825 I0.626 J1.363
G1 Y68.304
G2 X67.917 Y68.839 I1.5 J0.
G3 X67.744 Y69.226 I-0.28 J0.107
G1 X67.463 Y69.333
X67.401 Y69.357 Z11.954
X67.342 Y69.38 Z11.976
X67.288 Y69.4 Z12.012
X67.244 Y69.417 Z12.06
X67.211 Y69.43 Z12.116
X67.19 Y69.438 Z12.18
X67.183 Y69.44 Z12.247
G0 Z20.
X64.933 Y68.926
G1 Z16. F200
Z12.247
X64.928 Y68.921 Z12.18 F600
X64.913 Y68.905 Z12.116
X64.888 Y68.879 Z12.06
X64.856 Y68.844 Z12.012
X64.817 Y68.803 Z11.976
X64.773 Y68.757 Z11.954
X64.727 Y68.708 Z11.947
X64.521 Y68.49
G3 X64.533 Y68.066 I0.218 J-0.206
G2 X65.003 Y66.976 I-1.03 J-1.09
G1 Y61.887
G2 X63.503 Y60.387 I-1.5 J0.
X62.94 Y60.496 I0. J1.5
G1 X56.284 Y63.19
G2 X55.457 Y65.144 I0.563 J1.39
X56.339 Y65.992 I1.39 J-0.563
G1 X62.995 Y68.387
G2 X64.533 Y68.066 I0.508 J-1.411
G3 X64.748 Y67.984 I0.206 J0.218
X64.957 Y68.078 I-0.009 J0.3
G1 X65.163 Y68.296
X65.209 Y68.345 Z11.954
X65.253 Y68.391 Z11.976
X65.292 Y68.432 Z12.012
X65.324 Y68.467 Z12.06
X65.349 Y68.493 Z12.116
X65.364 Y68.509 Z12.18
X65.369 Y68.514 Z12.247
G0 Z20.
X102.039 Y63.344
G1 Z16. F200
Z12.247
X102.046 Y63.345 Z12.18 F600
X102.068 Y63.346 Z12.116
X102.104 Y63.347 Z12.06
X102.151 Y63.35 Z12.012
X102.208 Y63.352 Z11.976
X102.271 Y63.355 Z11.954
X102.338 Y63.358 Z11.947
X102.638 Y63.372
G3 X102.924 Y63.686 I-0.014 J0.3
G1 X102.909 Y64.009
X102.907 Y64.115
X102.915 Y64.439
X102.921 Y64.531
X102.949 Y64.854
X102.958 Y64.932
X103.003 Y65.253
X103.012 Y65.309
X103.069 Y65.627
X103.083 Y65.697
X103.225 Y66.317
X103.238 Y66.371
X103.318 Y66.669
X103.33 Y66.712
X103.416 Y66.998
X103.434 Y67.053
X103.527 Y67.324
X103.564 Y67.419
X103.67 Y67.671
X103.728 Y67.794
X103.85 Y68.023
X103.898 Y68.106
X103.951 Y68.186
X104.095 Y68.389
X104.164 Y68.478
X104.239 Y68.562
X104.407 Y68.736
X104.474 Y68.802
X104.546 Y68.863
X104.64 Y68.939
X104.742 Y69.014
X104.843 Y69.082
X104.919 Y69.13
X104.997 Y69.173
X105.218 Y69.286
X105.315 Y69.332
X105.414 Y69.37
X105.658 Y69.454
X105.74 Y69.479
X105.824 Y69.5
X106.083 Y69.557
X106.224 Y69.581
X106.491 Y69.614
X106.617 Y69.624
X106.885 Y69.633
X107.006
X107.265 Y69.622
X107.402 Y69.609
X107.648 Y69.576
X107.735 Y69.561
X107.821 Y69.542
X108.047 Y69.483
X108.159 Y69.449
X108.269 Y69.407
X108.472 Y69.319
X108.566 Y69.273
X108.658 Y69.222
X108.751 Y69.165
X108.878 Y69.078
X108.965 Y69.011
X109.026 Y68.962
X109.085 Y68.909
X109.166 Y68.833
X109.221 Y68.777
X109.274 Y68.719
X109.349 Y68.631
X109.434 Y68.523
X109.504 Y68.424
X109.577 Y68.309
X109.641 Y68.199
X109.699 Y68.09
X109.757 Y67.968
X109.796 Y67.877
X109.849 Y67.743
X109.876 Y67.67
X109.925 Y67.525
X109.95 Y67.444
X109.993 Y67.287
X110.009 Y67.223
X110.047 Y67.057
X110.058 Y67.007
X110.092 Y66.831
X110.103 Y66.763
X110.158 Y66.386
X110.167 Y66.314
X110.206 Y65.91
X110.211 Y65.851
X110.235 Y65.43
X110.237 Y65.383
X110.248 Y64.954
Y64.916
Y64.488
Y64.455
X110.239 Y64.036
X110.238 Y64.009
X110.222 Y63.605
X110.221 Y63.591
X110.202 Y63.205
Y63.193
X110.181 Y62.834
X110.165 Y62.5
X110.153 Y62.197
X110.15 Y61.926
X110.157 Y61.673
X110.175 Y61.434
X110.205 Y61.199
X110.25 Y60.96
X110.312 Y60.71
X110.393 Y60.443
X110.491 Y60.169
X110.611 Y59.883
X110.751 Y59.589
X110.908 Y59.296
X111.083 Y59.006
X111.273 Y58.723
X111.475 Y58.456
X111.689 Y58.204
X111.91 Y57.974
X112.139 Y57.767
X112.374 Y57.583
X112.61 Y57.426
X112.85 Y57.293
X113.097 Y57.183
X113.351 Y57.095
X113.614 Y57.028
X113.892 Y56.982
X114.185 Y56.955
X114.494 Y56.948
X114.82 Y56.96
X115.158 Y56.99
X115.507 Y57.036
X115.861 Y57.096
X116.218 Y57.168
X116.573 Y57.249
X116.92 Y57.337
X117.253 Y57.431
X117.569 Y57.529
X117.861 Y57.631
X118.128 Y57.737
X118.369 Y57.847
X118.582 Y57.961
X118.774 Y58.083
X118.947 Y58.213
X119.106 Y58.355
X119.255 Y58.515
X119.399 Y58.698
X119.538 Y58.907
X119.669 Y59.142
X119.792 Y59.405
X119.904 Y59.691
X120.003 Y60.
X120.088 Y60.328
X120.157 Y60.672
X120.21 Y61.03
X120.247 Y61.399
X120.267 Y61.774
X120.271 Y62.153
X120.258 Y62.535
X120.229 Y62.919
X120.184 Y63.304
X120.126 Y63.683
X120.053 Y64.06
X119.967 Y64.432
X119.869 Y64.796
X119.759 Y65.152
X119.638 Y65.499
X119.505 Y65.838
X119.364 Y66.166
X119.212 Y66.483
X119.051 Y66.791
X118.882 Y67.088
X118.703 Y67.373
X118.515 Y67.65
X118.3 Y67.94
G2 X118.614 Y70.038 I1.206 J0.892
X119.017 Y70.25 I0.892 J-1.206
G1 X119.303 Y70.348
X119.492 Y70.432
X119.657 Y70.526
X119.696 Y70.552
X119.742 Y70.589
X119.781 Y70.623
X119.81 Y70.653
X119.831 Y70.678
X119.851 Y70.705
X119.869 Y70.734
X119.881 Y70.758
X119.895 Y70.792
X119.908 Y70.832
X119.921 Y70.882
X119.932 Y70.942
X119.941 Y71.017
X119.946 Y71.103
X119.947 Y71.201
X119.943 Y71.3
X119.915 Y71.576
X119.861 Y71.879
X119.78 Y72.217
X119.671 Y72.586
X119.625 Y72.72
X106.819
X106.749 Y72.697
X106.67 Y72.673
X106.345 Y72.583
X106.279 Y72.567
X105.93 Y72.487
X105.886 Y72.478
X105.514 Y72.405
X105.503 Y72.403
X105.126 Y72.332
X104.757 Y72.254
X104.598 Y72.214
X104.438 Y72.168
X104.286 Y72.117
X104.139 Y72.058
X103.994 Y71.991
X103.85 Y71.913
X103.704 Y71.823
X103.557 Y71.718
X103.407 Y71.596
X103.252 Y71.453
X103.094 Y71.29
X102.937 Y71.106
X102.778 Y70.899
X102.619 Y70.669
X102.463 Y70.417
X102.312 Y70.146
X102.167 Y69.854
X102.027 Y69.541
X101.895 Y69.211
X101.772 Y68.863
X101.659 Y68.502
X101.557 Y68.127
X101.466 Y67.738
X101.386 Y67.341
X101.318 Y66.935
X101.263 Y66.522
X101.221 Y66.104
X101.191 Y65.684
X101.173 Y65.262
X101.168 Y64.841
X101.176 Y64.422
X101.195 Y64.008
X101.227 Y63.6
X101.27 Y63.2
X101.324 Y62.81
X101.389 Y62.43
X101.464 Y62.063
X101.549 Y61.71
X101.643 Y61.369
X101.744 Y61.047
X101.855 Y60.741
X101.973 Y60.45
X102.098 Y60.177
X102.228 Y59.922
X102.364 Y59.685
X102.506 Y59.464
X102.653 Y59.259
X102.715 Y59.182
X103.974 Y60.066
X103.921 Y60.237
X103.839 Y60.475
X103.627 Y61.035
X103.398 Y61.639
X103.382 Y61.682
X103.275 Y61.992
X103.257 Y62.048
X103.162 Y62.362
X103.142 Y62.434
X103.063 Y62.751
X103.045 Y62.837
X102.985 Y63.157
X102.969 Y63.262
X102.932 Y63.584
X102.924 Y63.686
G3 X102.61 Y63.972 I-0.3 J-0.014
G1 X102.31 Y63.958
X102.244 Y63.955 Z11.954
X102.18 Y63.952 Z11.976
X102.123 Y63.949 Z12.012
X102.076 Y63.947 Z12.06
X102.04 Y63.945 Z12.116
X102.018 Y63.944 Z12.18
X102.011 Z12.247
G0 Z20.
X110.655 Y69.602
G1 Z16. F200
Z12.247
X110.66 Y69.596 Z12.18 F600
X110.674 Y69.579 Z12.116
X110.697 Y69.552 Z12.06
X110.727 Y69.515 Z12.012
X110.763 Y69.471 Z11.976
X110.804 Y69.423 Z11.954
X110.847 Y69.371 Z11.947
X111.038 Y69.14
G3 X111.46 Y69.101 I0.231 J0.191
G1 X111.507 Y69.139
X111.624 Y69.227
X111.719 Y69.291
X111.841 Y69.366
X111.945 Y69.422
X112.076 Y69.486
X112.191 Y69.535
X112.307 Y69.578
X112.43 Y69.619
X112.547 Y69.653
X112.68 Y69.685
X112.784 Y69.706
X112.925 Y69.73
X113.025 Y69.743
X113.175 Y69.759
X113.264 Y69.765
X113.421 Y69.771
X113.504 Y69.772
X113.669 Y69.77
X113.744 Y69.767
X113.914 Y69.756
X114.017 Y69.746
X114.373 Y69.698
X114.495 Y69.676
X114.865 Y69.595
X114.976 Y69.566
X115.351 Y69.453
X115.453 Y69.418
X115.828 Y69.275
X115.931 Y69.231
X116.296 Y69.059
X116.398 Y69.007
X116.747 Y68.809
X116.848 Y68.746
X117.176 Y68.524
X117.282 Y68.445
X117.583 Y68.201
X117.686 Y68.108
X117.957 Y67.843
X118.061 Y67.729
X118.297 Y67.445
X118.368 Y67.353
X118.473 Y67.204
X118.517 Y67.138
X118.613 Y66.985
X118.658 Y66.909
X118.744 Y66.753
X118.781 Y66.682
X118.858 Y66.522
X118.894 Y66.442
X118.961 Y66.279
X118.992 Y66.196
X119.049 Y66.031
X119.086 Y65.908
X119.171 Y65.57
X119.189 Y65.489
X119.202 Y65.407
X119.249 Y65.062
X119.258 Y64.978
X119.263 Y64.894
X119.271 Y64.545
X119.27 Y64.466
X119.266 Y64.387
X119.237 Y64.038
X119.218 Y63.893
X119.155 Y63.547
X119.121 Y63.403
X119.024 Y63.064
X118.98 Y62.932
X118.852 Y62.603
X118.797 Y62.481
X118.641 Y62.167
X118.575 Y62.047
X118.393 Y61.752
X118.315 Y61.638
X118.11 Y61.365
X118.014 Y61.249
X117.787 Y61.003
X117.732 Y60.946
X117.674 Y60.893
X117.428 Y60.676
X117.364 Y60.622
X117.296 Y60.572
X117.034 Y60.39
X116.916 Y60.315
X116.779 Y60.238
X116.695 Y60.194
X116.555 Y60.126
X116.464 Y60.085
X116.321 Y60.027
X116.225 Y59.992
X116.079 Y59.943
X115.983 Y59.915
X115.836 Y59.877
X115.73 Y59.854
X115.58 Y59.827
X115.474 Y59.812
X115.323 Y59.796
X115.217 Y59.788
X115.064 Y59.782
X114.958
X114.805 Y59.787
X114.7 Y59.795
X114.547 Y59.811
X114.445 Y59.825
X114.292 Y59.852
X114.193 Y59.873
X114.041 Y59.91
X113.948 Y59.936
X113.797 Y59.983
X113.704 Y60.016
X113.556 Y60.073
X113.433 Y60.128
X113.143 Y60.272
X113.066 Y60.312
X112.992 Y60.358
X112.716 Y60.537
X112.648 Y60.584
X112.583 Y60.634
X112.325 Y60.846
X112.264 Y60.897
X112.207 Y60.953
X111.971 Y61.192
X111.872 Y61.303
X111.66 Y61.566
X111.576 Y61.681
X111.39 Y61.962
X111.32 Y62.079
X111.161 Y62.375
X111.106 Y62.488
X110.973 Y62.794
X110.933 Y62.897
X110.824 Y63.209
X110.793 Y63.307
X110.707 Y63.621
X110.689 Y63.694
X110.62 Y64.007
X110.606 Y64.081
X110.554 Y64.389
X110.546 Y64.441
X110.506 Y64.743
X110.501 Y64.783
X110.47 Y65.076
X110.466 Y65.118
X110.444 Y65.402
X110.443 Y65.43
X110.427 Y65.705
X110.425 Y65.735
X110.415 Y66.001
X110.414 Y66.04
X110.411 Y66.296
Y66.35
X110.417 Y66.599
X110.42 Y66.656
X110.435 Y66.897
X110.444 Y66.995
X110.474 Y67.228
X110.494 Y67.346
X110.541 Y67.568
X110.561 Y67.648
X110.584 Y67.727
X110.653 Y67.936
X110.69 Y68.037
X110.734 Y68.134
X110.83 Y68.328
X110.876 Y68.414
X110.928 Y68.496
X110.988 Y68.586
X111.062 Y68.687
X111.129 Y68.771
X111.18 Y68.832
X111.234 Y68.89
X111.311 Y68.968
X111.421 Y69.068
X111.46 Y69.101
G3 X111.5 Y69.523 I-0.191 J0.231
G1 X111.308 Y69.754
X111.266 Y69.806 Z11.954
X111.225 Y69.854 Z11.976
X111.189 Y69.898 Z12.012
X111.159 Y69.935 Z12.06
X111.136 Y69.962 Z12.116
X111.122 Y69.979 Z12.18
X111.117 Y69.985 Z12.247
G0 Z20.
X107.259 Y98.097
G1 Z16. F200
Z12.247
Y98.089 Z12.18 F600
Y98.067 Z12.116
Y98.032 Z12.06
Y97.984 Z12.012
Y97.927 Z11.976
Y97.864 Z11.954
Y97.797 Z11.947
Y97.497
G3 X107.559 Y97.197 I0.3 J0.
G1 X119.891
Y98.357
X119.84 Y98.396
X119.744 Y98.473
X119.677 Y98.53
X119.612 Y98.592
X119.525 Y98.68
X119.465 Y98.745
X119.409 Y98.812
X119.332 Y98.911
X119.243 Y99.038
X119.175 Y99.147
X119.135 Y99.216
X119.098 Y99.287
X119.041 Y99.405
X118.987 Y99.531
X118.94 Y99.656
X118.896 Y99.794
X118.861 Y99.924
X118.831 Y100.058
X118.808 Y100.191
X118.791 Y100.324
X118.78 Y100.458
X118.775 Y100.603
X118.777 Y100.737
X118.787 Y100.884
X118.802 Y101.016
X118.813 Y101.098
X118.829 Y101.178
X118.858 Y101.306
X118.877 Y101.382
X118.9 Y101.456
X118.942 Y101.58
X118.999 Y101.723
X119.053 Y101.841
X119.088 Y101.913
X119.127 Y101.982
X119.194 Y102.095
X119.263 Y102.201
X119.34 Y102.309
X119.411 Y102.402
X119.499 Y102.507
X119.565 Y102.58
X119.761 Y102.785
X119.782 Y102.806
X119.967 Y102.992
X120.12 Y103.163
X120.163 Y103.218
X120.208 Y103.285
X120.254 Y103.362
X120.298 Y103.45
X120.342 Y103.551
X120.385 Y103.67
X120.427 Y103.808
X120.466 Y103.964
X120.501 Y104.136
X120.531 Y104.323
X120.556 Y104.525
X120.574 Y104.724
X120.594 Y105.188
X120.589 Y105.655
X120.556 Y106.121
X120.498 Y106.587
X120.461 Y106.79
X120.416 Y106.997
X120.364 Y107.198
X120.305 Y107.387
X120.24 Y107.568
X120.166 Y107.743
X120.085 Y107.91
X119.996 Y108.072
X119.897 Y108.229
X119.789 Y108.38
X119.67 Y108.528
X119.536 Y108.676
X119.386 Y108.824
X119.223 Y108.968
X119.042 Y109.113
X118.844 Y109.256
X118.629 Y109.396
X118.396 Y109.534
X118.147 Y109.667
X117.879 Y109.796
X117.598 Y109.921
X117.301 Y110.038
X116.988 Y110.151
X116.663 Y110.255
X116.327 Y110.352
X115.98 Y110.439
X115.623 Y110.519
X115.259 Y110.589
X114.887 Y110.649
X114.511 Y110.698
X114.128 Y110.737
X113.746 Y110.765
X113.359 Y110.782
X112.973 Y110.788
X112.59 Y110.782
X112.205 Y110.764
X111.826 Y110.736
X111.454 Y110.696
X111.085 Y110.644
X110.721 Y110.581
X110.365 Y110.507
X110.018 Y110.423
X109.683 Y110.329
X109.355 Y110.224
X109.037 Y110.11
X108.733 Y109.987
X108.44 Y109.854
X108.16 Y109.715
X107.894 Y109.567
X107.639 Y109.411
X107.401 Y109.251
X107.177 Y109.083
X106.966 Y108.911
X106.771 Y108.735
X106.593 Y108.555
X106.427 Y108.37
X106.275 Y108.181
X106.14 Y107.992
X106.019 Y107.8
X105.91 Y107.603
X105.815 Y107.403
X105.734 Y107.201
X105.665 Y106.994
X105.609 Y106.785
X105.565 Y106.567
X105.534 Y106.346
X105.517 Y106.117
X105.512 Y105.88
X105.521 Y105.636
X105.544 Y105.382
X105.583 Y105.121
X105.636 Y104.849
X105.706 Y104.568
X105.792 Y104.279
X105.896 Y103.979
X106.018 Y103.669
X106.157 Y103.349
X106.314 Y103.023
X106.489 Y102.689
X106.695 Y102.325
X106.728 Y102.263
X106.769 Y102.182
X106.816 Y102.081
X106.848 Y102.004
X106.898 Y101.866
X106.92 Y101.794
X106.953 Y101.663
X106.967 Y101.596
X106.987 Y101.479
X106.997 Y101.36
X107. Y101.297
X107.001 Y101.184
X106.994 Y101.072
X106.988 Y101.014
G2 X106.941 Y100.767 I-1.492 J0.154
G1 X106.926 Y100.713
G2 X106.817 Y100.432 I-1.445 J0.401
G1 X106.792 Y100.383
G2 X106.643 Y100.148 I-1.336 J0.682
G1 X106.609 Y100.104
G2 X106.431 Y99.911 I-1.187 J0.917
G1 X106.387 Y99.871
G2 X106.148 Y99.694 I-1.009 J1.11
G1 X106.036 Y99.627
G2 X105.767 Y99.5 I-0.77 J1.287
G1 X105.626 Y99.45
X105.54 Y99.422
X105.451 Y99.4
X105.285 Y99.363
X105.171 Y99.342
X104.989 Y99.316
X104.909 Y99.307
X104.716 Y99.29
X104.641 Y99.285
X104.245 Y99.27
X104.184 Y99.269
X103.796 Y99.27
X103.755 Y99.271
X103.408 Y99.281
X98.943
Y97.197
X107.559
G3 X107.859 Y97.497 I0. J0.3
G1 Y97.797
Y97.864 Z11.954
Y97.927 Z11.976
Y97.984 Z12.012
Y98.032 Z12.06
Y98.067 Z12.116
Y98.089 Z12.18
Y98.097 Z12.247
G0 Z20.
X108.209 Y99.169
G1 Z16. F200
Z12.247
X108.213 Y99.175 Z12.18 F600
X108.226 Y99.193 Z12.116
X108.247 Y99.222 Z12.06
X108.275 Y99.261 Z12.012
X108.309 Y99.307 Z11.976
X108.346 Y99.358 Z11.954
X108.386 Y99.412 Z11.947
X108.562 Y99.654
G3 X108.616 Y99.877 I-0.242 J0.177
X108.497 Y100.073 I-0.296 J-0.046
G1 X108.447 Y100.111
X108.281 Y100.243
X108.212 Y100.302
X108.053 Y100.445
X107.985 Y100.51
X107.835 Y100.663
X107.768 Y100.736
X107.628 Y100.899
X107.569 Y100.972
X107.439 Y101.144
X107.379 Y101.229
X107.261 Y101.41
X107.211 Y101.492
X107.105 Y101.68
X107.055 Y101.777
X106.963 Y101.972
X106.922 Y102.069
X106.844 Y102.27
X106.809 Y102.37
X106.746 Y102.574
X106.716 Y102.686
X106.669 Y102.894
X106.649 Y102.999
X106.617 Y103.209
X106.604 Y103.322
X106.588 Y103.533
X106.584 Y103.646
Y103.856
X106.589 Y103.978
X106.606 Y104.186
X106.619 Y104.296
X106.651 Y104.5
X106.672 Y104.61
X106.719 Y104.811
X106.753 Y104.932
X106.816 Y105.126
X106.856 Y105.235
X106.934 Y105.424
X106.985 Y105.535
X107.077 Y105.715
X107.133 Y105.814
X107.238 Y105.986
X107.3 Y106.08
X107.418 Y106.244
X107.497 Y106.344
X107.628 Y106.497
X107.699 Y106.574
X107.84 Y106.717
X107.916 Y106.789
X108.068 Y106.923
X108.149 Y106.99
X108.31 Y107.113
X108.391 Y107.17
X108.561 Y107.283
X108.631 Y107.327
X108.808 Y107.431
X108.877 Y107.469
X109.06 Y107.564
X109.156 Y107.61
X109.538 Y107.775
X109.647 Y107.817
X110.044 Y107.953
X110.129 Y107.979
X110.533 Y108.091
X110.6 Y108.108
X111.007 Y108.201
X111.066 Y108.214
X111.473 Y108.29
X111.525 Y108.298
X111.93 Y108.359
X111.994 Y108.368
X112.397 Y108.411
X112.471 Y108.417
X112.876 Y108.44
X112.972 Y108.442
X113.38 Y108.439
X113.485 Y108.435
X113.899 Y108.403
X114.015 Y108.389
X114.436 Y108.323
X114.551 Y108.3
X114.98 Y108.198
X115.091 Y108.167
X115.524 Y108.028
X115.628 Y107.991
X116.061 Y107.816
X116.161 Y107.771
X116.586 Y107.562
X116.677 Y107.513
X117.085 Y107.276
X117.18 Y107.216
X117.562 Y106.954
X117.637 Y106.899
X117.815 Y106.76
X117.864 Y106.72
X118.032 Y106.577
X118.081 Y106.533
X118.238 Y106.387
X118.299 Y106.328
X118.443 Y106.178
X118.5 Y106.115
X118.631 Y105.962
X118.692 Y105.886
X118.809 Y105.73
X118.869 Y105.644
X118.971 Y105.486
X119.032 Y105.382
X119.118 Y105.222
X119.175 Y105.104
X119.245 Y104.941
X119.293 Y104.816
X119.347 Y104.651
X119.385 Y104.508
X119.422 Y104.341
X119.448 Y104.193
X119.468 Y104.024
X119.478 Y103.883
X119.482 Y103.711
X119.478 Y103.564
X119.465 Y103.39
X119.449 Y103.257
X119.42 Y103.082
X119.394 Y102.959
X119.349 Y102.781
X119.314 Y102.663
X119.253 Y102.485
X119.217 Y102.391
X119.142 Y102.212
X119.104 Y102.127
X119.015 Y101.947
X118.971 Y101.866
X118.869 Y101.688
X118.827 Y101.619
X118.713 Y101.443
X118.673 Y101.384
X118.549 Y101.211
X118.499 Y101.145
X118.364 Y100.977
X118.319 Y100.924
X118.175 Y100.761
X118.125 Y100.707
X117.974 Y100.552
X117.925 Y100.504
X117.767 Y100.356
X117.711 Y100.306
X117.548 Y100.168
X117.489 Y100.121
X117.32 Y99.992
X117.254 Y99.944
X117.082 Y99.827
X117.01 Y99.781
X116.835 Y99.676
X116.76 Y99.634
X116.581 Y99.54
X116.503 Y99.502
X116.322 Y99.42
X116.239 Y99.385
X116.056 Y99.315
X115.974 Y99.286
X115.788 Y99.227
X115.67 Y99.195
X115.292 Y99.108
X115.156 Y99.083
X114.77 Y99.031
X114.673 Y99.022
X114.281 Y98.995
X114.193 Y98.991
X113.403 Y98.983
X113.369
X112.581 Y98.993
X112.556 Y98.994
X111.778 Y99.017
X111.706 Y99.02
X111.318 Y99.05
X111.238 Y99.059
X110.852 Y99.11
X110.735 Y99.13
X110.351 Y99.212
X110.254 Y99.236
X110.064 Y99.29
X109.995 Y99.311
X109.805 Y99.375
X109.726 Y99.405
X109.539 Y99.48
X109.465 Y99.512
X109.28 Y99.598
X109.201 Y99.637
X109.019 Y99.735
X108.943 Y99.779
X108.766 Y99.888
X108.695 Y99.935
X108.523 Y100.055
X108.497 Y100.073
G3 X108.078 Y100.008 I-0.177 J-0.242
G1 X107.901 Y99.765
X107.862 Y99.711 Z11.954
X107.824 Y99.66 Z11.976
X107.791 Y99.614 Z12.012
X107.763 Y99.576 Z12.06
X107.742 Y99.547 Z12.116
X107.729 Y99.529 Z12.18
X107.724 Y99.523 Z12.247
G0 Z20.
X114.187 Y135.522
G1 Z16. F200
Z12.247
X114.188 Y135.515 Z12.18 F600
X114.19 Y135.493 Z12.116
X114.193 Y135.457 Z12.06
X114.197 Y135.41 Z12.012
X114.202 Y135.353 Z11.976
X114.208 Y135.29 Z11.954
X114.214 Y135.224 Z11.947
X114.241 Y134.925
G3 X114.348 Y134.721 I0.299 J0.027
X114.567 Y134.653 I0.192 J0.23
G1 X114.852 Y134.679
X115.155 Y134.716
X115.45 Y134.762
X115.741 Y134.819
X116.027 Y134.886
X116.303 Y134.961
X116.571 Y135.046
X116.831 Y135.141
X117.085 Y135.247
X117.332 Y135.361
X117.567 Y135.483
X117.797 Y135.618
X118.018 Y135.759
X118.228 Y135.909
X118.434 Y136.072
X118.63 Y136.24
X118.817 Y136.417
X118.997 Y136.605
X119.17 Y136.801
X119.334 Y137.006
X119.49 Y137.219
X119.637 Y137.438
X119.776 Y137.667
X119.908 Y137.905
X120.029 Y138.144
X120.142 Y138.393
X120.247 Y138.651
X120.342 Y138.913
X120.429 Y139.179
X120.506 Y139.449
X120.573 Y139.724
X120.631 Y140.005
X120.679 Y140.288
X120.718 Y140.577
X120.748 Y140.869
X120.769 Y141.162
X120.779 Y141.458
X120.78 Y141.76
X120.771 Y142.063
X120.753 Y142.368
X120.724 Y142.676
X120.687 Y142.988
X120.639 Y143.3
X120.581 Y143.617
X120.512 Y143.937
X120.434 Y144.259
X120.346 Y144.584
X120.247 Y144.911
X120.139 Y145.241
X120.041 Y145.512
X119.98 Y145.553
X119.825 Y145.641
X119.694 Y145.702
X119.587 Y145.741
X119.502 Y145.763
X119.444 Y145.772
X119.402 Y145.773
X119.373 Y145.77
X119.354 Y145.766
X119.337 Y145.761
X119.313 Y145.749
X119.288 Y145.733
X119.265 Y145.714
X119.243 Y145.692
X119.221 Y145.665
X119.204 Y145.638
X119.195 Y145.621
X119.192 Y145.612
Y145.609
X119.194 Y145.59
X119.203 Y145.55
X119.225 Y145.482
X119.263 Y145.382
X119.401 Y145.06
X119.405 Y145.051
X119.558 Y144.688
X119.587 Y144.613
X119.655 Y144.424
X119.68 Y144.348
X119.739 Y144.152
X119.764 Y144.058
X119.811 Y143.855
X119.831 Y143.757
X119.865 Y143.547
X119.878 Y143.438
X119.897 Y143.221
X119.903 Y143.117
X119.907 Y142.894
X119.905 Y142.795
X119.894 Y142.566
X119.887 Y142.472
X119.861 Y142.238
X119.85 Y142.159
X119.811 Y141.923
X119.794 Y141.837
X119.74 Y141.598
X119.724 Y141.535
X119.659 Y141.296
X119.639 Y141.227
X119.562 Y140.99
X119.539 Y140.925
X119.451 Y140.691
X119.43 Y140.638
X119.333 Y140.407
X119.306 Y140.346
X119.2 Y140.122
X119.171 Y140.064
X119.056 Y139.846
X119.022 Y139.785
X118.899 Y139.576
X118.86 Y139.514
X118.728 Y139.313
X118.682 Y139.246
X118.542 Y139.056
X118.487 Y138.986
X118.338 Y138.807
X118.284 Y138.746
X118.127 Y138.577
X118.055 Y138.505
X117.889 Y138.349
X117.815 Y138.284
X117.64 Y138.14
X117.558 Y138.077
X117.373 Y137.945
X117.294 Y137.892
X117.101 Y137.772
X117.008 Y137.719
X116.805 Y137.612
X116.727 Y137.574
X116.516 Y137.478
X116.438 Y137.445
X116.219 Y137.36
X116.137 Y137.331
X115.911 Y137.258
X115.846 Y137.238
X115.612 Y137.174
X115.521 Y137.152
X115.039 Y137.052
X114.94 Y137.035
X114.442 Y136.966
X114.367 Y136.958
X113.864 Y136.914
X113.802 Y136.91
X113.299 Y136.887
X113.248 Y136.885
X112.755 Y136.879
X112.696 Y136.88
X112.215 Y136.893
X112.15 Y136.896
X111.685 Y136.929
X111.602 Y136.937
X111.154 Y136.994
X111.051 Y137.011
X110.622 Y137.096
X110.502 Y137.125
X110.092 Y137.242
X109.998 Y137.272
X109.8 Y137.343
X109.729 Y137.37
X109.537 Y137.45
X109.469 Y137.481
X109.282 Y137.57
X109.221 Y137.6
X109.039 Y137.697
X108.968 Y137.738
X108.793 Y137.844
X108.73 Y137.885
X108.56 Y138.
X108.498 Y138.044
X108.336 Y138.166
X108.27 Y138.218
X108.115 Y138.349
X108.056 Y138.401
X107.909 Y138.539
X107.849 Y138.599
X107.711 Y138.744
X107.651 Y138.811
X107.522 Y138.964
X107.462 Y139.041
X107.344 Y139.201
X107.286 Y139.285
X107.179 Y139.453
X107.123 Y139.549
X107.029 Y139.724
X106.978 Y139.827
X106.897 Y140.01
X106.851 Y140.127
X106.785 Y140.318
X106.752 Y140.429
X106.7 Y140.628
X106.673 Y140.749
X106.637 Y140.955
X106.621 Y141.074
X106.601 Y141.289
X106.595 Y141.401
X106.591 Y141.623
X106.593 Y141.721
X106.604 Y141.952
X106.611 Y142.045
X106.637 Y142.282
X106.646 Y142.35
X106.684 Y142.593
X106.695 Y142.655
X106.745 Y142.905
X106.758 Y142.965
X106.882 Y143.476
X106.89 Y143.506
X107.024 Y144.012
X107.139 Y144.486
X107.177 Y144.674
X107.202 Y144.846
X107.215 Y144.987
Y145.095
X107.209 Y145.178
X107.2 Y145.225
X107.193 Y145.246
X107.187 Y145.259
X107.175 Y145.276
X107.149 Y145.306
X107.099 Y145.349
X107.013 Y145.408
X106.887 Y145.477
X106.714 Y145.553
X106.494 Y145.631
X106.237 Y145.703
X106.099 Y145.544
X105.932 Y145.312
X105.777 Y145.053
X105.635 Y144.765
X105.507 Y144.446
X105.396 Y144.099
X105.305 Y143.726
X105.234 Y143.325
X105.185 Y142.903
X105.162 Y142.464
X105.166 Y142.007
X105.195 Y141.538
X105.253 Y141.064
X105.341 Y140.586
X105.457 Y140.11
X105.603 Y139.638
X105.776 Y139.179
X105.978 Y138.732
X106.213 Y138.292
X106.331 Y138.096
X106.461 Y137.896
X106.597 Y137.702
X106.741 Y137.513
X106.891 Y137.329
X107.047 Y137.153
X107.21 Y136.981
X107.379 Y136.817
X107.556 Y136.657
X107.739 Y136.504
X107.931 Y136.356
X108.13 Y136.212
X108.336 Y136.076
X108.551 Y135.944
X108.774 Y135.817
X109.003 Y135.697
X109.244 Y135.582
X109.491 Y135.472
X109.748 Y135.368
X110.013 Y135.269
X110.283 Y135.177
X110.552 Y135.095
X111.14 Y134.939
X111.739 Y134.814
X112.355 Y134.72
X112.983 Y134.657
X113.623 Y134.627
X113.927 Y134.626
X114.24 Y134.634
X114.547 Y134.651
X114.567 Y134.653
G3 X114.839 Y134.979 I-0.027 J0.299
G1 X114.812 Y135.278
X114.806 Y135.344 Z11.954
X114.8 Y135.407 Z11.976
X114.795 Y135.464 Z12.012
X114.791 Y135.511 Z12.06
X114.787 Y135.547 Z12.116
X114.785 Y135.569 Z12.18
Y135.576 Z12.247
G0 Z30.

(2D Pocket3)
G64
X134.257 Y346.719
Z30.
Z20.
G1 Z12.747 F200
Y346.712 Z12.68 F600
Y346.689 Z12.616
Y346.654 Z12.56
Y346.606 Z12.512
Y346.549 Z12.476
Y346.486 Z12.454
Y346.419 Z12.447
Y345.319
Y45.769
Y45.757
Y45.69 Z12.454
Y45.627 Z12.476
Y45.57 Z12.512
Y45.523 Z12.56
Y45.487 Z12.616
Y45.465 Z12.68
Y45.457 Z12.747
G0 Z20.
X132.742 Y348.234
G1 Z12.717 F200
X132.741 Y348.228 Z12.657 F600
X132.738 Y348.208 Z12.599
X132.733 Y348.176 Z12.548
X132.726 Y348.134 Z12.506
X132.718 Y348.084 Z12.473
X132.709 Y348.027 Z12.453
X132.7 Y347.968 Z12.447
X132.556 Y347.057
X132.552 Y347.01
Y44.066
X132.556 Y44.019
X132.658 Y43.371
X132.669 Y43.305 Z12.454
X132.679 Y43.242 Z12.476
X132.688 Y43.186 Z12.512
X132.695 Y43.139 Z12.56
X132.701 Y43.104 Z12.616
X132.704 Y43.082 Z12.68
X132.705 Y43.074 Z12.747
G0 Z30.
X39.854 Y43.896
Z20.
G1 Z12.747 F200
Y43.903 Z12.68 F600
Y43.925 Z12.616
Y43.961 Z12.56
Y44.009 Z12.512
Y44.065 Z12.476
Y44.129 Z12.454
Y44.196 Z12.447
Y45.327
Y344.86
Y344.872
Y344.939 Z12.454
Y345.002 Z12.476
Y345.059 Z12.512
Y345.106 Z12.56
Y345.142 Z12.616
Y345.164 Z12.68
Y345.172 Z12.747
G0 Z20.
X41.366 Y42.38
G1 Z12.717 F200
X41.367 Y42.386 Z12.657 F600
X41.371 Y42.406 Z12.599
X41.376 Y42.438 Z12.548
X41.382 Y42.48 Z12.506
X41.39 Y42.531 Z12.473
X41.399 Y42.587 Z12.453
X41.409 Y42.646 Z12.447
X41.555 Y43.572
X41.559 Y43.619
Y346.564
X41.555 Y346.611
X41.453 Y347.259
X41.442 Y347.325 Z12.454
X41.432 Y347.388 Z12.476
X41.423 Y347.444 Z12.512
X41.416 Y347.491 Z12.56
X41.41 Y347.526 Z12.616
X41.407 Y347.548 Z12.68
X41.406 Y347.555 Z12.747
G0 Z30.
X4.054 Y289.12
Z20.
G1 Z16. F200
Z10.247 F600
Y289.128 Z10.18
Y289.15 Z10.116
Y289.186 Z10.06
Y289.233 Z10.012
Y289.29 Z9.976
Y289.354 Z9.954
Y289.42 Z9.947
Y289.45
Y295.542
G3 X3.629 Y295.967 I-0.425 J0.
X3.204 Y295.543 I0. J-0.425
G1 X3.2 Y292.556
X3.204 Y292.496
X3.629 Y289.45
X4.918 Y284.48
G3 X5.436 Y284.175 I0.411 J0.107
X5.754 Y284.587 I-0.107 J0.411
G1 Y300.422
G3 X5.329 Y300.847 I-0.425 J0.
X4.904 Y300.422 I0. J-0.425
G1 Y292.504
X5.329 Y284.587
X5.336 Y284.531
X5.35 Y284.477
X5.37 Y284.425
X6.646 Y281.777
G3 X7.213 Y281.578 I0.383 J0.184
X7.454 Y281.961 I-0.184 J0.383
G1 Y303.03
G3 X7.029 Y303.455 I-0.425 J0.
X6.604 Y303.031 I0. J-0.425
G1 Y292.496
X7.029 Y281.961
X7.04 Y281.882
X7.065 Y281.806
X7.105 Y281.736
X8.38 Y279.901
G3 X8.972 Y279.794 I0.349 J0.243
X9.154 Y280.143 I-0.243 J0.349
G1 Y304.848
G3 X8.729 Y305.273 I-0.425 J0.
X8.304 Y304.848 I0. J-0.425
G1 Y292.495
X8.729 Y280.143
G3 X8.842 Y279.869 I0.425 J0.015
G1 X10.117 Y278.491
G3 X10.718 Y278.468 I0.312 J0.289
X10.854 Y278.78 I-0.289 J0.312
G1 Y306.227
G3 X10.429 Y306.652 I-0.425 J0.
X10.004 Y306.227 I0. J-0.425
G1 Y292.504
X10.429 Y278.78
G3 X10.578 Y278.47 I0.425 J0.013
G1 X11.853 Y277.379
G3 X12.452 Y277.426 I0.276 J0.323
X12.554 Y277.702 I-0.323 J0.276
G1 Y307.287
G3 X12.129 Y307.712 I-0.425 J0.
X11.704 Y307.287 I0. J-0.425
G1 Y292.495
X12.129 Y277.702
G3 X12.321 Y277.359 I0.425 J0.012
G1 X13.596 Y276.522
G3 X14.184 Y276.644 I0.233 J0.355
X14.254 Y276.878 I-0.355 J0.233
G1 Y308.128
G3 X13.829 Y308.553 I-0.425 J0.
X13.404 Y308.128 I0. J-0.425
G1 Y292.503
X13.829 Y276.878
G3 X14.073 Y276.505 I0.425 J0.012
G1 X15.348 Y275.904
G3 X15.913 Y276.107 I0.181 J0.384
X15.954 Y276.288 I-0.384 J0.181
G1 Y308.7
G3 X15.529 Y309.125 I-0.425 J0.
X15.104 Y308.7 I0. J-0.425
G1 Y292.494
X15.529 Y276.288
G3 X15.832 Y275.892 I0.425 J0.011
G1 X17.107 Y275.511
G3 X17.636 Y275.796 I0.122 J0.407
X17.654 Y275.918 I-0.407 J0.122
G1 Y309.087
G3 X17.229 Y309.512 I-0.425 J0.
X16.804 Y309.087 I0. J-0.425
G1 Y292.502
X17.229 Y275.918
G3 X17.568 Y275.512 I0.425 J0.011
G1 X18.843 Y275.249
G3 X19.345 Y275.579 I0.086 J0.416
X19.354 Y275.665 I-0.416 J0.086
G1 Y309.339
G3 X18.929 Y309.764 I-0.425 J0.
X18.504 Y309.339 I0. J-0.425
G1 Y292.502
X18.929 Y275.665
G3 X19.345 Y275.251 I0.425 J0.011
G1 X20.62 Y275.223
G3 X20.926 Y275.344 I0.009 J0.425
X21.054 Y275.648 I-0.297 J0.304
G1 Y309.356
G3 X20.629 Y309.781 I-0.425 J0.
X20.204 Y309.356 I0. J-0.425
G1 Y292.502
X20.629 Y275.648
G3 X20.772 Y275.34 I0.425 J0.011
X21.095 Y275.236 I0.282 J0.318
G1 X22.37 Y275.359
G3 X22.754 Y275.782 I-0.041 J0.423
G1 Y309.221
G3 X22.329 Y309.646 I-0.425 J0.
X21.904 Y309.221 I0. J-0.425
G1 Y292.501
X22.329 Y275.782
G3 X22.765 Y275.368 I0.425 J0.011
X22.838 Y275.376 I-0.011 J0.425
G1 X24.113 Y275.635
G3 X24.454 Y276.051 I-0.084 J0.417
G1 Y308.951
G3 X24.029 Y309.376 I-0.425 J0.
X23.604 Y308.951 I0. J-0.425
G1 Y292.501
X24.029 Y276.051
G3 X24.465 Y275.637 I0.425 J0.011
X24.607 Y275.666 I-0.011 J0.425
G1 X25.882 Y276.159
G3 X26.154 Y276.556 I-0.153 J0.396
G1 Y308.429
G3 X25.729 Y308.854 I-0.425 J0.
X25.304 Y308.429 I0. J-0.425
G1 Y292.492
X25.729 Y276.556
G3 X26.165 Y276.142 I0.425 J0.011
X26.357 Y276.194 I-0.011 J0.425
G1 X27.632 Y276.889
G3 X27.854 Y277.262 I-0.203 J0.373
G1 Y307.739
G3 X27.429 Y308.164 I-0.425 J0.
X27.004 Y307.739 I0. J-0.425
G1 Y292.5
X27.429 Y277.262
G3 X27.866 Y276.849 I0.425 J0.012
X28.098 Y276.926 I-0.012 J0.425
G1 X29.373 Y277.823
G3 X29.554 Y278.171 I-0.244 J0.348
G1 Y306.83
G3 X29.129 Y307.255 I-0.425 J0.
X28.704 Y306.83 I0. J-0.425
G1 Y292.5
X29.129 Y278.171
G3 X29.566 Y277.758 I0.425 J0.013
X29.804 Y277.84 I-0.013 J0.425
G1 X31.079 Y278.769
G3 X31.254 Y279.113 I-0.25 J0.343
G1 Y305.887
G3 X30.829 Y306.312 I-0.425 J0.
X30.404 Y305.887 I0. J-0.425
G1 Y292.5
X30.829 Y279.113
G3 X31.249 Y278.701 I0.425 J0.013
G1 X32.495 Y278.687
G3 X32.799 Y278.81 I0.005 J0.425
X32.925 Y279.112 I-0.299 J0.302
G1 X32.909 Y304.5
X32.91 Y305.897
G3 X32.486 Y306.322 I-0.425 J0.
X32.185 Y306.198 I0. J-0.425
X32.06 Y305.897 I0.3 J-0.301
G1 X32.067 Y292.504
X32.5 Y279.112
G3 X32.92 Y278.701 I0.425 J0.014
G1 X34.225 Y278.687
G3 X34.528 Y278.81 I0.004 J0.425
X34.654 Y279.112 I-0.299 J0.302
G1 Y305.886
G3 X34.229 Y306.311 I-0.425 J0.
X33.804 Y305.886 I0. J-0.425
G1 Y292.499
X34.229 Y279.112
G3 X34.649 Y278.701 I0.425 J0.013
G1 X35.924 Y278.687
G3 X36.228 Y278.81 I0.005 J0.425
X36.354 Y279.112 I-0.299 J0.302
G1 Y305.886
G3 X35.929 Y306.311 I-0.425 J0.
X35.504 Y305.886 I0. J-0.425
G1 Y292.499
X35.929 Y279.112
G3 X36.348 Y278.7 I0.425 J0.013
G1 X37.628 Y278.682
G3 X37.932 Y278.804 I0.006 J0.425
X38.059 Y279.107 I-0.298 J0.303
G1 Y305.897
X38.055 Y305.944
X37.953 Y306.592
X37.942 Y306.658 Z9.954
X37.932 Y306.72 Z9.976
X37.923 Y306.777 Z10.012
X37.916 Y306.824 Z10.06
X37.91 Y306.859 Z10.116
X37.907 Y306.881 Z10.18
X37.906 Y306.888 Z10.247
G0 Z30.
X170.057 Y296.338
Z20.
G1 Z16. F200
Z10.247 F600
Y296.33 Z10.18
Y296.308 Z10.116
Y296.272 Z10.06
Y296.225 Z10.012
Y296.168 Z9.976
Y296.104 Z9.954
Y296.038 Z9.947
Y296.008
Y289.899
G3 X170.482 Y289.474 I0.425 J0.
X170.907 Y289.898 I0. J0.425
G1 X170.911 Y292.894
X170.907 Y292.953
X170.482 Y296.008
X169.193 Y300.978
G3 X168.675 Y301.283 I-0.411 J-0.107
X168.357 Y300.871 I0.107 J-0.411
G1 Y285.036
G3 X168.782 Y284.611 I0.425 J0.
X169.207 Y285.036 I0. J0.425
G1 Y292.954
X168.782 Y300.871
X168.775 Y300.927
X168.761 Y300.981
X168.741 Y301.033
X167.465 Y303.681
G3 X166.898 Y303.88 I-0.383 J-0.184
X166.657 Y303.497 I0.184 J-0.383
G1 Y282.427
G3 X167.082 Y282.002 I0.425 J0.
X167.507 Y282.427 I0. J0.425
G1 Y292.962
X167.082 Y303.497
X167.071 Y303.576
X167.046 Y303.652
X167.006 Y303.722
X165.731 Y305.557
G3 X165.139 Y305.664 I-0.349 J-0.243
X164.957 Y305.315 I0.243 J-0.349
G1 Y280.593
G3 X165.382 Y280.168 I0.425 J0.
X165.807 Y280.593 I0. J0.425
G1 Y292.954
X165.382 Y305.315
G3 X165.269 Y305.589 I-0.425 J-0.015
G1 X163.994 Y306.967
G3 X163.393 Y306.99 I-0.312 J-0.289
X163.257 Y306.678 I0.289 J-0.312
G1 Y279.231
G3 X163.682 Y278.806 I0.425 J0.
X164.107 Y279.231 I0. J0.425
G1 Y292.954
X163.682 Y306.678
G3 X163.533 Y306.988 I-0.425 J-0.013
G1 X162.258 Y308.079
G3 X161.659 Y308.032 I-0.276 J-0.323
X161.557 Y307.756 I0.323 J-0.276
G1 Y278.171
G3 X161.982 Y277.746 I0.425 J0.
X162.407 Y278.171 I0. J0.425
G1 Y292.963
X161.982 Y307.756
G3 X161.79 Y308.099 I-0.425 J-0.012
G1 X160.515 Y308.936
G3 X159.927 Y308.814 I-0.233 J-0.355
X159.857 Y308.58 I0.355 J-0.233
G1 Y277.33
G3 X160.282 Y276.905 I0.425 J0.
X160.707 Y277.33 I0. J0.425
G1 Y292.955
X160.282 Y308.58
G3 X160.038 Y308.953 I-0.425 J-0.012
G1 X158.763 Y309.554
G3 X158.198 Y309.351 I-0.181 J-0.384
X158.157 Y309.17 I0.384 J-0.181
G1 Y276.758
G3 X158.582 Y276.333 I0.425 J0.
X159.007 Y276.758 I0. J0.425
G1 Y292.964
X158.582 Y309.17
G3 X158.279 Y309.566 I-0.425 J-0.011
G1 X157.004 Y309.947
G3 X156.475 Y309.662 I-0.122 J-0.407
X156.457 Y309.54 I0.407 J-0.122
G1 Y276.371
G3 X156.882 Y275.946 I0.425 J0.
X157.307 Y276.371 I0. J0.425
G1 Y292.956
X156.882 Y309.54
G3 X156.543 Y309.946 I-0.425 J-0.011
G1 X155.268 Y310.209
G3 X154.766 Y309.879 I-0.086 J-0.416
X154.757 Y309.793 I0.416 J-0.086
G1 Y276.119
G3 X155.182 Y275.694 I0.425 J0.
X155.607 Y276.119 I0. J0.425
G1 Y292.956
X155.182 Y309.793
G3 X154.766 Y310.207 I-0.425 J-0.011
G1 X153.491 Y310.235
G3 X153.185 Y310.114 I-0.009 J-0.425
X153.057 Y309.81 I0.297 J-0.304
G1 Y276.102
G3 X153.482 Y275.677 I0.425 J0.
X153.907 Y276.102 I0. J0.425
G1 Y292.956
X153.482 Y309.81
G3 X153.339 Y310.118 I-0.425 J-0.011
X153.016 Y310.222 I-0.282 J-0.318
G1 X151.741 Y310.099
G3 X151.357 Y309.676 I0.041 J-0.423
G1 Y276.237
G3 X151.782 Y275.812 I0.425 J0.
X152.207 Y276.237 I0. J0.425
G1 Y292.957
X151.782 Y309.676
G3 X151.346 Y310.09 I-0.425 J-0.011
X151.273 Y310.082 I0.011 J-0.425
G1 X149.998 Y309.823
G3 X149.657 Y309.407 I0.084 J-0.417
G1 Y276.507
G3 X150.082 Y276.082 I0.425 J0.
X150.507 Y276.507 I0. J0.425
G1 Y292.957
X150.082 Y309.407
G3 X149.646 Y309.821 I-0.425 J-0.011
X149.504 Y309.792 I0.011 J-0.425
G1 X148.229 Y309.299
G3 X147.957 Y308.902 I0.153 J-0.396
G1 Y277.029
G3 X148.382 Y276.604 I0.425 J0.
X148.807 Y277.029 I0. J0.425
G1 Y292.966
X148.382 Y308.902
G3 X147.946 Y309.316 I-0.425 J-0.011
X147.754 Y309.264 I0.011 J-0.425
G1 X146.479 Y308.569
G3 X146.257 Y308.196 I0.203 J-0.373
G1 Y277.719
G3 X146.682 Y277.294 I0.425 J0.
X147.107 Y277.719 I0. J0.425
G1 Y292.957
X146.682 Y308.196
G3 X146.245 Y308.609 I-0.425 J-0.012
X146.013 Y308.532 I0.012 J-0.425
G1 X144.738 Y307.635
G3 X144.557 Y307.287 I0.244 J-0.348
G1 Y278.628
G3 X144.982 Y278.203 I0.425 J0.
X145.407 Y278.628 I0. J0.425
G1 Y292.958
X144.982 Y307.287
G3 X144.545 Y307.7 I-0.425 J-0.013
X144.307 Y307.618 I0.013 J-0.425
G1 X143.032 Y306.689
G3 X142.857 Y306.345 I0.25 J-0.343
G1 Y279.571
G3 X143.282 Y279.146 I0.425 J0.
X143.707 Y279.571 I0. J0.425
G1 Y292.958
X143.282 Y306.345
G3 X142.862 Y306.757 I-0.425 J-0.013
G1 X141.587 Y306.771
G3 X141.283 Y306.648 I-0.005 J-0.425
X141.157 Y306.346 I0.299 J-0.302
G1 Y279.571
G3 X141.582 Y279.146 I0.425 J0.
X142.007 Y279.571 I0. J0.425
G1 Y292.958
X141.582 Y306.346
G3 X141.162 Y306.757 I-0.425 J-0.013
G1 X139.887 Y306.771
G3 X139.583 Y306.648 I-0.005 J-0.425
X139.457 Y306.346 I0.299 J-0.302
G1 Y279.572
G3 X139.882 Y279.147 I0.425 J0.
X140.307 Y279.572 I0. J0.425
G1 Y292.959
X139.882 Y306.346
G3 X139.462 Y306.757 I-0.425 J-0.013
G1 X138.187 Y306.771
G3 X137.883 Y306.648 I-0.005 J-0.425
X137.757 Y306.346 I0.299 J-0.302
G1 Y279.572
G3 X138.182 Y279.147 I0.425 J0.
X138.607 Y279.572 I0. J0.425
G1 Y292.959
X138.182 Y306.346
G3 X137.763 Y306.758 I-0.425 J-0.013
G1 X136.483 Y306.776
G3 X136.179 Y306.654 I-0.006 J-0.425
X136.052 Y306.351 I0.298 J-0.303
G1 Y279.561
X136.056 Y279.514
X136.158 Y278.866
X136.169 Y278.8 Z9.954
X136.179 Y278.738 Z9.976
X136.188 Y278.681 Z10.012
X136.195 Y278.634 Z10.06
X136.201 Y278.599 Z10.116
X136.204 Y278.577 Z10.18
X136.205 Y278.57 Z10.247
G0 Z30.
X170.057 Y296.338
Z20.
G1 Z16. F200
Z10.247 F600
Y296.33 Z10.18
Y296.308 Z10.116
Y296.272 Z10.06
Y296.225 Z10.012
Y296.168 Z9.976
Y296.104 Z9.954
Y296.038 Z9.947
Y296.008
Y289.899
G3 X170.482 Y289.474 I0.425 J0.
X170.907 Y289.898 I0. J0.425
G1 X170.911 Y292.894
X170.907 Y292.953
X170.482 Y296.008
X169.193 Y300.978
G3 X168.675 Y301.283 I-0.411 J-0.107
X168.357 Y300.871 I0.107 J-0.411
G1 Y285.036
G3 X168.782 Y284.611 I0.425 J0.
X169.207 Y285.036 I0. J0.425
G1 Y292.954
X168.782 Y300.871
X168.775 Y300.927
X168.761 Y300.981
X168.741 Y301.033
X167.465 Y303.681
G3 X166.898 Y303.88 I-0.383 J-0.184
X166.657 Y303.497 I0.184 J-0.383
G1 Y282.427
G3 X167.082 Y282.002 I0.425 J0.
X167.507 Y282.427 I0. J0.425
G1 Y292.962
X167.082 Y303.497
X167.071 Y303.576
X167.046 Y303.652
X167.006 Y303.722
X165.731 Y305.557
G3 X165.139 Y305.664 I-0.349 J-0.243
X164.957 Y305.315 I0.243 J-0.349
G1 Y280.593
G3 X165.382 Y280.168 I0.425 J0.
X165.807 Y280.593 I0. J0.425
G1 Y292.954
X165.382 Y305.315
G3 X165.269 Y305.589 I-0.425 J-0.015
G1 X163.994 Y306.967
G3 X163.393 Y306.99 I-0.312 J-0.289
X163.257 Y306.678 I0.289 J-0.312
G1 Y279.231
G3 X163.682 Y278.806 I0.425 J0.
X164.107 Y279.231 I0. J0.425
G1 Y292.954
X163.682 Y306.678
G3 X163.533 Y306.988 I-0.425 J-0.013
G1 X162.258 Y308.079
G3 X161.659 Y308.032 I-0.276 J-0.323
X161.557 Y307.756 I0.323 J-0.276
G1 Y278.171
G3 X161.982 Y277.746 I0.425 J0.
X162.407 Y278.171 I0. J0.425
G1 Y292.963
X161.982 Y307.756
G3 X161.79 Y308.099 I-0.425 J-0.012
G1 X160.515 Y308.936
G3 X159.927 Y308.814 I-0.233 J-0.355
X159.857 Y308.58 I0.355 J-0.233
G1 Y277.33
G3 X160.282 Y276.905 I0.425 J0.
X160.707 Y277.33 I0. J0.425
G1 Y292.955
X160.282 Y308.58
G3 X160.038 Y308.953 I-0.425 J-0.012
G1 X158.763 Y309.554
G3 X158.198 Y309.351 I-0.181 J-0.384
X158.157 Y309.17 I0.384 J-0.181
G1 Y276.758
G3 X158.582 Y276.333 I0.425 J0.
X159.007 Y276.758 I0. J0.425
G1 Y292.964
X158.582 Y309.17
G3 X158.279 Y309.566 I-0.425 J-0.011
G1 X157.004 Y309.947
G3 X156.475 Y309.662 I-0.122 J-0.407
X156.457 Y309.54 I0.407 J-0.122
G1 Y276.371
G3 X156.882 Y275.946 I0.425 J0.
X157.307 Y276.371 I0. J0.425
G1 Y292.956
X156.882 Y309.54
G3 X156.543 Y309.946 I-0.425 J-0.011
G1 X155.268 Y310.209
G3 X154.766 Y309.879 I-0.086 J-0.416
X154.757 Y309.793 I0.416 J-0.086
G1 Y276.119
G3 X155.182 Y275.694 I0.425 J0.
X155.607 Y276.119 I0. J0.425
G1 Y292.956
X155.182 Y309.793
G3 X154.766 Y310.207 I-0.425 J-0.011
G1 X153.491 Y310.235
G3 X153.185 Y310.114 I-0.009 J-0.425
