(Dronning resterende)
(Machine)
(  vendor: Autodesk)
(  model: Generic 3-axis)
(  description: This machine has XYZ axis on the Head)
(T2  D=3. CR=0. - ZMIN=0. - flat end mill)
G90


(2D Contour5)
T2 M6 (flat end mill D=3.)
S15000 M3
G64
G54
G43 H2
G0 Z30.
G0 X64.174 Y49.889
Z31.007
Z21.007
G1 Z17.007 F133.3
Z0.55
X64.17 Y49.895 Z0.483 F400
X64.157 Y49.914 Z0.42
X64.137 Y49.943 Z0.363
X64.111 Y49.983 Z0.315
X64.079 Y50.03 Z0.28
X64.043 Y50.082 Z0.258
X64.006 Y50.138 Z0.25
X63.838 Y50.386
G3 X63.421 Y50.467 I-0.249 J-0.168
G2 X62.413 Y50.158 I-1.008 J1.491
G1 X60.38
X58.342 Y48.764
X58.433 Y48.085
X58.557 Y47.218
X58.686 Y46.359
X58.819 Y45.509
X58.957 Y44.67
X59.099 Y43.84
X59.246 Y43.022
X59.397 Y42.214
X59.553 Y41.417
X59.713 Y40.632
X59.879 Y39.859
X60.05 Y39.099
X60.226 Y38.351
X60.408 Y37.616
X60.595 Y36.895
X60.787 Y36.186
X60.985 Y35.491
X61.189 Y34.81
X61.398 Y34.141
X61.613 Y33.485
X61.833 Y32.842
X62.058 Y32.211
X62.289 Y31.591
X62.525 Y30.984
X62.767 Y30.387
X63.013 Y29.802
X63.264 Y29.227
X63.519 Y28.664
X63.779 Y28.111
X64.044 Y27.569
X64.319 Y27.025
G2 X63.553 Y24.62 I-1.606 J-0.813
G1 X63.008 Y24.333
X63.146 Y24.11
X63.176 Y24.061
X63.557 Y23.403
X63.585 Y23.352
X63.941 Y22.689
X63.968 Y22.635
X64.298 Y21.967
X64.325 Y21.911
X64.629 Y21.238
X64.654 Y21.18
X64.932 Y20.503
X64.955 Y20.443
X65.206 Y19.763
X65.228 Y19.702
X65.452 Y19.02
X65.471 Y18.957
X65.668 Y18.277
X65.685 Y18.213
X65.854 Y17.537
X65.869 Y17.471
X66.009 Y16.804
X66.022 Y16.737
X66.134 Y16.082
X66.144 Y16.012
X66.228 Y15.376
X66.236 Y15.303
X66.29 Y14.692
X66.294 Y14.634
X66.311 Y14.339
X66.313 Y14.298
X66.323 Y14.012
X66.324 Y13.969
X66.326 Y13.692
Y13.647
X66.322 Y13.38
X66.321 Y13.332
X66.31 Y13.074
X66.308 Y13.025
X66.291 Y12.777
X66.286 Y12.725
X66.263 Y12.487
X66.257 Y12.433
X66.228 Y12.207
X66.219 Y12.149
X66.184 Y11.933
X66.174 Y11.874
X66.133 Y11.668
X66.121 Y11.608
X66.075 Y11.412
X66.06 Y11.352
X66.01 Y11.165
X65.985 Y11.081
X65.872 Y10.729
X65.839 Y10.634
X65.713 Y10.306
X65.68 Y10.226
X65.403 Y9.599
X65.401 Y9.593
X65.266 Y9.29
X65.143 Y8.997
X65.027 Y8.691
X64.914 Y8.36
X64.805 Y7.996
X64.699 Y7.594
X64.597 Y7.151
X64.53 Y6.823
Y5.936
X64.741 Y5.801
X65.414
G2 X66.687 Y5.274 I0. J-1.8
G1 X67.287 Y4.674
G2 X67.815 Y3.401 I-1.273 J-1.273
G1 Y1.6
G2 X67.287 Y0.328 I-1.8 J0.
G1 X66.687 Y-0.273
G2 X65.414 Y-0.8 I-1.273 J1.273
G1 X36.6
G2 X35.328 Y-0.273 I0. J1.8
G1 X34.727 Y0.328
G2 X34.2 Y1.6 I1.273 J1.273
G1 Y3.401
G2 X34.727 Y4.674 I1.8 J0.
G1 X35.328 Y5.274
G2 X36.6 Y5.801 I1.273 J-1.273
G1 X37.274
X37.484 Y5.936
Y6.823
X37.418 Y7.151
X37.316 Y7.594
X37.21 Y7.996
X37.101 Y8.36
X36.988 Y8.691
X36.872 Y8.997
X36.749 Y9.29
X36.614 Y9.593
X36.612 Y9.599
X36.335 Y10.226
X36.302 Y10.306
X36.176 Y10.633
X36.142 Y10.73
X36.029 Y11.081
X36.005 Y11.165
X35.954 Y11.352
X35.94 Y11.412
X35.894 Y11.608
X35.881 Y11.668
X35.841 Y11.874
X35.83 Y11.933
X35.795 Y12.149
X35.787 Y12.206
X35.758 Y12.432
X35.751 Y12.488
X35.728 Y12.725
X35.724 Y12.777
X35.707 Y13.025
X35.704 Y13.074
X35.694 Y13.332
X35.692 Y13.38
X35.688 Y13.647
Y13.692
X35.691 Y13.969
X35.692 Y14.012
X35.702 Y14.298
X35.704 Y14.339
X35.72 Y14.634
X35.725 Y14.692
X35.779 Y15.303
X35.787 Y15.376
X35.87 Y16.012
X35.881 Y16.082
X35.992 Y16.737
X36.005 Y16.804
X36.146 Y17.472
X36.161 Y17.537
X36.329 Y18.213
X36.347 Y18.277
X36.543 Y18.957
X36.563 Y19.02
X36.787 Y19.701
X36.808 Y19.763
X37.06 Y20.443
X37.083 Y20.502
X37.361 Y21.18
X37.386 Y21.238
X37.69 Y21.911
X37.716 Y21.967
X38.046 Y22.635
X38.074 Y22.689
X38.43 Y23.352
X38.458 Y23.403
X38.839 Y24.061
X38.868 Y24.11
X39.007 Y24.333
X38.462 Y24.62
G2 X37.696 Y27.025 I0.84 J1.592
G1 X37.971 Y27.569
X38.235 Y28.111
X38.496 Y28.664
X38.751 Y29.227
X39.002 Y29.802
X39.248 Y30.387
X39.489 Y30.984
X39.725 Y31.591
X39.956 Y32.211
X40.182 Y32.842
X40.402 Y33.485
X40.617 Y34.141
X40.826 Y34.81
X41.029 Y35.491
X41.227 Y36.186
X41.42 Y36.895
X41.607 Y37.616
X41.788 Y38.351
X41.965 Y39.099
X42.135 Y39.859
X42.301 Y40.632
X42.462 Y41.417
X42.618 Y42.214
X42.769 Y43.022
X42.916 Y43.84
X43.058 Y44.67
X43.195 Y45.509
X43.329 Y46.359
X43.457 Y47.218
X43.582 Y48.085
X43.673 Y48.764
X41.634 Y50.158
X39.602
G2 X38.183 Y50.85 I0. J1.8
G1 X38.135 Y50.911
X38.094 Y50.96
X38.035 Y51.027
X37.955 Y51.112
X37.741 Y51.338
X37.705 Y51.377
X37.468 Y51.642
X37.389 Y51.735
X37.276 Y51.881
X37.194 Y51.995
X37.092 Y52.15
X37.042 Y52.23
X36.996 Y52.313
X36.91 Y52.477
X36.859 Y52.584
X36.815 Y52.695
X36.752 Y52.87
G2 X36.678 Y53.137 I1.693 J0.612
G1 X36.642 Y53.322
G2 X36.609 Y53.614 I1.767 J0.345
G1 X36.603 Y53.81
G2 X36.618 Y54.095 I1.799 J0.053
G1 X36.644 Y54.3
G2 X36.694 Y54.547 I1.785 J-0.232
G1 X36.753 Y54.761
X36.784 Y54.861
X36.821 Y54.96
X36.91 Y55.18
X36.981 Y55.334
X37.099 Y55.559
X37.164 Y55.673
X37.305 Y55.901
X37.361 Y55.986
X37.52 Y56.215
X37.584 Y56.3
X37.939 Y56.75
X37.993 Y56.815
X38.364 Y57.241
X38.385 Y57.265
X38.566 Y57.465
X38.573 Y57.474
X38.747 Y57.664
X38.749 Y57.666
X38.914 Y57.845
X39.066 Y58.012
X39.204 Y58.164
X39.329 Y58.302
X39.44 Y58.427
X39.543 Y58.544
G2 X40.896 Y59.158 I1.353 J-1.187
G1 X41.302
X41.388 Y59.228
X41.443 Y59.272
X41.642 Y59.424
X41.692 Y59.46
X42.105 Y59.753
X42.131 Y59.772
X42.116 Y59.804
X42.04 Y59.949
X41.947 Y60.114
X41.837 Y60.296
X41.713 Y60.491
X41.578 Y60.695
X41.266 Y61.147
X40.928 Y61.622
X40.576 Y62.111
X40.568 Y62.122
X40.223 Y62.609
X40.204 Y62.637
X39.881 Y63.111
X39.859 Y63.145
X39.71 Y63.375
X39.69 Y63.406
X39.551 Y63.63
X39.529 Y63.668
X39.401 Y63.885
X39.374 Y63.933
X39.259 Y64.143
X39.229 Y64.2
X39.128 Y64.402
X39.095 Y64.473
X39.008 Y64.666
X38.972 Y64.752
X38.901 Y64.937
X38.864 Y65.043
X38.808 Y65.219
X38.773 Y65.347
X38.733 Y65.513
X38.704 Y65.669
X38.681 Y65.825
X38.67 Y65.919
X38.663 Y66.013
X38.657 Y66.159
X38.656 Y66.268
X38.662 Y66.377
X38.673 Y66.514
G2 X38.711 Y66.762 I1.794 J-0.146
G1 X38.739 Y66.889
G2 X38.819 Y67.15 I1.756 J-0.394
G1 X38.865 Y67.267
G2 X38.991 Y67.527 I1.676 J-0.656
G1 X39.054 Y67.633
G2 X39.219 Y67.868 I1.55 J-0.915
G1 X39.299 Y67.964
G2 X39.491 Y68.162 I1.385 J-1.15
G1 X39.589 Y68.249
X39.684 Y68.327
X39.785 Y68.399
X39.899 Y68.476
G2 X40.532 Y68.74 I0.997 J-1.499
G1 X43.044 Y69.258
X43.094 Y69.437
X43.126 Y69.539
X43.235 Y69.851
X43.273 Y69.95
X43.403 Y70.264
X43.446 Y70.36
X43.598 Y70.673
X43.649 Y70.769
X43.822 Y71.078
X43.881 Y71.175
X44.076 Y71.477
X44.144 Y71.574
X44.361 Y71.864
X44.438 Y71.96
X44.675 Y72.236
X44.76 Y72.329
X45.016 Y72.588
X45.108 Y72.674
X45.203 Y72.757
X45.151 Y72.948
X45.127 Y73.049
X45.079 Y73.279
X45.063 Y73.371
X45.026 Y73.606
X45.015 Y73.696
X44.993 Y73.909
X44.986 Y73.997
X44.974 Y74.209
X44.972 Y74.301
X44.971 Y74.512
X44.973 Y74.603
X44.983 Y74.814
X44.99 Y74.907
X45.011 Y75.117
X45.023 Y75.21
X45.055 Y75.419
X45.072 Y75.513
X45.115 Y75.72
X45.137 Y75.813
X45.192 Y76.019
X45.219 Y76.112
X45.285 Y76.315
X45.316 Y76.405
X45.393 Y76.606
X45.43 Y76.695
X45.518 Y76.894
X45.558 Y76.978
X45.658 Y77.174
X45.702 Y77.257
X45.813 Y77.448
X45.861 Y77.528
X45.982 Y77.714
X46.035 Y77.792
X46.166 Y77.973
X46.224 Y78.049
X46.365 Y78.223
X46.426 Y78.295
X46.576 Y78.461
X46.644 Y78.533
X46.802 Y78.691
X46.876 Y78.76
X47.043 Y78.909
X47.121 Y78.974
X47.295 Y79.113
X47.38 Y79.176
X47.562 Y79.304
X47.651 Y79.363
X47.84 Y79.48
X47.934 Y79.534
X48.13 Y79.639
X48.228 Y79.688
X48.43 Y79.782
X48.529 Y79.823
X48.737 Y79.905
X48.836 Y79.941
X49.051 Y80.01
X49.151 Y80.04
X49.371 Y80.098
X49.468 Y80.12
X49.693 Y80.166
X49.789 Y80.183
X50.02 Y80.217
X50.112 Y80.229
X50.348 Y80.251
X50.437 Y80.258
X50.678 Y80.269
X50.764 Y80.271
X51.007
X51.251
X51.337 Y80.269
X51.578 Y80.258
X51.667 Y80.251
X51.903 Y80.229
X51.995 Y80.217
X52.226 Y80.183
X52.321 Y80.166
X52.547 Y80.12
X52.644 Y80.098
X52.864 Y80.04
X52.964 Y80.01
X53.178 Y79.941
X53.278 Y79.905
X53.486 Y79.823
X53.585 Y79.781
X53.787 Y79.688
X53.884 Y79.64
X54.08 Y79.534
X54.175 Y79.48
X54.364 Y79.363
X54.452 Y79.305
X54.635 Y79.176
X54.719 Y79.113
X54.894 Y78.974
X54.972 Y78.909
X55.139 Y78.76
X55.213 Y78.69
X55.371 Y78.532
X55.438 Y78.462
X55.588 Y78.295
X55.651 Y78.222
X55.791 Y78.048
X55.849 Y77.973
X55.979 Y77.792
X56.032 Y77.715
X56.153 Y77.529
X56.202 Y77.448
X56.312 Y77.257
X56.357 Y77.174
X56.456 Y76.978
X56.497 Y76.894
X56.585 Y76.695
X56.622 Y76.606
X56.699 Y76.405
X56.73 Y76.315
X56.796 Y76.111
X56.823 Y76.019
X56.877 Y75.813
X56.899 Y75.72
X56.942 Y75.513
X56.959 Y75.42
X56.991 Y75.211
X57.003 Y75.117
X57.024 Y74.907
X57.031 Y74.814
X57.041 Y74.603
X57.043 Y74.511
Y74.3
X57.04 Y74.21
X57.029 Y73.998
X57.022 Y73.909
X57. Y73.696
X56.988 Y73.606
X56.952 Y73.371
X56.935 Y73.279
X56.888 Y73.049
X56.863 Y72.948
X56.812 Y72.757
X56.907 Y72.674
X56.998 Y72.588
X57.254 Y72.33
X57.34 Y72.236
X57.577 Y71.96
X57.654 Y71.864
X57.871 Y71.574
X57.938 Y71.477
X58.134 Y71.175
X58.192 Y71.078
X58.366 Y70.769
X58.416 Y70.673
X58.569 Y70.36
X58.612 Y70.263
X58.742 Y69.95
X58.78 Y69.851
X58.888 Y69.54
X58.92 Y69.437
X58.971 Y69.258
X61.482 Y68.74
G2 X62.115 Y68.476 I-0.364 J-1.763
G1 X62.23 Y68.399
X62.331 Y68.327
X62.427 Y68.248
X62.524 Y68.162
G2 X62.715 Y67.965 I-1.194 J-1.347
G1 X62.795 Y67.868
G2 X62.961 Y67.633 I-1.384 J-1.15
G1 X63.023 Y67.527
G2 X63.15 Y67.267 I-1.55 J-0.915
G1 X63.196 Y67.15
G2 X63.276 Y66.887 I-1.676 J-0.656
G1 X63.304 Y66.761
X63.327 Y66.639
X63.341 Y66.515
X63.353 Y66.378
X63.358 Y66.269
X63.357 Y66.159
X63.351 Y66.013
X63.345 Y65.919
X63.334 Y65.825
X63.311 Y65.669
X63.281 Y65.513
X63.242 Y65.347
X63.206 Y65.218
X63.151 Y65.043
X63.114 Y64.938
X63.043 Y64.753
X63.006 Y64.666
X62.92 Y64.473
X62.886 Y64.402
X62.785 Y64.2
X62.755 Y64.143
X62.641 Y63.933
X62.614 Y63.885
X62.486 Y63.668
X62.463 Y63.63
X62.324 Y63.405
X62.305 Y63.375
X62.156 Y63.145
X62.133 Y63.111
X61.811 Y62.637
X61.791 Y62.609
X61.446 Y62.121
X61.439 Y62.111
X61.087 Y61.622
X60.748 Y61.147
X60.437 Y60.695
X60.302 Y60.491
X60.178 Y60.296
X60.068 Y60.114
X59.975 Y59.95
X59.899 Y59.804
X59.883 Y59.772
X59.909 Y59.753
X60.323 Y59.46
X60.372 Y59.424
X60.571 Y59.272
X60.627 Y59.228
X60.713 Y59.158
X61.118
G2 X62.472 Y58.544 I0. J-1.8
G1 X62.575 Y58.426
X62.686 Y58.302
X62.81 Y58.164
X62.949 Y58.012
X63.101 Y57.845
X63.265 Y57.666
X63.268 Y57.663
X63.442 Y57.473
X63.449 Y57.466
X63.629 Y57.265
X63.651 Y57.241
X64.022 Y56.815
X64.075 Y56.75
X64.431 Y56.3
X64.494 Y56.215
X64.654 Y55.986
X64.71 Y55.902
X64.851 Y55.674
X64.916 Y55.559
X65.033 Y55.334
X65.104 Y55.18
X65.194 Y54.96
X65.231 Y54.861
X65.262 Y54.761
X65.321 Y54.547
G2 X65.371 Y54.3 I-1.735 J-0.479
G1 X65.397 Y54.094
G2 X65.411 Y53.811 I-1.785 J-0.231
G1 X65.406 Y53.615
G2 X65.373 Y53.322 I-1.799 J0.052
G1 X65.337 Y53.137
G2 X65.263 Y52.87 I-1.767 J0.345
G1 X65.2 Y52.695
X65.156 Y52.584
X65.104 Y52.477
X65.019 Y52.313
X64.973 Y52.23
X64.923 Y52.149
X64.82 Y51.994
X64.739 Y51.881
X64.626 Y51.736
X64.547 Y51.642
X64.31 Y51.377
X64.274 Y51.338
X64.059 Y51.112
X63.98 Y51.027
X63.92 Y50.96
X63.88 Y50.911
X63.832 Y50.85
G2 X63.421 Y50.467 I-1.419 J1.107
X63.133 Y50.473 I-0.14 J0.207
G3 X62.848 Y50.522 I-0.191 J-0.258
G2 X62.413 Y50.458 I-0.436 J1.435
G1 X60.288
X58.02 Y48.907
X58.136 Y48.043
X58.26 Y47.175
X58.39 Y46.314
X58.523 Y45.462
X58.661 Y44.62
X58.804 Y43.789
X58.95 Y42.968
X59.102 Y42.157
X59.259 Y41.358
X59.42 Y40.571
X59.586 Y39.795
X59.758 Y39.031
X59.935 Y38.281
X60.117 Y37.543
X60.305 Y36.818
X60.498 Y36.106
X60.697 Y35.407
X60.902 Y34.722
X61.112 Y34.05
X61.328 Y33.39
X61.55 Y32.743
X61.777 Y32.108
X62.009 Y31.484
X62.247 Y30.873
X62.489 Y30.273
X62.737 Y29.684
X62.989 Y29.105
X63.247 Y28.538
X63.509 Y27.981
X63.775 Y27.435
X64.051 Y26.89
G2 X63.413 Y24.885 I-1.338 J-0.677
G1 X62.612 Y24.463
X62.63 Y24.372
X62.892 Y23.952
X62.916 Y23.911
X63.297 Y23.253
X63.321 Y23.21
X63.676 Y22.547
X63.699 Y22.502
X64.029 Y21.834
X64.051 Y21.787
X64.355 Y21.114
X64.376 Y21.066
X64.654 Y20.389
X64.674 Y20.339
X64.925 Y19.659
X64.943 Y19.608
X65.167 Y18.926
X65.183 Y18.874
X65.38 Y18.194
X65.394 Y18.14
X65.563 Y17.465
X65.575 Y17.41
X65.716 Y16.742
X65.726 Y16.686
X65.838 Y16.032
X65.847 Y15.973
X65.93 Y15.337
X65.937 Y15.276
X65.991 Y14.665
X65.995 Y14.617
X66.012 Y14.322
X66.013 Y14.288
X66.023 Y14.002
X66.024 Y13.966
X66.026 Y13.689
Y13.652
X66.022 Y13.384
X66.021 Y13.344
X66.011 Y13.086
X66.008 Y13.045
X65.991 Y12.798
X65.988 Y12.754
X65.965 Y12.517
X65.959 Y12.472
X65.93 Y12.245
X65.923 Y12.197
X65.888 Y11.981
X65.879 Y11.932
X65.839 Y11.726
X65.828 Y11.676
X65.783 Y11.48
X65.77 Y11.43
X65.72 Y11.243
X65.7 Y11.172
X65.587 Y10.821
X65.559 Y10.742
X65.433 Y10.414
X65.405 Y10.347
X65.129 Y9.72
X65.127 Y9.715
X64.99 Y9.409
X64.864 Y9.108
X64.744 Y8.793
X64.628 Y8.452
X64.516 Y8.077
X64.408 Y7.666
X64.303 Y7.214
X64.23 Y6.853
Y5.772
X64.653 Y5.501
X65.414
G2 X66.475 Y5.062 I0. J-1.5
G1 X67.075 Y4.462
G2 X67.515 Y3.401 I-1.061 J-1.061
G1 Y1.6
G2 X67.075 Y0.54 I-1.5 J0.
G1 X66.475 Y-0.061
G2 X65.414 Y-0.5 I-1.061 J1.061
G1 X36.6
G2 X35.54 Y-0.061 I0. J1.5
G1 X34.939 Y0.54
G2 X34.5 Y1.6 I1.061 J1.061
G1 Y3.401
G2 X34.939 Y4.462 I1.5 J0.
G1 X35.54 Y5.062
G2 X36.6 Y5.501 I1.061 J-1.061
G1 X37.362
X37.784 Y5.772
Y6.853
X37.711 Y7.214
X37.607 Y7.666
X37.499 Y8.077
X37.386 Y8.452
X37.27 Y8.793
X37.15 Y9.108
X37.024 Y9.409
X36.888 Y9.715
X36.886 Y9.72
X36.61 Y10.347
X36.582 Y10.414
X36.456 Y10.741
X36.428 Y10.822
X36.315 Y11.173
X36.294 Y11.243
X36.244 Y11.43
X36.232 Y11.48
X36.186 Y11.676
X36.176 Y11.726
X36.135 Y11.932
X36.126 Y11.981
X36.091 Y12.197
X36.085 Y12.244
X36.055 Y12.471
X36.05 Y12.517
X36.027 Y12.754
X36.023 Y12.798
X36.006 Y13.045
X36.004 Y13.086
X35.993 Y13.344
X35.992 Y13.384
X35.988 Y13.652
Y13.689
X35.991 Y13.966
X35.992 Y14.002
X36.002 Y14.288
X36.003 Y14.322
X36.02 Y14.617
X36.023 Y14.665
X36.078 Y15.276
X36.085 Y15.337
X36.168 Y15.973
X36.176 Y16.032
X36.288 Y16.686
X36.299 Y16.742
X36.439 Y17.41
X36.452 Y17.465
X36.621 Y18.14
X36.635 Y18.194
X36.832 Y18.874
X36.848 Y18.926
X37.072 Y19.608
X37.09 Y19.659
X37.341 Y20.339
X37.361 Y20.389
X37.639 Y21.066
X37.659 Y21.114
X37.964 Y21.788
X37.985 Y21.834
X38.315 Y22.502
X38.339 Y22.547
X38.694 Y23.21
X38.718 Y23.253
X39.098 Y23.91
X39.123 Y23.952
X39.385 Y24.372
X39.403 Y24.463
X38.602 Y24.885
G2 X37.963 Y26.89 I0.7 J1.327
G1 X38.239 Y27.435
X38.506 Y27.981
X38.768 Y28.538
X39.025 Y29.105
X39.278 Y29.684
X39.525 Y30.273
X39.768 Y30.873
X40.006 Y31.484
X40.238 Y32.108
X40.465 Y32.743
X40.686 Y33.39
X40.902 Y34.05
X41.113 Y34.722
X41.317 Y35.407
X41.516 Y36.106
X41.71 Y36.818
X41.898 Y37.543
X42.08 Y38.281
X42.257 Y39.031
X42.428 Y39.795
X42.595 Y40.571
X42.756 Y41.358
X42.913 Y42.157
X43.064 Y42.968
X43.211 Y43.789
X43.354 Y44.62
X43.492 Y45.462
X43.625 Y46.314
X43.754 Y47.175
X43.879 Y48.043
X43.995 Y48.907
X41.727 Y50.458
X39.602
G2 X38.419 Y51.035 I0. J1.5
G1 X38.368 Y51.1
X38.321 Y51.156
X38.257 Y51.229
X38.174 Y51.318
X37.958 Y51.545
X37.928 Y51.577
X37.691 Y51.842
X37.626 Y51.92
X37.513 Y52.065
X37.444 Y52.161
X37.342 Y52.315
X37.3 Y52.382
X37.262 Y52.451
X37.177 Y52.615
X37.134 Y52.705
X37.097 Y52.797
X37.034 Y52.972
X36.999 Y53.082
X36.972 Y53.194
X36.936 Y53.38
X36.918 Y53.501
X36.909 Y53.623
X36.903 Y53.819
X36.904 Y53.938
X36.915 Y54.057
X36.942 Y54.262
X36.959 Y54.365
X36.983 Y54.468
X37.042 Y54.681
X37.068 Y54.765
X37.099 Y54.847
X37.188 Y55.067
X37.247 Y55.195
X37.365 Y55.42
X37.419 Y55.516
X37.56 Y55.744
X37.606 Y55.815
X37.766 Y56.043
X37.819 Y56.114
X38.175 Y56.564
X38.219 Y56.618
X38.59 Y57.044
X38.608 Y57.064
X38.788 Y57.264
X38.795 Y57.271
X38.969 Y57.462
X38.97 Y57.463
X39.135 Y57.643
X39.287 Y57.809
X39.426 Y57.962
X39.552 Y58.102
X39.665 Y58.228
X39.768 Y58.346
G2 X40.896 Y58.857 I1.128 J-0.989
G1 X41.41
X41.579 Y58.997
X41.625 Y59.033
X41.824 Y59.185
X41.865 Y59.215
X42.28 Y59.509
X42.457 Y59.636
X42.502 Y59.672
X42.495 Y59.69
X42.449 Y59.803
X42.385 Y59.938
X42.303 Y60.093
X42.205 Y60.266
X42.092 Y60.454
X41.964 Y60.655
X41.826 Y60.863
X41.512 Y61.319
X41.172 Y61.796
X40.819 Y62.286
X40.813 Y62.295
X40.468 Y62.782
X40.452 Y62.805
X40.129 Y63.28
X40.111 Y63.308
X39.961 Y63.538
X39.945 Y63.564
X39.806 Y63.788
X39.787 Y63.819
X39.66 Y64.037
X39.637 Y64.077
X39.523 Y64.287
X39.498 Y64.334
X39.397 Y64.537
X39.369 Y64.595
X39.282 Y64.789
X39.252 Y64.861
X39.181 Y65.045
X39.15 Y65.134
X39.094 Y65.31
X39.065 Y65.416
X39.025 Y65.582
X39. Y65.712
X38.978 Y65.869
X38.968 Y65.946
X38.963 Y66.025
X38.957 Y66.171
X38.956 Y66.262
X38.961 Y66.353
X38.972 Y66.49
X38.984 Y66.593
X39.003 Y66.696
X39.032 Y66.823
X39.061 Y66.933
X39.099 Y67.041
X39.144 Y67.158
X39.192 Y67.268
X39.25 Y67.374
X39.312 Y67.481
X39.377 Y67.581
X39.45 Y67.676
X39.53 Y67.773
X39.607 Y67.858
X39.69 Y67.938
X39.787 Y68.024
X39.867 Y68.09
X39.951 Y68.15
X40.066 Y68.226
G2 X40.593 Y68.446 I0.831 J-1.249
G1 X43.284 Y69.002
X43.296 Y69.047
X43.383 Y69.356
X43.41 Y69.441
X43.518 Y69.752
X43.55 Y69.835
X43.68 Y70.149
X43.716 Y70.229
X43.868 Y70.542
X43.91 Y70.622
X44.084 Y70.931
X44.133 Y71.012
X44.328 Y71.313
X44.384 Y71.394
X44.601 Y71.685
X44.665 Y71.765
X44.902 Y72.041
X44.974 Y72.118
X45.229 Y72.377
X45.306 Y72.449
X45.546 Y72.66
X45.53 Y72.709
X45.501 Y72.802
X45.441 Y73.026
X45.421 Y73.11
X45.373 Y73.34
X45.359 Y73.417
X45.323 Y73.652
X45.313 Y73.726
X45.291 Y73.939
X45.285 Y74.013
X45.274 Y74.225
X45.272 Y74.301
X45.271 Y74.513
X45.273 Y74.589
X45.283 Y74.8
X45.289 Y74.877
X45.31 Y75.087
X45.32 Y75.165
X45.352 Y75.373
X45.366 Y75.452
X45.409 Y75.659
X45.427 Y75.737
X45.482 Y75.942
X45.504 Y76.019
X45.57 Y76.223
X45.596 Y76.298
X45.673 Y76.499
X45.704 Y76.573
X45.792 Y76.772
X45.826 Y76.843
X45.925 Y77.038
X45.962 Y77.107
X46.073 Y77.299
X46.113 Y77.365
X46.234 Y77.551
X46.278 Y77.616
X46.409 Y77.797
X46.457 Y77.86
X46.598 Y78.034
X46.649 Y78.094
X46.799 Y78.261
X46.855 Y78.32
X47.014 Y78.478
X47.075 Y78.536
X47.242 Y78.685
X47.307 Y78.739
X47.482 Y78.878
X47.552 Y78.931
X47.735 Y79.059
X47.809 Y79.108
X47.998 Y79.225
X48.076 Y79.27
X48.272 Y79.375
X48.354 Y79.416
X48.556 Y79.509
X48.638 Y79.544
X48.847 Y79.626
X48.929 Y79.655
X49.144 Y79.725
X49.227 Y79.75
X49.447 Y79.807
X49.528 Y79.826
X49.753 Y79.872
X49.833 Y79.886
X50.064 Y79.921
X50.141 Y79.93
X50.376 Y79.953
X50.45 Y79.958
X50.692 Y79.969
X50.764 Y79.971
X51.007
X51.251
X51.323 Y79.969
X51.564 Y79.958
X51.638 Y79.953
X51.874 Y79.93
X51.951 Y79.921
X52.182 Y79.886
X52.261 Y79.872
X52.487 Y79.826
X52.568 Y79.807
X52.788 Y79.75
X52.871 Y79.725
X53.085 Y79.655
X53.168 Y79.626
X53.377 Y79.544
X53.459 Y79.509
X53.661 Y79.416
X53.742 Y79.375
X53.938 Y79.27
X54.017 Y79.224
X54.206 Y79.107
X54.28 Y79.059
X54.462 Y78.931
X54.533 Y78.878
X54.708 Y78.739
X54.772 Y78.685
X54.939 Y78.536
X55.001 Y78.478
X55.16 Y78.32
X55.215 Y78.261
X55.365 Y78.095
X55.417 Y78.034
X55.558 Y77.86
X55.606 Y77.797
X55.736 Y77.616
X55.78 Y77.552
X55.901 Y77.365
X55.942 Y77.299
X56.052 Y77.107
X56.09 Y77.038
X56.189 Y76.843
X56.223 Y76.772
X56.311 Y76.573
X56.341 Y76.499
X56.418 Y76.298
X56.445 Y76.223
X56.51 Y76.019
X56.533 Y75.942
X56.587 Y75.737
X56.605 Y75.659
X56.649 Y75.452
X56.663 Y75.374
X56.695 Y75.166
X56.705 Y75.087
X56.726 Y74.877
X56.732 Y74.8
X56.742 Y74.589
X56.743 Y74.512
Y74.301
X56.741 Y74.226
X56.729 Y74.014
X56.723 Y73.939
X56.701 Y73.726
X56.692 Y73.652
X56.656 Y73.417
X56.642 Y73.34
X56.594 Y73.11
X56.574 Y73.026
X56.513 Y72.802
X56.485 Y72.709
X56.468 Y72.66
X56.709 Y72.449
X56.785 Y72.377
X57.041 Y72.119
X57.113 Y72.041
X57.349 Y71.765
X57.414 Y71.685
X57.63 Y71.394
X57.687 Y71.313
X57.882 Y71.012
X57.931 Y70.931
X58.105 Y70.622
X58.147 Y70.542
X58.299 Y70.229
X58.335 Y70.148
X58.465 Y69.835
X58.496 Y69.753
X58.605 Y69.441
X58.632 Y69.356
X58.719 Y69.047
X58.731 Y69.002
X61.422 Y68.446
G2 X61.949 Y68.226 I-0.303 J-1.469
G1 X62.064 Y68.15
X62.148 Y68.089
X62.228 Y68.024
X62.325 Y67.937
X62.408 Y67.858
X62.484 Y67.773
X62.564 Y67.677
X62.637 Y67.582
X62.702 Y67.481
X62.765 Y67.374
X62.822 Y67.268
X62.871 Y67.158
X62.916 Y67.041
X62.954 Y66.933
X62.983 Y66.822
X63.011 Y66.695
X63.03 Y66.593
X63.042 Y66.491
X63.054 Y66.354
X63.058 Y66.263
X63.057 Y66.171
X63.052 Y66.025
X63.046 Y65.946
X63.037 Y65.869
X63.014 Y65.712
X62.99 Y65.582
X62.95 Y65.416
X62.92 Y65.309
X62.865 Y65.133
X62.834 Y65.046
X62.763 Y64.861
X62.733 Y64.789
X62.646 Y64.595
X62.618 Y64.537
X62.517 Y64.334
X62.492 Y64.287
X62.377 Y64.077
X62.355 Y64.037
X62.227 Y63.819
X62.208 Y63.788
X62.069 Y63.563
X62.053 Y63.538
X61.904 Y63.308
X61.885 Y63.28
X61.563 Y62.805
X61.546 Y62.782
X61.201 Y62.295
X61.195 Y62.286
X60.843 Y61.796
X60.503 Y61.319
X60.188 Y60.863
X60.05 Y60.655
X59.923 Y60.454
X59.809 Y60.266
X59.711 Y60.093
X59.63 Y59.938
X59.566 Y59.803
X59.519 Y59.69
X59.513 Y59.672
X59.558 Y59.636
X59.735 Y59.509
X60.15 Y59.215
X60.191 Y59.185
X60.39 Y59.033
X60.436 Y58.997
X60.605 Y58.857
X61.118
G2 X62.247 Y58.346 I0. J-1.5
G1 X62.35 Y58.228
X62.462 Y58.102
X62.588 Y57.963
X62.727 Y57.809
X62.88 Y57.643
X63.044 Y57.463
X63.046 Y57.461
X63.22 Y57.271
X63.226 Y57.265
X63.407 Y57.064
X63.425 Y57.044
X63.795 Y56.618
X63.84 Y56.564
X64.196 Y56.114
X64.248 Y56.043
X64.408 Y55.815
X64.455 Y55.744
X64.595 Y55.516
X64.65 Y55.42
X64.767 Y55.195
X64.826 Y55.067
X64.916 Y54.847
X64.947 Y54.765
X64.972 Y54.681
X65.031 Y54.468
X65.056 Y54.365
X65.073 Y54.261
X65.1 Y54.056
X65.11 Y53.938
X65.111 Y53.819
X65.106 Y53.624
X65.097 Y53.501
X65.079 Y53.38
X65.042 Y53.194
X65.016 Y53.082
X64.981 Y52.972
X64.917 Y52.797
X64.881 Y52.705
X64.838 Y52.615
X64.753 Y52.451
X64.714 Y52.382
X64.672 Y52.315
X64.57 Y52.16
X64.502 Y52.066
X64.389 Y51.92
X64.323 Y51.842
X64.086 Y51.577
X64.057 Y51.545
X63.841 Y51.318
X63.758 Y51.229
X63.694 Y51.156
X63.647 Y51.1
X63.596 Y51.035
G2 X62.848 Y50.522 I-1.183 J0.923
G3 X62.671 Y50.377 I0.087 J-0.287
X62.648 Y50.148 I0.265 J-0.141
G1 X62.736 Y49.861
X62.755 Y49.797 Z0.258
X62.773 Y49.736 Z0.28
X62.79 Y49.682 Z0.315
X62.804 Y49.637 Z0.363
X62.814 Y49.602 Z0.42
X62.821 Y49.581 Z0.483
X62.823 Y49.574 Z0.55
G0 Z21.007
X76.46 Y41.011
G1 Z17.007 F133.3
Z0.55
X76.467 Y41.009 Z0.483 F400
X76.489 Y41.005 Z0.42
X76.524 Y40.998 Z0.363
X76.571 Y40.988 Z0.315
X76.626 Y40.977 Z0.28
X76.689 Y40.964 Z0.258
X76.754 Y40.951 Z0.25
X77.048 Y40.89
G3 X77.402 Y41.124 I0.06 J0.294
G1 X77.462 Y41.417
X77.618 Y42.214
X77.769 Y43.022
X77.916 Y43.84
X78.058 Y44.67
X78.195 Y45.509
X78.329 Y46.359
X78.457 Y47.218
X78.582 Y48.085
X78.673 Y48.764
X76.634 Y50.158
X74.602
G2 X73.183 Y50.85 I0. J1.8
G1 X73.135 Y50.911
X73.094 Y50.96
X73.035 Y51.027
X72.955 Y51.112
X72.741 Y51.338
X72.705 Y51.377
X72.468 Y51.642
X72.39 Y51.735
X72.276 Y51.881
X72.194 Y51.995
X72.092 Y52.15
X72.042 Y52.23
X71.996 Y52.313
X71.91 Y52.477
X71.859 Y52.584
X71.815 Y52.695
X71.752 Y52.87
G2 X71.678 Y53.137 I1.693 J0.612
G1 X71.642 Y53.322
G2 X71.609 Y53.614 I1.767 J0.345
G1 X71.603 Y53.81
G2 X71.618 Y54.095 I1.799 J0.053
G1 X71.644 Y54.3
G2 X71.694 Y54.547 I1.785 J-0.232
G1 X71.753 Y54.761
X71.784 Y54.861
X71.821 Y54.96
X71.91 Y55.18
X71.981 Y55.334
X72.099 Y55.559
X72.164 Y55.673
X72.305 Y55.901
X72.361 Y55.986
X72.52 Y56.215
X72.584 Y56.3
X72.939 Y56.75
X72.993 Y56.815
X73.364 Y57.241
X73.385 Y57.265
X73.566 Y57.465
X73.573 Y57.474
X73.747 Y57.664
X73.749 Y57.666
X73.914 Y57.845
X74.066 Y58.012
X74.204 Y58.164
X74.329 Y58.302
X74.44 Y58.427
X74.543 Y58.544
G2 X75.896 Y59.158 I1.353 J-1.187
G1 X76.302
X76.388 Y59.228
X76.443 Y59.272
X76.642 Y59.424
X76.692 Y59.46
X77.105 Y59.753
X77.131 Y59.772
X77.116 Y59.804
X77.04 Y59.949
X76.947 Y60.114
X76.837 Y60.296
X76.713 Y60.491
X76.578 Y60.695
X76.266 Y61.147
X75.928 Y61.622
X75.576 Y62.111
X75.568 Y62.122
X75.223 Y62.609
X75.204 Y62.637
X74.881 Y63.111
X74.859 Y63.145
X74.71 Y63.375
X74.69 Y63.406
X74.551 Y63.63
X74.529 Y63.668
X74.401 Y63.885
X74.374 Y63.933
X74.259 Y64.143
X74.229 Y64.2
X74.128 Y64.402
X74.095 Y64.473
X74.008 Y64.666
X73.972 Y64.752
X73.901 Y64.937
X73.864 Y65.043
X73.808 Y65.219
X73.773 Y65.347
X73.733 Y65.513
X73.704 Y65.669
X73.681 Y65.825
X73.67 Y65.919
X73.663 Y66.013
X73.657 Y66.159
X73.656 Y66.268
X73.662 Y66.377
X73.673 Y66.514
G2 X73.711 Y66.762 I1.794 J-0.146
G1 X73.739 Y66.889
G2 X73.819 Y67.15 I1.756 J-0.394
G1 X73.865 Y67.267
G2 X73.991 Y67.527 I1.676 J-0.656
G1 X74.054 Y67.633
G2 X74.219 Y67.868 I1.55 J-0.915
G1 X74.299 Y67.964
G2 X74.491 Y68.162 I1.385 J-1.15
G1 X74.589 Y68.249
X74.684 Y68.327
X74.785 Y68.399
X74.899 Y68.476
G2 X75.532 Y68.74 I0.997 J-1.499
G1 X78.044 Y69.258
X78.094 Y69.437
X78.126 Y69.539
X78.235 Y69.851
X78.273 Y69.95
X78.403 Y70.264
X78.446 Y70.36
X78.598 Y70.673
X78.649 Y70.769
X78.822 Y71.078
X78.881 Y71.175
X79.076 Y71.477
X79.144 Y71.574
X79.361 Y71.864
X79.438 Y71.96
X79.675 Y72.236
X79.76 Y72.329
X80.016 Y72.588
X80.108 Y72.674
X80.203 Y72.757
X80.151 Y72.948
X80.127 Y73.049
X80.079 Y73.279
X80.063 Y73.371
X80.026 Y73.606
X80.015 Y73.696
X79.993 Y73.909
X79.986 Y73.997
X79.974 Y74.209
X79.972 Y74.301
X79.971 Y74.512
X79.973 Y74.603
X79.983 Y74.814
X79.99 Y74.907
X80.011 Y75.117
X80.023 Y75.21
X80.055 Y75.419
X80.072 Y75.513
X80.115 Y75.72
X80.137 Y75.813
X80.192 Y76.019
X80.219 Y76.112
X80.285 Y76.315
X80.316 Y76.405
X80.393 Y76.606
X80.43 Y76.695
X80.518 Y76.894
X80.558 Y76.978
X80.658 Y77.174
X80.702 Y77.257
X80.813 Y77.448
X80.861 Y77.528
X80.982 Y77.714
X81.035 Y77.792
X81.166 Y77.973
X81.224 Y78.049
X81.365 Y78.223
X81.426 Y78.295
X81.576 Y78.461
X81.644 Y78.533
X81.802 Y78.691
X81.876 Y78.76
X82.043 Y78.909
X82.121 Y78.974
X82.295 Y79.113
X82.38 Y79.176
X82.562 Y79.304
X82.651 Y79.363
X82.84 Y79.48
X82.934 Y79.534
X83.13 Y79.639
X83.228 Y79.688
X83.43 Y79.782
X83.529 Y79.823
X83.737 Y79.905
X83.836 Y79.941
X84.051 Y80.01
X84.151 Y80.04
X84.371 Y80.098
X84.468 Y80.12
X84.693 Y80.166
X84.789 Y80.183
X85.02 Y80.217
X85.112 Y80.229
X85.348 Y80.251
X85.437 Y80.258
X85.678 Y80.269
X85.764 Y80.271
X86.007
X86.251
X86.337 Y80.269
X86.578 Y80.258
X86.667 Y80.251
X86.903 Y80.229
X86.995 Y80.217
X87.226 Y80.183
X87.321 Y80.166
X87.547 Y80.12
X87.644 Y80.098
X87.864 Y80.04
X87.964 Y80.01
X88.178 Y79.941
X88.278 Y79.905
X88.486 Y79.823
X88.585 Y79.781
X88.787 Y79.688
X88.884 Y79.64
X89.08 Y79.534
X89.175 Y79.48
X89.364 Y79.363
X89.452 Y79.305
X89.635 Y79.176
X89.719 Y79.113
X89.894 Y78.974
X89.972 Y78.909
X90.139 Y78.76
X90.213 Y78.69
X90.371 Y78.532
X90.438 Y78.462
X90.588 Y78.295
X90.651 Y78.222
X90.791 Y78.048
X90.849 Y77.973
X90.979 Y77.792
X91.032 Y77.715
X91.153 Y77.529
X91.202 Y77.448
X91.312 Y77.257
X91.357 Y77.174
X91.456 Y76.978
X91.497 Y76.894
X91.585 Y76.695
X91.622 Y76.606
X91.699 Y76.405
X91.73 Y76.315
X91.796 Y76.111
X91.823 Y76.019
X91.877 Y75.813
X91.899 Y75.72
X91.942 Y75.513
X91.959 Y75.42
X91.991 Y75.211
X92.003 Y75.117
X92.024 Y74.907
X92.031 Y74.814
X92.041 Y74.603
X92.043 Y74.511
Y74.3
X92.04 Y74.21
X92.029 Y73.998
X92.022 Y73.909
X92. Y73.696
X91.988 Y73.606
X91.952 Y73.371
X91.935 Y73.279
X91.888 Y73.049
X91.863 Y72.948
X91.812 Y72.757
X91.907 Y72.674
X91.998 Y72.588
X92.254 Y72.33
X92.34 Y72.236
X92.577 Y71.96
X92.654 Y71.864
X92.871 Y71.574
X92.938 Y71.477
X93.134 Y71.175
X93.192 Y71.078
X93.366 Y70.769
X93.416 Y70.673
X93.569 Y70.36
X93.612 Y70.263
X93.742 Y69.95
X93.78 Y69.851
X93.888 Y69.54
X93.92 Y69.437
X93.971 Y69.258
X96.482 Y68.74
G2 X97.115 Y68.476 I-0.364 J-1.763
G1 X97.23 Y68.399
X97.331 Y68.327
X97.427 Y68.248
X97.524 Y68.162
G2 X97.715 Y67.965 I-1.194 J-1.347
G1 X97.795 Y67.868
G2 X97.961 Y67.633 I-1.384 J-1.15
G1 X98.023 Y67.527
G2 X98.15 Y67.267 I-1.55 J-0.915
G1 X98.196 Y67.15
G2 X98.276 Y66.887 I-1.676 J-0.656
G1 X98.304 Y66.761
X98.327 Y66.639
X98.341 Y66.515
X98.353 Y66.378
X98.358 Y66.269
X98.357 Y66.159
X98.351 Y66.013
X98.345 Y65.919
X98.334 Y65.825
X98.311 Y65.669
X98.281 Y65.513
X98.242 Y65.347
X98.206 Y65.218
X98.151 Y65.043
X98.114 Y64.938
X98.043 Y64.753
X98.006 Y64.666
X97.92 Y64.473
X97.886 Y64.402
X97.785 Y64.2
X97.755 Y64.143
X97.641 Y63.933
X97.614 Y63.885
X97.486 Y63.668
X97.463 Y63.63
X97.324 Y63.405
X97.305 Y63.375
X97.156 Y63.145
X97.133 Y63.111
X96.811 Y62.637
X96.791 Y62.609
X96.446 Y62.121
X96.439 Y62.111
X96.087 Y61.622
X95.748 Y61.147
X95.437 Y60.695
X95.302 Y60.491
X95.178 Y60.296
X95.068 Y60.114
X94.975 Y59.95
X94.899 Y59.804
X94.883 Y59.772
X94.909 Y59.753
X95.323 Y59.46
X95.372 Y59.424
X95.571 Y59.272
X95.627 Y59.228
X95.713 Y59.158
X96.118
G2 X97.472 Y58.544 I0. J-1.8
G1 X97.575 Y58.426
X97.686 Y58.302
X97.81 Y58.164
X97.949 Y58.012
X98.101 Y57.845
X98.266 Y57.666
X98.268 Y57.663
X98.442 Y57.473
X98.449 Y57.466
X98.629 Y57.265
X98.651 Y57.241
X99.022 Y56.815
X99.075 Y56.75
X99.431 Y56.3
X99.494 Y56.215
X99.654 Y55.986
X99.71 Y55.902
X99.851 Y55.674
X99.916 Y55.559
X100.033 Y55.334
X100.104 Y55.18
X100.194 Y54.96
X100.231 Y54.861
X100.262 Y54.761
X100.321 Y54.547
G2 X100.371 Y54.3 I-1.735 J-0.479
G1 X100.397 Y54.094
G2 X100.411 Y53.811 I-1.785 J-0.231
G1 X100.406 Y53.615
G2 X100.373 Y53.322 I-1.799 J0.052
G1 X100.337 Y53.137
G2 X100.263 Y52.87 I-1.767 J0.345
G1 X100.2 Y52.695
X100.156 Y52.584
X100.104 Y52.477
X100.019 Y52.313
X99.973 Y52.23
X99.923 Y52.149
X99.82 Y51.994
X99.739 Y51.881
X99.626 Y51.736
X99.547 Y51.642
X99.31 Y51.377
X99.274 Y51.338
X99.059 Y51.112
X98.98 Y51.027
X98.92 Y50.96
X98.88 Y50.911
X98.832 Y50.85
G2 X97.413 Y50.158 I-1.419 J1.107
G1 X95.38
X93.342 Y48.764
X93.433 Y48.085
X93.557 Y47.218
X93.686 Y46.359
X93.819 Y45.509
X93.957 Y44.67
X94.099 Y43.84
X94.246 Y43.022
X94.397 Y42.214
X94.553 Y41.417
X94.713 Y40.632
X94.879 Y39.859
X95.05 Y39.099
X95.226 Y38.351
X95.408 Y37.616
X95.595 Y36.895
X95.787 Y36.186
X95.985 Y35.491
X96.189 Y34.81
X96.398 Y34.141
X96.613 Y33.485
X96.833 Y32.842
X97.058 Y32.211
X97.289 Y31.591
X97.525 Y30.984
X97.767 Y30.387
X98.013 Y29.802
X98.264 Y29.227
X98.519 Y28.664
X98.779 Y28.111
X99.044 Y27.569
X99.319 Y27.025
G2 X98.553 Y24.62 I-1.606 J-0.813
G1 X98.008 Y24.333
X98.146 Y24.11
X98.176 Y24.061
X98.557 Y23.403
X98.585 Y23.352
X98.941 Y22.689
X98.968 Y22.635
X99.298 Y21.967
X99.325 Y21.911
X99.629 Y21.238
X99.654 Y21.18
X99.932 Y20.503
X99.955 Y20.443
X100.206 Y19.763
X100.228 Y19.702
X100.452 Y19.02
X100.471 Y18.957
X100.668 Y18.277
X100.685 Y18.213
X100.854 Y17.537
X100.869 Y17.471
X101.009 Y16.804
X101.022 Y16.737
X101.134 Y16.082
X101.144 Y16.012
X101.228 Y15.376
X101.236 Y15.303
X101.29 Y14.692
X101.294 Y14.634
X101.311 Y14.339
X101.313 Y14.298
X101.323 Y14.012
X101.324 Y13.969
X101.326 Y13.692
Y13.647
X101.322 Y13.38
X101.321 Y13.332
X101.31 Y13.074
X101.308 Y13.025
X101.291 Y12.777
X101.286 Y12.725
X101.263 Y12.487
X101.257 Y12.433
X101.228 Y12.207
X101.219 Y12.149
X101.184 Y11.933
X101.174 Y11.874
X101.133 Y11.668
X101.121 Y11.608
X101.075 Y11.412
X101.06 Y11.352
X101.01 Y11.165
X100.985 Y11.081
X100.872 Y10.729
X100.839 Y10.634
X100.713 Y10.306
X100.68 Y10.226
X100.403 Y9.599
X100.401 Y9.593
X100.266 Y9.29
X100.143 Y8.997
X100.027 Y8.691
X99.914 Y8.36
X99.805 Y7.996
X99.699 Y7.594
X99.597 Y7.151
X99.53 Y6.823
Y5.936
X99.741 Y5.801
X100.414
G2 X101.686 Y5.275 I0. J-1.8
G1 X102.287 Y4.675
G2 X102.815 Y3.401 I-1.272 J-1.274
G1 Y1.6
G2 X102.287 Y0.327 I-1.8 J0.
G1 X101.686 Y-0.274
G2 X100.414 Y-0.8 I-1.272 J1.274
G1 X71.6
G2 X70.328 Y-0.273 I0. J1.8
G1 X69.727 Y0.328
G2 X69.2 Y1.6 I1.273 J1.273
G1 Y3.401
G2 X69.727 Y4.674 I1.8 J0.
G1 X70.328 Y5.274
G2 X71.6 Y5.801 I1.273 J-1.273
G1 X72.274
X72.484 Y5.936
Y6.823
X72.418 Y7.151
X72.316 Y7.594
X72.21 Y7.996
X72.101 Y8.36
X71.988 Y8.691
X71.872 Y8.997
X71.749 Y9.29
X71.614 Y9.593
X71.612 Y9.599
X71.335 Y10.226
X71.302 Y10.306
X71.176 Y10.633
X71.142 Y10.73
X71.029 Y11.081
X71.005 Y11.165
X70.954 Y11.352
X70.94 Y11.412
X70.894 Y11.608
X70.881 Y11.668
X70.841 Y11.874
X70.83 Y11.933
X70.795 Y12.149
X70.787 Y12.206
X70.758 Y12.432
X70.751 Y12.488
X70.728 Y12.725
X70.724 Y12.777
X70.707 Y13.025
X70.704 Y13.074
X70.694 Y13.332
X70.692 Y13.38
X70.688 Y13.647
Y13.692
X70.691 Y13.969
X70.692 Y14.012
X70.702 Y14.298
X70.704 Y14.339
X70.72 Y14.634
X70.725 Y14.692
X70.779 Y15.303
X70.787 Y15.376
X70.87 Y16.012
X70.881 Y16.082
X70.992 Y16.737
X71.005 Y16.804
X71.146 Y17.472
X71.161 Y17.537
X71.329 Y18.213
X71.347 Y18.277
X71.543 Y18.957
X71.563 Y19.02
X71.787 Y19.701
X71.808 Y19.763
X72.06 Y20.443
X72.083 Y20.502
X72.361 Y21.18
X72.386 Y21.238
X72.69 Y21.911
X72.716 Y21.967
X73.046 Y22.635
X73.074 Y22.689
X73.43 Y23.352
X73.458 Y23.403
X73.839 Y24.061
X73.868 Y24.11
X74.007 Y24.333
X73.462 Y24.62
G2 X72.696 Y27.025 I0.84 J1.592
G1 X72.971 Y27.569
X73.235 Y28.111
X73.496 Y28.664
X73.751 Y29.227
X74.002 Y29.802
X74.248 Y30.387
X74.489 Y30.984
X74.725 Y31.591
X74.956 Y32.211
X75.182 Y32.842
X75.402 Y33.485
X75.617 Y34.141
X75.826 Y34.81
X76.029 Y35.491
X76.227 Y36.186
X76.42 Y36.895
X76.607 Y37.616
X76.788 Y38.351
X76.965 Y39.099
X77.135 Y39.859
X77.301 Y40.632
X77.402 Y41.124
G2 X77.593 Y41.315 I0.239 J-0.049
G3 X77.785 Y41.505 I-0.045 J0.237
G1 X77.913 Y42.157
X78.064 Y42.968
X78.211 Y43.789
X78.354 Y44.62
X78.492 Y45.462
X78.625 Y46.314
X78.754 Y47.175
X78.879 Y48.043
X78.995 Y48.907
X76.727 Y50.458
X74.602
G2 X73.419 Y51.035 I0. J1.5
G1 X73.368 Y51.1
X73.321 Y51.156
X73.257 Y51.229
X73.174 Y51.318
X72.958 Y51.545
X72.928 Y51.577
X72.691 Y51.842
X72.626 Y51.92
X72.513 Y52.065
X72.444 Y52.161
X72.342 Y52.315
X72.3 Y52.382
X72.262 Y52.451
X72.177 Y52.615
X72.134 Y52.705
X72.097 Y52.797
X72.034 Y52.972
X71.999 Y53.082
X71.972 Y53.194
X71.936 Y53.38
X71.918 Y53.501
X71.909 Y53.623
X71.903 Y53.819
X71.904 Y53.938
X71.915 Y54.057
X71.942 Y54.262
X71.959 Y54.365
X71.983 Y54.468
X72.042 Y54.681
X72.068 Y54.765
X72.099 Y54.847
X72.188 Y55.067
X72.247 Y55.195
X72.365 Y55.42
X72.419 Y55.516
X72.56 Y55.744
X72.606 Y55.815
X72.766 Y56.043
X72.819 Y56.114
X73.175 Y56.564
X73.219 Y56.618
X73.59 Y57.044
X73.608 Y57.064
X73.788 Y57.264
X73.795 Y57.271
X73.969 Y57.462
X73.97 Y57.463
X74.135 Y57.643
X74.287 Y57.809
X74.426 Y57.962
X74.552 Y58.102
X74.665 Y58.228
X74.768 Y58.346
G2 X75.896 Y58.857 I1.128 J-0.989
G1 X76.41
X76.579 Y58.997
X76.625 Y59.033
X76.824 Y59.185
X76.865 Y59.215
X77.28 Y59.509
X77.457 Y59.636
X77.502 Y59.672
X77.495 Y59.69
X77.449 Y59.803
X77.385 Y59.938
X77.303 Y60.093
X77.205 Y60.266
X77.092 Y60.454
X76.964 Y60.655
X76.826 Y60.863
X76.512 Y61.319
X76.172 Y61.796
X75.819 Y62.286
X75.813 Y62.295
X75.468 Y62.782
X75.452 Y62.805
X75.129 Y63.28
X75.111 Y63.308
X74.961 Y63.538
X74.945 Y63.564
X74.806 Y63.788
X74.787 Y63.819
X74.66 Y64.037
X74.637 Y64.077
X74.523 Y64.287
X74.498 Y64.334
X74.397 Y64.537
X74.369 Y64.595
X74.282 Y64.789
X74.252 Y64.861
X74.181 Y65.045
X74.15 Y65.134
X74.094 Y65.31
X74.065 Y65.416
X74.025 Y65.582
X74. Y65.712
X73.978 Y65.869
X73.968 Y65.946
X73.963 Y66.025
X73.957 Y66.171
X73.956 Y66.262
X73.961 Y66.353
X73.972 Y66.49
X73.984 Y66.593
X74.003 Y66.696
X74.032 Y66.823
X74.061 Y66.933
X74.099 Y67.041
X74.144 Y67.158
X74.192 Y67.268
X74.25 Y67.374
X74.312 Y67.481
X74.377 Y67.581
X74.45 Y67.676
X74.53 Y67.773
X74.607 Y67.858
X74.69 Y67.938
X74.787 Y68.024
X74.867 Y68.09
X74.951 Y68.15
X75.066 Y68.226
G2 X75.593 Y68.446 I0.831 J-1.249
G1 X78.284 Y69.002
X78.296 Y69.047
X78.383 Y69.356
X78.41 Y69.441
X78.518 Y69.752
X78.55 Y69.835
X78.68 Y70.149
X78.716 Y70.229
X78.868 Y70.542
X78.91 Y70.622
X79.084 Y70.931
X79.133 Y71.012
X79.328 Y71.313
X79.384 Y71.394
X79.601 Y71.685
X79.665 Y71.765
X79.902 Y72.041
X79.974 Y72.118
X80.229 Y72.377
X80.306 Y72.449
X80.546 Y72.66
X80.53 Y72.709
X80.501 Y72.802
X80.441 Y73.026
X80.421 Y73.11
X80.373 Y73.34
X80.359 Y73.417
X80.323 Y73.652
X80.313 Y73.726
X80.291 Y73.939
X80.285 Y74.013
X80.274 Y74.225
X80.272 Y74.301
X80.271 Y74.513
X80.273 Y74.589
X80.283 Y74.8
X80.289 Y74.877
X80.31 Y75.087
X80.32 Y75.165
X80.352 Y75.373
X80.366 Y75.452
X80.409 Y75.659
X80.427 Y75.737
X80.482 Y75.942
X80.504 Y76.019
X80.57 Y76.223
X80.596 Y76.298
X80.673 Y76.499
X80.704 Y76.573
X80.792 Y76.772
X80.826 Y76.843
X80.925 Y77.038
X80.962 Y77.107
X81.073 Y77.299
X81.113 Y77.365
X81.234 Y77.551
X81.278 Y77.616
X81.409 Y77.797
X81.457 Y77.86
X81.598 Y78.034
X81.649 Y78.094
X81.799 Y78.261
X81.855 Y78.32
X82.014 Y78.478
X82.075 Y78.536
X82.242 Y78.685
X82.307 Y78.739
X82.482 Y78.878
X82.552 Y78.931
X82.735 Y79.059
X82.809 Y79.108
X82.998 Y79.225
X83.076 Y79.27
X83.272 Y79.375
X83.354 Y79.416
X83.556 Y79.509
X83.638 Y79.544
X83.847 Y79.626
X83.929 Y79.655
X84.144 Y79.725
X84.227 Y79.75
X84.447 Y79.807
X84.528 Y79.826
X84.753 Y79.872
X84.833 Y79.886
X85.064 Y79.921
X85.141 Y79.93
X85.376 Y79.953
X85.45 Y79.958
X85.692 Y79.969
X85.764 Y79.971
X86.007
X86.251
X86.323 Y79.969
X86.564 Y79.958
X86.638 Y79.953
X86.874 Y79.93
X86.951 Y79.921
X87.182 Y79.886
X87.261 Y79.872
X87.487 Y79.826
X87.568 Y79.807
X87.788 Y79.75
X87.871 Y79.725
X88.085 Y79.655
X88.168 Y79.626
X88.377 Y79.544
X88.459 Y79.509
X88.661 Y79.416
X88.742 Y79.375
X88.938 Y79.27
X89.017 Y79.224
X89.206 Y79.107
X89.28 Y79.059
X89.462 Y78.931
X89.533 Y78.878
X89.708 Y78.739
X89.772 Y78.685
X89.939 Y78.536
X90.001 Y78.478
X90.16 Y78.32
X90.215 Y78.261
X90.365 Y78.095
X90.417 Y78.034
X90.558 Y77.86
X90.606 Y77.797
X90.736 Y77.616
X90.78 Y77.552
X90.901 Y77.365
X90.942 Y77.299
X91.052 Y77.107
X91.09 Y77.038
X91.189 Y76.843
X91.223 Y76.772
X91.311 Y76.573
X91.341 Y76.499
X91.418 Y76.298
X91.445 Y76.223
X91.51 Y76.019
X91.533 Y75.942
X91.587 Y75.737
X91.605 Y75.659
X91.649 Y75.452
X91.663 Y75.374
X91.695 Y75.166
X91.705 Y75.087
X91.726 Y74.877
X91.732 Y74.8
X91.742 Y74.589
X91.743 Y74.512
Y74.301
X91.741 Y74.226
X91.729 Y74.014
X91.723 Y73.939
X91.701 Y73.726
X91.692 Y73.652
X91.656 Y73.417
X91.642 Y73.34
X91.594 Y73.11
X91.574 Y73.026
X91.513 Y72.802
X91.485 Y72.709
X91.468 Y72.66
X91.709 Y72.449
X91.785 Y72.377
X92.041 Y72.119
X92.113 Y72.041
X92.349 Y71.765
X92.414 Y71.685
X92.63 Y71.394
X92.687 Y71.313
X92.882 Y71.012
X92.931 Y70.931
X93.105 Y70.622
X93.147 Y70.542
X93.299 Y70.229
X93.335 Y70.148
X93.465 Y69.835
X93.496 Y69.753
X93.605 Y69.441
X93.632 Y69.356
X93.719 Y69.047
X93.731 Y69.002
X96.422 Y68.446
G2 X96.949 Y68.226 I-0.303 J-1.469
G1 X97.064 Y68.15
X97.148 Y68.089
X97.228 Y68.024
X97.325 Y67.937
X97.408 Y67.858
X97.484 Y67.773
X97.564 Y67.677
X97.637 Y67.582
X97.702 Y67.481
X97.765 Y67.374
X97.822 Y67.268
X97.871 Y67.158
X97.916 Y67.041
X97.954 Y66.933
X97.983 Y66.822
X98.011 Y66.695
X98.03 Y66.593
X98.042 Y66.491
X98.054 Y66.354
X98.058 Y66.263
X98.057 Y66.171
X98.052 Y66.025
X98.046 Y65.946
X98.037 Y65.869
X98.014 Y65.712
X97.99 Y65.582
X97.95 Y65.416
X97.92 Y65.309
X97.865 Y65.133
X97.834 Y65.046
X97.763 Y64.861
X97.733 Y64.789
X97.646 Y64.595
X97.618 Y64.537
X97.517 Y64.334
X97.492 Y64.287
X97.377 Y64.077
X97.355 Y64.037
X97.227 Y63.819
X97.208 Y63.788
X97.069 Y63.563
X97.053 Y63.538
X96.904 Y63.308
X96.885 Y63.28
X96.563 Y62.805
X96.546 Y62.782
X96.201 Y62.295
X96.195 Y62.286
X95.843 Y61.796
X95.503 Y61.319
X95.188 Y60.863
X95.05 Y60.655
X94.923 Y60.454
X94.809 Y60.266
X94.711 Y60.093
X94.63 Y59.938
X94.566 Y59.803
X94.519 Y59.69
X94.513 Y59.672
X94.558 Y59.636
X94.735 Y59.509
X95.15 Y59.215
X95.191 Y59.185
X95.39 Y59.033
X95.436 Y58.997
X95.605 Y58.857
X96.118
G2 X97.247 Y58.346 I0. J-1.5
G1 X97.35 Y58.228
X97.462 Y58.102
X97.588 Y57.963
X97.727 Y57.809
X97.88 Y57.643
X98.044 Y57.463
X98.046 Y57.461
X98.22 Y57.271
X98.226 Y57.265
X98.407 Y57.064
X98.425 Y57.044
X98.795 Y56.618
X98.84 Y56.564
X99.196 Y56.114
X99.248 Y56.043
X99.408 Y55.815
X99.455 Y55.744
X99.595 Y55.516
X99.65 Y55.42
X99.767 Y55.195
X99.826 Y55.067
X99.916 Y54.847
X99.947 Y54.765
X99.972 Y54.681
X100.031 Y54.468
X100.056 Y54.365
X100.073 Y54.261
X100.1 Y54.056
X100.11 Y53.938
X100.111 Y53.819
X100.106 Y53.624
X100.097 Y53.501
X100.079 Y53.38
X100.042 Y53.194
X100.016 Y53.082
X99.981 Y52.972
X99.917 Y52.797
X99.881 Y52.705
X99.838 Y52.615
X99.753 Y52.451
X99.714 Y52.382
X99.672 Y52.315
X99.57 Y52.16
X99.502 Y52.066
X99.389 Y51.92
X99.323 Y51.842
X99.086 Y51.577
X99.057 Y51.545
X98.841 Y51.318
X98.758 Y51.229
X98.694 Y51.156
X98.647 Y51.1
X98.596 Y51.035
G2 X97.413 Y50.458 I-1.183 J0.923
G1 X95.288
X93.02 Y48.907
X93.136 Y48.043
X93.26 Y47.175
X93.39 Y46.314
X93.523 Y45.462
X93.661 Y44.62
X93.804 Y43.789
X93.95 Y42.968
X94.102 Y42.157
X94.259 Y41.358
X94.42 Y40.571
X94.586 Y39.795
X94.758 Y39.031
X94.935 Y38.281
X95.117 Y37.543
X95.305 Y36.818
X95.498 Y36.106
X95.697 Y35.407
X95.902 Y34.722
X96.112 Y34.05
X96.328 Y33.39
X96.55 Y32.743
X96.777 Y32.108
X97.009 Y31.484
X97.247 Y30.873
X97.489 Y30.273
X97.737 Y29.684
X97.989 Y29.105
X98.247 Y28.538
X98.509 Y27.981
X98.775 Y27.435
X99.051 Y26.89
G2 X98.413 Y24.885 I-1.338 J-0.677
G1 X97.612 Y24.463
X97.63 Y24.372
X97.892 Y23.952
X97.916 Y23.911
X98.297 Y23.253
X98.321 Y23.21
X98.676 Y22.547
X98.699 Y22.502
X99.029 Y21.834
X99.051 Y21.787
X99.355 Y21.114
X99.376 Y21.066
X99.654 Y20.389
X99.674 Y20.339
X99.925 Y19.659
X99.943 Y19.608
X100.167 Y18.926
X100.183 Y18.874
X100.38 Y18.194
X100.394 Y18.14
X100.563 Y17.465
X100.575 Y17.41
X100.716 Y16.742
X100.726 Y16.686
X100.838 Y16.032
X100.847 Y15.973
X100.93 Y15.337
X100.937 Y15.276
X100.991 Y14.665
X100.995 Y14.617
X101.012 Y14.322
X101.013 Y14.288
X101.023 Y14.002
X101.024 Y13.966
X101.026 Y13.689
Y13.652
X101.022 Y13.384
X101.021 Y13.344
X101.011 Y13.086
X101.008 Y13.045
X100.991 Y12.798
X100.988 Y12.754
X100.965 Y12.517
X100.959 Y12.472
X100.93 Y12.245
X100.923 Y12.197
X100.888 Y11.981
X100.879 Y11.932
X100.839 Y11.726
X100.828 Y11.676
X100.783 Y11.48
X100.77 Y11.43
X100.72 Y11.243
X100.7 Y11.172
X100.587 Y10.821
X100.559 Y10.742
X100.433 Y10.414
X100.405 Y10.347
X100.129 Y9.72
X100.127 Y9.715
X99.99 Y9.409
X99.864 Y9.108
X99.744 Y8.793
X99.628 Y8.452
X99.516 Y8.077
X99.408 Y7.666
X99.303 Y7.214
X99.23 Y6.853
Y5.772
X99.653 Y5.501
X100.414
G2 X101.474 Y5.063 I0. J-1.5
G1 X102.075 Y4.462
G2 X102.515 Y3.401 I-1.06 J-1.061
G1 Y1.6
G2 X102.075 Y0.539 I-1.5 J0.
G1 X101.474 Y-0.061
G2 X100.414 Y-0.5 I-1.06 J1.061
G1 X71.6
G2 X70.54 Y-0.061 I0. J1.5
G1 X69.939 Y0.54
G2 X69.5 Y1.6 I1.061 J1.061
G1 Y3.401
G2 X69.939 Y4.462 I1.5 J0.
G1 X70.54 Y5.062
G2 X71.6 Y5.501 I1.061 J-1.061
G1 X72.362
X72.784 Y5.772
Y6.853
X72.711 Y7.214
X72.607 Y7.666
X72.499 Y8.077
X72.386 Y8.452
X72.27 Y8.793
X72.15 Y9.108
X72.024 Y9.409
X71.888 Y9.715
X71.886 Y9.72
X71.61 Y10.347
X71.582 Y10.414
X71.456 Y10.741
X71.428 Y10.822
X71.315 Y11.173
X71.294 Y11.243
X71.244 Y11.43
X71.232 Y11.48
X71.186 Y11.676
X71.176 Y11.726
X71.135 Y11.932
X71.126 Y11.981
X71.091 Y12.197
X71.085 Y12.244
X71.055 Y12.471
X71.05 Y12.517
X71.027 Y12.754
X71.023 Y12.798
X71.006 Y13.045
X71.004 Y13.086
X70.993 Y13.344
X70.992 Y13.384
X70.988 Y13.652
Y13.689
X70.991 Y13.966
X70.992 Y14.002
X71.002 Y14.288
X71.003 Y14.322
X71.02 Y14.617
X71.023 Y14.665
X71.078 Y15.276
X71.085 Y15.337
X71.168 Y15.973
X71.176 Y16.032
X71.288 Y16.686
X71.299 Y16.742
X71.439 Y17.41
X71.452 Y17.465
X71.621 Y18.14
X71.635 Y18.194
X71.832 Y18.874
X71.848 Y18.926
X72.072 Y19.608
X72.09 Y19.659
X72.341 Y20.339
X72.361 Y20.389
X72.639 Y21.066
X72.659 Y21.114
X72.964 Y21.788
X72.985 Y21.834
X73.315 Y22.502
X73.339 Y22.547
X73.694 Y23.21
X73.718 Y23.253
X74.098 Y23.91
X74.123 Y23.952
X74.385 Y24.372
X74.403 Y24.463
X73.602 Y24.885
G2 X72.963 Y26.89 I0.7 J1.327
G1 X73.239 Y27.435
X73.506 Y27.981
X73.768 Y28.538
X74.025 Y29.105
X74.278 Y29.684
X74.525 Y30.273
X74.768 Y30.873
X75.006 Y31.484
X75.238 Y32.108
X75.465 Y32.743
X75.686 Y33.39
X75.902 Y34.05
X76.113 Y34.722
X76.317 Y35.407
X76.517 Y36.106
X76.71 Y36.818
X76.898 Y37.543
X77.08 Y38.281
X77.257 Y39.031
X77.428 Y39.795
X77.595 Y40.571
X77.756 Y41.358
X77.785 Y41.505
G3 X77.548 Y41.857 I-0.294 J0.058
G1 X77.254 Y41.915
X77.188 Y41.928 Z0.258
X77.126 Y41.94 Z0.28
X77.07 Y41.951 Z0.315
X77.023 Y41.96 Z0.363
X76.988 Y41.967 Z0.42
X76.967 Y41.971 Z0.483
X76.959 Y41.972 Z0.55
G0 Z21.007
X29.174 Y49.889
G1 Z17.007 F133.3
Z0.55
X29.17 Y49.895 Z0.483 F400
X29.157 Y49.914 Z0.42
X29.137 Y49.943 Z0.363
X29.111 Y49.983 Z0.315
X29.079 Y50.03 Z0.28
X29.043 Y50.082 Z0.258
X29.006 Y50.138 Z0.25
X28.838 Y50.386
G3 X28.421 Y50.467 I-0.249 J-0.168
G2 X27.413 Y50.158 I-1.008 J1.491
G1 X25.38
X23.342 Y48.764
X23.433 Y48.085
X23.557 Y47.218
X23.686 Y46.359
X23.819 Y45.509
X23.957 Y44.67
X24.099 Y43.84
X24.246 Y43.022
X24.397 Y42.214
X24.553 Y41.417
X24.713 Y40.632
X24.879 Y39.859
X25.05 Y39.099
X25.226 Y38.351
X25.408 Y37.616
X25.595 Y36.895
X25.787 Y36.186
X25.985 Y35.491
X26.189 Y34.81
X26.398 Y34.141
X26.613 Y33.485
X26.833 Y32.842
X27.058 Y32.211
X27.289 Y31.591
X27.525 Y30.984
X27.767 Y30.387
X28.013 Y29.802
X28.264 Y29.227
X28.519 Y28.664
X28.779 Y28.111
X29.044 Y27.569
X29.319 Y27.025
G2 X28.553 Y24.62 I-1.606 J-0.813
G1 X28.008 Y24.333
X28.146 Y24.11
X28.176 Y24.061
X28.557 Y23.403
X28.585 Y23.352
X28.941 Y22.689
X28.968 Y22.635
X29.298 Y21.967
X29.325 Y21.911
X29.629 Y21.238
X29.654 Y21.18
X29.932 Y20.503
X29.955 Y20.443
X30.206 Y19.763
X30.228 Y19.702
X30.452 Y19.02
X30.471 Y18.957
X30.668 Y18.277
X30.685 Y18.213
X30.854 Y17.537
X30.869 Y17.471
X31.009 Y16.804
X31.022 Y16.737
X31.134 Y16.082
X31.144 Y16.012
X31.228 Y15.376
X31.236 Y15.303
X31.29 Y14.692
X31.294 Y14.634
X31.311 Y14.339
X31.313 Y14.298
X31.323 Y14.012
X31.324 Y13.969
X31.326 Y13.692
Y13.647
X31.322 Y13.38
X31.321 Y13.332
X31.31 Y13.074
X31.308 Y13.025
X31.291 Y12.777
X31.286 Y12.725
X31.263 Y12.487
X31.257 Y12.433
X31.228 Y12.207
X31.219 Y12.149
X31.184 Y11.933
X31.174 Y11.874
X31.133 Y11.668
X31.121 Y11.608
X31.075 Y11.412
X31.06 Y11.352
X31.01 Y11.165
X30.985 Y11.081
X30.872 Y10.729
X30.839 Y10.634
X30.713 Y10.306
X30.68 Y10.226
X30.403 Y9.599
X30.401 Y9.593
X30.266 Y9.29
X30.143 Y8.997
X30.027 Y8.691
X29.914 Y8.36
X29.805 Y7.996
X29.699 Y7.594
X29.597 Y7.151
X29.53 Y6.823
Y5.936
X29.741 Y5.801
X30.414
G2 X31.687 Y5.274 I0. J-1.8
G1 X32.287 Y4.674
G2 X32.815 Y3.401 I-1.273 J-1.273
G1 Y1.6
G2 X32.287 Y0.328 I-1.8 J0.
G1 X31.687 Y-0.273
G2 X30.414 Y-0.8 I-1.273 J1.273
G1 X1.6
G2 X0.328 Y-0.273 I0. J1.8
G1 X-0.273 Y0.328
G2 X-0.8 Y1.6 I1.273 J1.273
G1 Y3.401
G2 X-0.273 Y4.674 I1.8 J0.
G1 X0.327 Y5.274
G2 X1.6 Y5.801 I1.273 J-1.273
G1 X2.274
X2.484 Y5.936
Y6.823
X2.418 Y7.151
X2.316 Y7.594
X2.21 Y7.996
X2.101 Y8.36
X1.988 Y8.691
X1.872 Y8.997
X1.749 Y9.29
X1.614 Y9.593
X1.611 Y9.599
X1.335 Y10.226
X1.302 Y10.306
X1.176 Y10.634
X1.142 Y10.73
X1.029 Y11.081
X1.005 Y11.165
X0.954 Y11.352
X0.94 Y11.412
X0.894 Y11.608
X0.881 Y11.668
X0.841 Y11.874
X0.83 Y11.933
X0.795 Y12.149
X0.787 Y12.206
X0.758 Y12.433
X0.752 Y12.488
X0.728 Y12.725
X0.724 Y12.777
X0.707 Y13.025
X0.704 Y13.074
X0.694 Y13.332
X0.692 Y13.379
X0.688 Y13.647
Y13.692
X0.691 Y13.969
X0.692 Y14.012
X0.702 Y14.298
X0.704 Y14.339
X0.72 Y14.634
X0.724 Y14.692
X0.779 Y15.303
X0.787 Y15.376
X0.87 Y16.012
X0.881 Y16.082
X0.993 Y16.737
X1.005 Y16.804
X1.146 Y17.472
X1.161 Y17.537
X1.329 Y18.213
X1.347 Y18.277
X1.543 Y18.957
X1.563 Y19.02
X1.787 Y19.702
X1.808 Y19.763
X2.06 Y20.443
X2.083 Y20.503
X2.361 Y21.18
X2.386 Y21.238
X2.69 Y21.911
X2.716 Y21.967
X3.046 Y22.635
X3.074 Y22.689
X3.43 Y23.352
X3.458 Y23.403
X3.839 Y24.061
X3.868 Y24.11
X4.007 Y24.333
X3.462 Y24.62
G2 X2.696 Y27.025 I0.84 J1.592
G1 X2.971 Y27.569
X3.235 Y28.111
X3.496 Y28.664
X3.751 Y29.227
X4.002 Y29.802
X4.248 Y30.387
X4.489 Y30.984
X4.725 Y31.591
X4.956 Y32.211
X5.182 Y32.842
X5.402 Y33.485
X5.617 Y34.141
X5.826 Y34.81
X6.029 Y35.491
X6.228 Y36.186
X6.42 Y36.895
X6.607 Y37.616
X6.788 Y38.351
X6.964 Y39.099
X7.135 Y39.859
X7.301 Y40.632
X7.462 Y41.417
X7.618 Y42.214
X7.769 Y43.021
X7.916 Y43.84
X8.058 Y44.67
X8.195 Y45.509
X8.329 Y46.359
X8.457 Y47.218
X8.582 Y48.085
X8.673 Y48.764
X6.634 Y50.158
X4.602
G2 X3.183 Y50.85 I0. J1.8
G1 X3.135 Y50.912
X3.094 Y50.96
X3.035 Y51.027
X2.955 Y51.112
X2.741 Y51.338
X2.705 Y51.377
X2.468 Y51.642
X2.389 Y51.736
X2.276 Y51.881
X2.194 Y51.995
X2.092 Y52.149
X2.042 Y52.23
X1.996 Y52.312
X1.91 Y52.477
X1.859 Y52.584
X1.815 Y52.695
X1.752 Y52.87
G2 X1.678 Y53.136 I1.693 J0.612
G1 X1.642 Y53.322
G2 X1.609 Y53.615 I1.767 J0.345
G1 X1.603 Y53.81
G2 X1.618 Y54.095 I1.799 J0.053
G1 X1.644 Y54.3
G2 X1.694 Y54.547 I1.785 J-0.232
G1 X1.753 Y54.761
X1.784 Y54.862
X1.821 Y54.96
X1.91 Y55.18
X1.981 Y55.334
X2.099 Y55.559
X2.164 Y55.674
X2.305 Y55.902
X2.361 Y55.986
X2.52 Y56.215
X2.584 Y56.3
X2.939 Y56.75
X2.993 Y56.815
X3.364 Y57.241
X3.385 Y57.265
X3.566 Y57.465
X3.573 Y57.473
X3.747 Y57.664
X3.749 Y57.666
X3.914 Y57.845
X4.066 Y58.012
X4.204 Y58.164
X4.329 Y58.302
X4.44 Y58.427
X4.543 Y58.544
G2 X5.896 Y59.158 I1.354 J-1.186
G1 X6.302
X6.387 Y59.228
X6.443 Y59.272
X6.642 Y59.424
X6.692 Y59.46
X7.105 Y59.753
X7.131 Y59.772
X7.116 Y59.804
X7.04 Y59.95
X6.947 Y60.114
X6.837 Y60.296
X6.713 Y60.491
X6.578 Y60.695
X6.266 Y61.147
X5.928 Y61.622
X5.576 Y62.111
X5.568 Y62.122
X5.223 Y62.609
X5.204 Y62.637
X4.881 Y63.111
X4.859 Y63.145
X4.71 Y63.375
X4.69 Y63.406
X4.551 Y63.63
X4.528 Y63.668
X4.401 Y63.885
X4.374 Y63.932
X4.259 Y64.143
X4.229 Y64.2
X4.128 Y64.402
X4.095 Y64.473
X4.008 Y64.666
X3.972 Y64.753
X3.901 Y64.938
X3.864 Y65.043
X3.808 Y65.219
X3.773 Y65.347
X3.733 Y65.513
X3.703 Y65.669
X3.681 Y65.826
X3.67 Y65.919
X3.663 Y66.012
X3.657 Y66.159
X3.656 Y66.268
X3.662 Y66.378
X3.673 Y66.515
X3.688 Y66.639
X3.711 Y66.761
X3.739 Y66.888
G2 X3.819 Y67.15 I1.757 J-0.393
G1 X3.865 Y67.267
G2 X3.991 Y67.527 I1.676 J-0.655
G1 X4.054 Y67.633
G2 X4.219 Y67.868 I1.55 J-0.915
G1 X4.3 Y67.965
G2 X4.491 Y68.162 I1.385 J-1.15
G1 X4.588 Y68.248
X4.684 Y68.327
X4.785 Y68.399
X4.899 Y68.476
G2 X5.532 Y68.74 I0.997 J-1.499
G1 X8.044 Y69.258
X8.094 Y69.437
X8.127 Y69.54
X8.235 Y69.851
X8.273 Y69.95
X8.403 Y70.264
X8.446 Y70.36
X8.598 Y70.673
X8.649 Y70.769
X8.822 Y71.078
X8.881 Y71.175
X9.076 Y71.477
X9.144 Y71.574
X9.361 Y71.864
X9.438 Y71.96
X9.675 Y72.236
X9.76 Y72.329
X10.016 Y72.588
X10.108 Y72.674
X10.203 Y72.757
X10.151 Y72.948
X10.127 Y73.049
X10.079 Y73.279
X10.063 Y73.371
X10.026 Y73.606
X10.015 Y73.696
X9.993 Y73.909
X9.986 Y73.997
X9.974 Y74.209
X9.972 Y74.301
X9.971 Y74.512
X9.973 Y74.603
X9.983 Y74.814
X9.99 Y74.907
X10.011 Y75.117
X10.023 Y75.21
X10.055 Y75.419
X10.072 Y75.513
X10.115 Y75.72
X10.137 Y75.813
X10.192 Y76.019
X10.219 Y76.112
X10.285 Y76.315
X10.316 Y76.405
X10.393 Y76.606
X10.43 Y76.695
X10.518 Y76.894
X10.558 Y76.978
X10.658 Y77.174
X10.702 Y77.257
X10.813 Y77.448
X10.861 Y77.528
X10.982 Y77.714
X11.035 Y77.792
X11.166 Y77.973
X11.224 Y78.049
X11.365 Y78.223
X11.426 Y78.295
X11.576 Y78.461
X11.644 Y78.533
X11.802 Y78.691
X11.876 Y78.76
X12.043 Y78.909
X12.121 Y78.974
X12.295 Y79.113
X12.38 Y79.176
X12.562 Y79.304
X12.651 Y79.363
X12.84 Y79.48
X12.934 Y79.534
X13.13 Y79.639
X13.228 Y79.688
X13.43 Y79.782
X13.529 Y79.823
X13.737 Y79.905
X13.836 Y79.941
X14.051 Y80.01
X14.151 Y80.04
X14.371 Y80.098
X14.468 Y80.12
X14.693 Y80.166
X14.789 Y80.183
X15.02 Y80.217
X15.112 Y80.229
X15.348 Y80.251
X15.437 Y80.258
X15.678 Y80.269
X15.764 Y80.271
X16.007
X16.251
X16.337 Y80.269
X16.578 Y80.258
X16.667 Y80.251
X16.903 Y80.229
X16.995 Y80.217
X17.226 Y80.183
X17.321 Y80.166
X17.547 Y80.12
X17.644 Y80.098
X17.864 Y80.04
X17.964 Y80.01
X18.178 Y79.941
X18.278 Y79.905
X18.486 Y79.823
X18.585 Y79.781
X18.787 Y79.688
X18.884 Y79.64
X19.08 Y79.534
X19.175 Y79.48
X19.364 Y79.363
X19.452 Y79.305
X19.635 Y79.176
X19.719 Y79.113
X19.894 Y78.974
X19.972 Y78.909
X20.139 Y78.76
X20.213 Y78.69
X20.371 Y78.532
X20.438 Y78.462
X20.588 Y78.295
X20.651 Y78.222
X20.791 Y78.048
X20.849 Y77.973
X20.979 Y77.792
X21.032 Y77.715
X21.153 Y77.529
X21.202 Y77.448
X21.312 Y77.257
X21.357 Y77.174
X21.456 Y76.978
X21.497 Y76.894
X21.585 Y76.695
X21.622 Y76.606
X21.699 Y76.405
X21.73 Y76.315
X21.796 Y76.111
X21.823 Y76.019
X21.877 Y75.813
X21.899 Y75.72
X21.942 Y75.513
X21.959 Y75.42
X21.991 Y75.211
X22.003 Y75.117
X22.024 Y74.907
X22.031 Y74.814
X22.041 Y74.603
X22.043 Y74.511
Y74.3
X22.04 Y74.21
X22.029 Y73.998
X22.022 Y73.909
X22. Y73.696
X21.988 Y73.606
X21.952 Y73.371
X21.935 Y73.279
X21.888 Y73.049
X21.863 Y72.948
X21.812 Y72.757
X21.907 Y72.674
X21.998 Y72.588
X22.254 Y72.33
X22.34 Y72.236
X22.577 Y71.96
X22.654 Y71.864
X22.871 Y71.574
X22.938 Y71.477
X23.134 Y71.175
X23.192 Y71.078
X23.366 Y70.769
X23.416 Y70.673
X23.569 Y70.36
X23.612 Y70.263
X23.742 Y69.95
X23.78 Y69.851
X23.888 Y69.54
X23.92 Y69.437
X23.971 Y69.258
X26.482 Y68.74
G2 X27.115 Y68.476 I-0.364 J-1.763
G1 X27.23 Y68.399
X27.331 Y68.327
X27.427 Y68.248
X27.524 Y68.162
G2 X27.715 Y67.965 I-1.194 J-1.347
G1 X27.795 Y67.868
G2 X27.961 Y67.633 I-1.384 J-1.15
G1 X28.023 Y67.527
G2 X28.15 Y67.267 I-1.55 J-0.915
G1 X28.196 Y67.15
G2 X28.276 Y66.887 I-1.676 J-0.656
G1 X28.304 Y66.761
X28.327 Y66.639
X28.341 Y66.515
X28.353 Y66.378
X28.358 Y66.269
X28.357 Y66.159
X28.351 Y66.013
X28.345 Y65.919
X28.334 Y65.825
X28.311 Y65.669
X28.281 Y65.513
X28.242 Y65.347
X28.206 Y65.218
X28.151 Y65.043
X28.114 Y64.938
X28.043 Y64.753
X28.006 Y64.666
X27.92 Y64.473
X27.886 Y64.402
X27.785 Y64.2
X27.755 Y64.143
X27.641 Y63.933
X27.614 Y63.885
X27.486 Y63.668
X27.463 Y63.63
X27.324 Y63.405
X27.305 Y63.375
X27.156 Y63.145
X27.133 Y63.111
X26.811 Y62.637
X26.791 Y62.609
X26.446 Y62.121
X26.439 Y62.111
X26.087 Y61.622
X25.748 Y61.147
X25.437 Y60.695
X25.302 Y60.491
X25.178 Y60.296
X25.068 Y60.114
X24.975 Y59.95
X24.899 Y59.804
X24.883 Y59.772
X24.909 Y59.753
X25.323 Y59.46
X25.372 Y59.424
X25.571 Y59.272
X25.627 Y59.228
X25.713 Y59.158
X26.118
G2 X27.472 Y58.544 I0. J-1.8
G1 X27.575 Y58.426
X27.686 Y58.302
X27.81 Y58.164
X27.949 Y58.012
X28.101 Y57.845
X28.266 Y57.666
X28.268 Y57.663
X28.442 Y57.473
X28.449 Y57.466
X28.629 Y57.265
X28.651 Y57.241
X29.022 Y56.815
X29.075 Y56.75
X29.431 Y56.3
X29.494 Y56.215
X29.654 Y55.986
X29.71 Y55.902
X29.851 Y55.674
X29.916 Y55.559
X30.033 Y55.334
X30.104 Y55.18
X30.194 Y54.96
X30.231 Y54.861
X30.262 Y54.761
X30.321 Y54.547
G2 X30.371 Y54.3 I-1.735 J-0.479
G1 X30.397 Y54.094
G2 X30.411 Y53.811 I-1.785 J-0.231
G1 X30.406 Y53.615
G2 X30.373 Y53.322 I-1.799 J0.052
G1 X30.337 Y53.137
G2 X30.263 Y52.87 I-1.767 J0.345
G1 X30.2 Y52.695
X30.156 Y52.584
X30.104 Y52.477
X30.019 Y52.313
X29.973 Y52.23
X29.923 Y52.149
X29.82 Y51.994
X29.739 Y51.881
X29.626 Y51.736
X29.547 Y51.642
X29.31 Y51.377
X29.274 Y51.338
X29.059 Y51.112
X28.98 Y51.027
X28.92 Y50.96
X28.88 Y50.911
X28.832 Y50.85
G2 X28.421 Y50.467 I-1.419 J1.107
X28.133 Y50.473 I-0.14 J0.207
G3 X27.848 Y50.522 I-0.191 J-0.258
G2 X27.413 Y50.458 I-0.436 J1.435
G1 X25.288
X23.02 Y48.907
X23.136 Y48.043
X23.26 Y47.175
X23.39 Y46.314
X23.523 Y45.462
X23.661 Y44.62
X23.804 Y43.789
X23.95 Y42.968
X24.102 Y42.157
X24.259 Y41.358
X24.42 Y40.571
X24.586 Y39.795
X24.758 Y39.031
X24.935 Y38.281
X25.117 Y37.543
X25.305 Y36.818
X25.498 Y36.106
X25.697 Y35.407
X25.902 Y34.722
X26.112 Y34.05
X26.328 Y33.39
X26.55 Y32.743
X26.777 Y32.108
X27.009 Y31.484
X27.247 Y30.873
X27.489 Y30.273
X27.737 Y29.684
X27.989 Y29.105
X28.247 Y28.538
X28.509 Y27.981
X28.775 Y27.435
X29.051 Y26.89
G2 X28.413 Y24.885 I-1.338 J-0.677
G1 X27.612 Y24.463
X27.63 Y24.372
X27.892 Y23.952
X27.916 Y23.911
X28.297 Y23.253
X28.321 Y23.21
X28.676 Y22.547
X28.699 Y22.502
X29.029 Y21.834
X29.051 Y21.787
X29.355 Y21.114
X29.376 Y21.066
X29.654 Y20.389
X29.674 Y20.339
X29.925 Y19.659
X29.943 Y19.608
X30.167 Y18.926
X30.183 Y18.874
X30.38 Y18.194
X30.394 Y18.14
X30.563 Y17.465
X30.575 Y17.41
X30.716 Y16.742
X30.726 Y16.686
X30.838 Y16.032
X30.847 Y15.973
X30.93 Y15.337
X30.937 Y15.276
X30.991 Y14.665
X30.995 Y14.617
X31.012 Y14.322
X31.013 Y14.288
X31.023 Y14.002
X31.024 Y13.966
X31.026 Y13.689
Y13.652
X31.022 Y13.384
X31.021 Y13.344
X31.011 Y13.086
X31.008 Y13.045
X30.991 Y12.798
X30.988 Y12.754
X30.965 Y12.517
X30.959 Y12.472
X30.93 Y12.245
X30.923 Y12.197
X30.888 Y11.981
X30.879 Y11.932
X30.839 Y11.726
X30.828 Y11.676
X30.783 Y11.48
X30.77 Y11.43
X30.72 Y11.243
X30.7 Y11.172
X30.587 Y10.821
X30.559 Y10.742
X30.433 Y10.414
X30.405 Y10.347
X30.129 Y9.72
X30.127 Y9.715
X29.99 Y9.409
X29.864 Y9.108
X29.744 Y8.793
X29.628 Y8.452
X29.516 Y8.077
X29.408 Y7.666
X29.303 Y7.214
X29.23 Y6.853
Y5.772
X29.653 Y5.501
X30.414
G2 X31.475 Y5.062 I0. J-1.5
G1 X32.075 Y4.462
G2 X32.515 Y3.401 I-1.061 J-1.061
G1 Y1.6
G2 X32.075 Y0.54 I-1.5 J0.
G1 X31.475 Y-0.061
G2 X30.414 Y-0.5 I-1.061 J1.061
G1 X1.6
G2 X0.54 Y-0.061 I0. J1.5
G1 X-0.061 Y0.54
G2 X-0.5 Y1.6 I1.061 J1.061
G1 Y3.401
G2 X-0.061 Y4.462 I1.5 J0.
G1 X0.54 Y5.062
G2 X1.6 Y5.501 I1.061 J-1.061
G1 X2.362
X2.784 Y5.772
Y6.853
X2.711 Y7.214
X2.607 Y7.665
X2.499 Y8.077
X2.386 Y8.452
X2.27 Y8.793
X2.15 Y9.108
X2.024 Y9.409
X1.888 Y9.715
X1.886 Y9.72
X1.609 Y10.347
X1.582 Y10.414
X1.456 Y10.741
X1.428 Y10.821
X1.315 Y11.173
X1.294 Y11.243
X1.244 Y11.43
X1.232 Y11.48
X1.186 Y11.676
X1.176 Y11.726
X1.135 Y11.932
X1.126 Y11.981
X1.091 Y12.197
X1.085 Y12.245
X1.055 Y12.471
X1.05 Y12.517
X1.027 Y12.754
X1.023 Y12.798
X1.006 Y13.045
X1.004 Y13.087
X0.993 Y13.345
X0.992 Y13.384
X0.988 Y13.652
Y13.689
X0.991 Y13.966
X0.992 Y14.002
X1.002 Y14.288
X1.003 Y14.322
X1.02 Y14.617
X1.023 Y14.665
X1.078 Y15.276
X1.085 Y15.337
X1.168 Y15.973
X1.176 Y16.031
X1.288 Y16.686
X1.299 Y16.742
X1.439 Y17.41
X1.452 Y17.465
X1.621 Y18.14
X1.635 Y18.194
X1.832 Y18.874
X1.848 Y18.926
X2.072 Y19.608
X2.09 Y19.659
X2.341 Y20.339
X2.361 Y20.389
X2.639 Y21.066
X2.659 Y21.114
X2.963 Y21.787
X2.985 Y21.834
X3.315 Y22.502
X3.338 Y22.547
X3.694 Y23.21
X3.718 Y23.253
X4.098 Y23.911
X4.123 Y23.952
X4.385 Y24.372
X4.403 Y24.463
X3.602 Y24.885
G2 X2.963 Y26.89 I0.7 J1.327
G1 X3.239 Y27.435
X3.506 Y27.981
X3.768 Y28.538
X4.025 Y29.105
X4.278 Y29.684
X4.525 Y30.273
X4.768 Y30.873
X5.006 Y31.484
X5.238 Y32.108
X5.465 Y32.743
X5.686 Y33.39
X5.902 Y34.05
X6.113 Y34.722
X6.317 Y35.407
X6.517 Y36.106
X6.71 Y36.818
X6.898 Y37.543
X7.08 Y38.281
X7.257 Y39.032
X7.428 Y39.795
X7.595 Y40.571
X7.756 Y41.358
X7.913 Y42.157
X8.064 Y42.967
X8.211 Y43.789
X8.354 Y44.62
X8.491 Y45.462
X8.625 Y46.314
X8.754 Y47.175
X8.879 Y48.043
X8.995 Y48.907
X6.727 Y50.458
X4.602
G2 X3.419 Y51.035 I0. J1.5
G1 X3.368 Y51.1
X3.321 Y51.156
X3.257 Y51.229
X3.174 Y51.317
X2.958 Y51.545
X2.928 Y51.577
X2.691 Y51.842
X2.626 Y51.92
X2.513 Y52.065
X2.444 Y52.16
X2.342 Y52.315
X2.3 Y52.382
X2.262 Y52.451
X2.177 Y52.615
X2.134 Y52.705
X2.097 Y52.797
X2.034 Y52.972
X1.999 Y53.082
X1.972 Y53.194
X1.936 Y53.379
X1.918 Y53.501
X1.909 Y53.623
X1.903 Y53.819
X1.904 Y53.938
X1.915 Y54.056
X1.942 Y54.261
X1.959 Y54.365
X1.983 Y54.468
X2.042 Y54.681
X2.068 Y54.765
X2.099 Y54.847
X2.188 Y55.067
X2.247 Y55.195
X2.365 Y55.42
X2.419 Y55.516
X2.56 Y55.744
X2.606 Y55.815
X2.766 Y56.043
X2.819 Y56.114
X3.175 Y56.564
X3.219 Y56.618
X3.59 Y57.044
X3.608 Y57.064
X3.789 Y57.265
X3.795 Y57.271
X3.968 Y57.461
X3.97 Y57.464
X4.135 Y57.643
X4.287 Y57.809
X4.427 Y57.962
X4.552 Y58.102
X4.665 Y58.228
X4.768 Y58.346
G2 X5.896 Y58.857 I1.128 J-0.989
G1 X6.41
X6.578 Y58.997
X6.625 Y59.033
X6.824 Y59.185
X6.865 Y59.215
X7.28 Y59.509
X7.457 Y59.636
X7.502 Y59.672
X7.495 Y59.69
X7.449 Y59.803
X7.385 Y59.938
X7.303 Y60.093
X7.205 Y60.266
X7.092 Y60.454
X6.964 Y60.655
X6.826 Y60.863
X6.512 Y61.319
X6.172 Y61.796
X5.819 Y62.286
X5.813 Y62.295
X5.468 Y62.782
X5.452 Y62.805
X5.129 Y63.28
X5.111 Y63.308
X4.962 Y63.538
X4.945 Y63.564
X4.806 Y63.788
X4.787 Y63.82
X4.66 Y64.037
X4.638 Y64.076
X4.523 Y64.287
X4.498 Y64.334
X4.396 Y64.537
X4.369 Y64.595
X4.282 Y64.789
X4.252 Y64.861
X4.181 Y65.046
X4.15 Y65.134
X4.094 Y65.309
X4.065 Y65.416
X4.025 Y65.582
X4. Y65.712
X3.978 Y65.869
X3.968 Y65.946
X3.963 Y66.024
X3.957 Y66.171
X3.956 Y66.262
X3.961 Y66.353
X3.972 Y66.49
X3.984 Y66.593
X4.003 Y66.696
X4.032 Y66.822
X4.061 Y66.933
X4.098 Y67.041
X4.144 Y67.158
X4.192 Y67.268
X4.249 Y67.374
X4.312 Y67.481
X4.377 Y67.581
X4.45 Y67.677
X4.53 Y67.773
X4.607 Y67.858
X4.69 Y67.937
X4.787 Y68.024
X4.867 Y68.09
X4.951 Y68.15
X5.065 Y68.226
G2 X5.593 Y68.446 I0.831 J-1.249
G1 X8.284 Y69.002
X8.296 Y69.047
X8.383 Y69.356
X8.41 Y69.441
X8.518 Y69.753
X8.55 Y69.835
X8.68 Y70.149
X8.716 Y70.229
X8.868 Y70.542
X8.91 Y70.622
X9.084 Y70.931
X9.133 Y71.012
X9.328 Y71.313
X9.384 Y71.394
X9.601 Y71.685
X9.665 Y71.765
X9.902 Y72.041
X9.974 Y72.118
X10.229 Y72.377
X10.306 Y72.449
X10.546 Y72.66
X10.53 Y72.709
X10.501 Y72.802
X10.441 Y73.026
X10.421 Y73.11
X10.373 Y73.34
X10.359 Y73.417
X10.323 Y73.652
X10.313 Y73.726
X10.291 Y73.939
X10.285 Y74.013
X10.274 Y74.225
X10.272 Y74.301
X10.271 Y74.513
X10.273 Y74.589
X10.283 Y74.8
X10.289 Y74.877
X10.31 Y75.087
X10.32 Y75.165
X10.352 Y75.373
X10.366 Y75.452
X10.409 Y75.659
X10.427 Y75.737
X10.482 Y75.942
X10.504 Y76.019
X10.57 Y76.223
X10.596 Y76.298
X10.673 Y76.499
X10.704 Y76.573
X10.792 Y76.772
X10.826 Y76.843
X10.925 Y77.038
X10.962 Y77.107
X11.073 Y77.299
X11.113 Y77.365
X11.234 Y77.551
X11.278 Y77.616
X11.409 Y77.797
X11.457 Y77.86
X11.598 Y78.034
X11.649 Y78.094
X11.799 Y78.261
X11.855 Y78.32
X12.014 Y78.478
X12.075 Y78.536
X12.242 Y78.685
X12.307 Y78.739
X12.482 Y78.878
X12.552 Y78.931
X12.735 Y79.059
X12.809 Y79.108
X12.998 Y79.225
X13.076 Y79.27
X13.272 Y79.375
X13.354 Y79.416
X13.556 Y79.509
X13.638 Y79.544
X13.847 Y79.626
X13.929 Y79.655
X14.144 Y79.725
X14.227 Y79.75
X14.447 Y79.807
X14.528 Y79.826
X14.753 Y79.872
X14.833 Y79.886
X15.064 Y79.921
X15.141 Y79.93
X15.376 Y79.953
X15.45 Y79.958
X15.692 Y79.969
X15.764 Y79.971
X16.007
X16.251
X16.323 Y79.969
X16.564 Y79.958
X16.638 Y79.953
X16.874 Y79.93
X16.951 Y79.921
X17.182 Y79.886
X17.261 Y79.872
X17.487 Y79.826
X17.568 Y79.807
X17.788 Y79.75
X17.871 Y79.725
X18.085 Y79.655
X18.168 Y79.626
X18.377 Y79.544
X18.459 Y79.509
X18.661 Y79.416
X18.742 Y79.375
X18.938 Y79.27
X19.017 Y79.224
X19.206 Y79.107
X19.28 Y79.059
X19.462 Y78.931
X19.533 Y78.878
X19.708 Y78.739
X19.772 Y78.685
X19.939 Y78.536
X20.001 Y78.478
X20.16 Y78.32
X20.215 Y78.261
X20.365 Y78.095
X20.417 Y78.034
X20.558 Y77.86
X20.606 Y77.797
X20.736 Y77.616
X20.78 Y77.552
X20.901 Y77.365
X20.942 Y77.299
X21.052 Y77.107
X21.09 Y77.038
X21.189 Y76.843
X21.223 Y76.772
X21.311 Y76.573
X21.341 Y76.499
X21.418 Y76.298
X21.445 Y76.223
X21.51 Y76.019
X21.533 Y75.942
X21.587 Y75.737
X21.605 Y75.659
X21.649 Y75.452
X21.663 Y75.374
X21.695 Y75.166
X21.705 Y75.087
X21.726 Y74.877
X21.732 Y74.8
X21.742 Y74.589
X21.743 Y74.512
Y74.301
X21.741 Y74.226
X21.729 Y74.014
X21.723 Y73.939
X21.701 Y73.726
X21.692 Y73.652
X21.656 Y73.417
X21.642 Y73.34
X21.594 Y73.11
X21.574 Y73.026
X21.513 Y72.802
X21.485 Y72.709
X21.468 Y72.66
X21.709 Y72.449
X21.785 Y72.377
X22.041 Y72.119
X22.113 Y72.041
X22.349 Y71.765
X22.414 Y71.685
X22.63 Y71.394
X22.687 Y71.313
X22.882 Y71.012
X22.931 Y70.931
X23.105 Y70.622
X23.147 Y70.542
X23.299 Y70.229
X23.335 Y70.148
X23.465 Y69.835
X23.496 Y69.753
X23.605 Y69.441
X23.632 Y69.356
X23.719 Y69.047
X23.731 Y69.002
X26.422 Y68.446
G2 X26.949 Y68.226 I-0.303 J-1.469
G1 X27.064 Y68.15
X27.148 Y68.089
X27.228 Y68.024
X27.325 Y67.937
X27.408 Y67.858
X27.484 Y67.773
X27.564 Y67.677
X27.637 Y67.582
X27.702 Y67.481
X27.765 Y67.374
X27.822 Y67.268
X27.871 Y67.158
X27.916 Y67.041
X27.954 Y66.933
X27.983 Y66.822
X28.011 Y66.695
X28.03 Y66.593
X28.042 Y66.491
X28.054 Y66.354
X28.058 Y66.263
X28.057 Y66.171
X28.052 Y66.025
X28.046 Y65.946
X28.037 Y65.869
X28.014 Y65.712
X27.99 Y65.582
X27.95 Y65.416
X27.92 Y65.309
X27.865 Y65.133
X27.834 Y65.046
X27.763 Y64.861
X27.733 Y64.789
X27.646 Y64.595
X27.618 Y64.537
X27.517 Y64.334
X27.492 Y64.287
X27.377 Y64.077
X27.355 Y64.037
X27.227 Y63.819
X27.208 Y63.788
X27.069 Y63.563
X27.053 Y63.538
X26.904 Y63.308
X26.885 Y63.28
X26.563 Y62.805
X26.546 Y62.782
X26.201 Y62.295
X26.195 Y62.286
X25.843 Y61.796
X25.503 Y61.319
X25.188 Y60.863
X25.05 Y60.655
X24.923 Y60.454
X24.809 Y60.266
X24.711 Y60.093
X24.63 Y59.938
X24.566 Y59.803
X24.519 Y59.69
X24.513 Y59.672
X24.558 Y59.636
X24.735 Y59.509
X25.15 Y59.215
X25.191 Y59.185
X25.39 Y59.033
X25.436 Y58.997
X25.605 Y58.857
X26.118
G2 X27.247 Y58.346 I0. J-1.5
G1 X27.35 Y58.228
X27.462 Y58.102
X27.588 Y57.963
X27.727 Y57.809
X27.88 Y57.643
X28.044 Y57.463
X28.046 Y57.461
X28.22 Y57.271
X28.226 Y57.265
X28.407 Y57.064
X28.425 Y57.044
X28.795 Y56.618
X28.84 Y56.564
X29.196 Y56.114
X29.248 Y56.043
X29.408 Y55.815
X29.455 Y55.744
X29.595 Y55.516
X29.65 Y55.42
X29.767 Y55.195
X29.826 Y55.067
X29.916 Y54.847
X29.947 Y54.765
X29.972 Y54.681
X30.031 Y54.468
X30.056 Y54.365
X30.073 Y54.261
X30.1 Y54.056
X30.11 Y53.938
X30.111 Y53.819
X30.106 Y53.624
X30.097 Y53.501
X30.079 Y53.38
X30.042 Y53.194
X30.016 Y53.082
X29.981 Y52.972
X29.917 Y52.797
X29.881 Y52.705
X29.838 Y52.615
X29.753 Y52.451
X29.714 Y52.382
X29.672 Y52.315
X29.57 Y52.16
X29.502 Y52.066
X29.389 Y51.92
X29.323 Y51.842
X29.086 Y51.577
X29.057 Y51.545
X28.841 Y51.318
X28.758 Y51.229
X28.694 Y51.156
X28.647 Y51.1
X28.596 Y51.035
G2 X27.848 Y50.522 I-1.183 J0.923
G3 X27.648 Y50.148 I0.087 J-0.287
G1 X27.736 Y49.861
X27.755 Y49.797 Z0.258
X27.773 Y49.736 Z0.28
X27.79 Y49.682 Z0.315
X27.804 Y49.637 Z0.363
X27.814 Y49.602 Z0.42
X27.821 Y49.581 Z0.483
X27.823 Y49.574 Z0.55
G0 Z31.007

(Parallel4)
G64
X102.073 Y0.244
Z31.007
Z8.27
G1 Z0.55 F266.7
X102.065 Z0.483 F800
X102.043 Z0.42
X102.007 Z0.363
X101.96 Z0.316
X101.903 Z0.28
X101.84 Z0.258
X101.773 Z0.25
X101.758 Z0.781
X101.696 Z1.555
X101.595 Z2.314
X101.455 Z3.069
X101.276 Z3.812
X101.059 Z4.547
X100.803 Z5.271
X100.514 Z5.973
X100.185 Z6.666
X99.825 Z7.337
X99.426 Z7.994
X98.992 Z8.633
X98.528 Z9.247
X98.029 Z9.841
X97.494 Z10.415
X96.932 Z10.959
X96.333 Z11.482
X95.711 Z11.972
X95.054 Z12.436
X94.371 Z12.867
X93.667 Z13.264
X92.94 Z13.623
X92.231 Z13.928
X91.509 Z14.196
X90.769 Z14.428
X90.022 Z14.621
X89.265 Z14.776
X88.511 Z14.89
X87.739 Z14.966
X86.996 Z15.002
X84.91 Z14.999
X84.134 Z14.955
X83.368 Z14.872
X82.608 Z14.75
X81.848 Z14.587
X81.101 Z14.386
X80.368 Z14.148
X79.644 Z13.871
X78.94 Z13.56
X78.244 Z13.208
X77.568 Z12.822
X76.892 Z12.39
X76.249 Z11.93
X75.629 Z11.438
X75.04 Z10.919
X74.479 Z10.371
X73.953 Z9.802
X73.453 Z9.204
X72.988 Z8.584
X72.557 Z7.944
X72.16 Z7.284
X71.799 Z6.604
X71.475 Z5.913
X71.184 Z5.197
X70.932 Z4.474
X70.719 Z3.739
X70.544 Z2.996
X70.411 Z2.261
X70.313 Z1.506
X70.255 Z0.746
X70.242 Z0.25
X70.195 Z0.258
X70.154 Z0.279
X70.12 Z0.312
X70.099 Z0.354
X70.092 Z0.4
X70.084 Z0.447
X70.063 Z0.488
X70.03 Z0.522
X69.988 Z0.543
X69.942 Z0.55
X67.073
X67.027 Z0.543
X66.985 Z0.522
X66.952 Z0.488
X66.93 Z0.447
X66.923 Z0.4
X66.916 Z0.354
X66.894 Z0.312
X66.861 Z0.279
X66.819 Z0.258
X66.773 Z0.25
X66.758 Z0.781
X66.696 Z1.555
X66.595 Z2.314
X66.455 Z3.069
X66.276 Z3.812
X66.059 Z4.547
X65.803 Z5.271
X65.514 Z5.973
X65.185 Z6.666
X64.825 Z7.337
X64.426 Z7.994
X63.992 Z8.633
X63.528 Z9.247
X63.029 Z9.841
X62.494 Z10.415
X61.932 Z10.959
X61.333 Z11.482
X60.711 Z11.972
X60.054 Z12.436
X59.371 Z12.867
X58.667 Z13.264
X57.94 Z13.623
X57.231 Z13.928
X56.509 Z14.196
X55.769 Z14.428
X55.022 Z14.621
X54.265 Z14.776
X53.511 Z14.89
X52.739 Z14.966
X51.996 Z15.002
X49.922 Z14.999
X49.141 Z14.956
X48.368 Z14.872
X47.607 Z14.75
X46.848 Z14.587
X46.101 Z14.386
X45.367 Z14.148
X44.644 Z13.871
X43.94 Z13.559
X43.244 Z13.207
X42.568 Z12.822
X41.891 Z12.389
X41.248 Z11.93
X40.628 Z11.437
X40.04 Z10.919
X39.479 Z10.372
X38.953 Z9.803
X38.453 Z9.204
X37.988 Z8.584
X37.557 Z7.944
X37.16 Z7.284
X36.799 Z6.604
X36.472 Z5.906
X36.184 Z5.197
X35.933 Z4.474
X35.719 Z3.739
X35.545 Z2.997
X35.411 Z2.261
X35.313 Z1.507
X35.255 Z0.748
X35.242 Z0.25
X35.195 Z0.257
X35.154 Z0.279
X35.12 Z0.312
X35.099 Z0.354
X35.092 Z0.4
X35.084 Z0.447
X35.063 Z0.488
X35.03 Z0.522
X34.988 Z0.543
X34.942 Z0.55
X32.073
X32.027 Z0.543
X31.985 Z0.522
X31.952 Z0.488
X31.93 Z0.447
X31.923 Z0.4
X31.916 Z0.354
X31.894 Z0.312
X31.861 Z0.279
X31.819 Z0.258
X31.773 Z0.25
X31.758 Z0.781
X31.696 Z1.555
X31.595 Z2.314
X31.455 Z3.069
X31.276 Z3.812
X31.059 Z4.547
X30.803 Z5.271
X30.514 Z5.973
X30.185 Z6.666
X29.825 Z7.337
X29.426 Z7.994
X28.992 Z8.633
X28.528 Z9.247
X28.029 Z9.841
X27.494 Z10.415
X26.932 Z10.959
X26.333 Z11.482
X25.711 Z11.972
X25.054 Z12.436
X24.371 Z12.867
X23.667 Z13.264
X22.94 Z13.623
X22.231 Z13.928
X21.509 Z14.196
X20.769 Z14.428
X20.022 Z14.621
X19.265 Z14.776
X18.511 Z14.89
X17.739 Z14.966
X16.996 Z15.002
X14.91 Z14.999
X14.139 Z14.955
X13.369 Z14.872
X12.606 Z14.749
X11.848 Z14.587
X11.1 Z14.386
X10.367 Z14.148
X9.647 Z13.873
X8.94 Z13.559
X8.246 Z13.208
X7.569 Z12.823
X6.894 Z12.391
X6.246 Z11.928
X5.63 Z11.439
X5.042 Z10.921
X4.48 Z10.373
X3.95 Z9.8
X3.455 Z9.206
X2.99 Z8.587
X2.559 Z7.947
X2.163 Z7.288
X1.798 Z6.603
X1.474 Z5.911
X1.186 Z5.204
X0.932 Z4.472
X0.721 Z3.749
X0.544 Z2.994
X0.41 Z2.258
X0.313 Z1.505
X0.255 Z0.743
X0.242 Z0.25
X0.07 Y0.415
X-0.1 Y0.588
X-0.248 Y0.778
X-0.311 Y0.883
X-0.365 Y0.994
X-0.354 Z0.706
X-0.298 Z1.472
X-0.202 Z2.242
X-0.068 Z2.998
X0.106 Z3.748
X0.318 Z4.491
X0.569 Z5.226
X0.856 Z5.94
X1.179 Z6.641
X1.54 Z7.326
X1.935 Z7.991
X2.362 Z8.633
X2.823 Z9.254
X3.315 Z9.849
X3.837 Z10.419
X4.388 Z10.961
X4.966 Z11.474
X5.568 Z11.956
X6.198 Z12.409
X6.847 Z12.826
X7.519 Z13.211
X8.209 Z13.56
X8.913 Z13.872
X9.637 Z14.149
X10.371 Z14.387
X11.119 Z14.588
X11.872 Z14.749
X12.639 Z14.872
X13.413 Z14.956
X14.184 Z14.999
X17.732 Z15.002
X18.474 Z14.966
X19.232 Z14.891
X20.001 Z14.775
X20.757 Z14.621
X21.502 Z14.428
X22.242 Z14.196
X22.964 Z13.928
X23.672 Z13.622
X24.366 Z13.28
X25.041 Z12.902
X25.695 Z12.491
X26.326 Z12.047
X26.934 Z11.57
X27.516 Z11.064
X28.073 Z10.526
X28.601 Z9.962
X29.099 Z9.371
X29.565 Z8.756
X30.001 Z8.115
X30.402 Z7.455
X30.768 Z6.776
X31.099 Z6.076
X31.394 Z5.363
X31.651 Z4.635
X31.872 Z3.89
X32.052 Z3.143
X32.194 Z2.385
X32.298 Z1.614
X32.359 Z0.868
X32.38 Z0.25
X32.426 Z0.257
X32.468 Z0.279
X32.501 Z0.312
X32.523 Z0.354
X32.53 Z0.4
X32.537 Z0.446
X32.559 Z0.488
X32.592 Z0.521
X32.634 Z0.543
X32.68 Z0.55
X34.335
X34.381 Z0.543
X34.423 Z0.521
X34.456 Z0.488
X34.477 Z0.446
X34.485 Z0.4
X34.492 Z0.354
X34.513 Z0.312
X34.546 Z0.279
X34.588 Z0.257
X34.635 Z0.25
X34.647 Z0.729
X34.703 Z1.482
X34.798 Z2.237
X34.933 Z3.002
X35.106 Z3.752
X35.319 Z4.494
X35.569 Z5.224
X35.857 Z5.943
X36.18 Z6.643
X36.539 Z7.325
X36.934 Z7.99
X37.363 Z8.634
X37.824 Z9.255
X38.316 Z9.851
X38.838 Z10.421
X39.387 Z10.961
X39.965 Z11.474
X40.57 Z11.957
X41.197 Z12.408
X41.846 Z12.826
X42.518 Z13.21
X43.208 Z13.559
X43.912 Z13.871
X44.635 Z14.148
X45.369 Z14.386
X46.116 Z14.587
X46.875 Z14.75
X47.636 Z14.872
X48.411 Z14.956
X49.175 Z14.999
X52.733 Z15.002
X53.476 Z14.966
X54.233 Z14.891
X55.002 Z14.775
X55.752 Z14.622
X56.503 Z14.428
X57.239 Z14.197
X57.964 Z13.928
X58.673 Z13.622
X59.367 Z13.279
X60.041 Z12.902
X60.693 Z12.492
X61.327 Z12.046
X61.934 Z11.57
X62.517 Z11.063
X63.074 Z10.526
X63.601 Z9.962
X64.099 Z9.371
X64.566 Z8.755
X65. Z8.117
X65.402 Z7.455
X65.768 Z6.776
X66.1 Z6.075
X66.394 Z5.362
X66.651 Z4.634
X66.871 Z3.894
X67.052 Z3.142
X67.194 Z2.383
X67.298 Z1.611
X67.36 Z0.863
X67.38 Z0.25
X67.426 Z0.257
X67.468 Z0.279
X67.501 Z0.312
X67.523 Z0.354
X67.53 Z0.4
X67.537 Z0.446
X67.559 Z0.488
X67.592 Z0.521
X67.634 Z0.543
X67.68 Z0.55
X69.335
X69.381 Z0.543
X69.423 Z0.521
X69.456 Z0.488
X69.477 Z0.446
X69.485 Z0.4
X69.492 Z0.354
X69.513 Z0.312
X69.546 Z0.279
X69.588 Z0.257
X69.635 Z0.25
X69.647 Z0.745
X69.702 Z1.468
X69.798 Z2.24
X69.932 Z2.996
X70.107 Z3.753
X70.319 Z4.496
X70.569 Z5.225
X70.856 Z5.94
X71.181 Z6.644
X71.539 Z7.325
X71.934 Z7.99
X72.363 Z8.635
X72.823 Z9.253
X73.314 Z9.849
X73.837 Z10.419
X74.388 Z10.961
X74.965 Z11.474
X75.57 Z11.958
X76.197 Z12.408
X76.847 Z12.826
X77.518 Z13.21
X78.208 Z13.56
X78.913 Z13.871
X79.636 Z14.148
X80.369 Z14.386
X81.116 Z14.587
X81.876 Z14.75
X82.636 Z14.872
X83.411 Z14.956
X84.175 Z14.999
X87.734 Z15.002
X88.476 Z14.966
X89.234 Z14.891
X90.003 Z14.775
X90.752 Z14.622
X91.504 Z14.428
X92.239 Z14.197
X92.965 Z13.927
X93.673 Z13.622
X94.367 Z13.279
X95.039 Z12.904
X95.693 Z12.492
X96.327 Z12.046
X96.935 Z11.57
X97.517 Z11.063
X98.074 Z10.526
X98.601 Z9.961
X99.099 Z9.37
X99.566 Z8.755
X100. Z8.117
X100.401 Z7.457
X100.768 Z6.775
X101.099 Z6.078
X101.395 Z5.361
X101.652 Z4.633
X101.871 Z3.893
X102.053 Z3.14
X102.195 Z2.381
X102.297 Z1.619
X102.361 Z0.851
X102.38 Z0.25
X102.447 Y1.175
X102.489 Y1.361
X102.507 Y1.551
X102.508 Y1.744
X102.494 Z0.789
X102.432 Z1.57
X102.331 Z2.338
X102.19 Z3.1
X102.009 Z3.86
X101.791 Z4.6
X101.536 Z5.329
X101.243 Z6.042
X100.912 Z6.746
X100.548 Z7.424
X100.146 Z8.09
X99.713 Z8.729
X99.249 Z9.344
X98.754 Z9.935
X98.228 Z10.5
X97.671 Z11.041
X97.09 Z11.548
X96.482 Z12.027
X95.85 Z12.473
X95.201 Z12.884
X94.524 Z13.265
X93.837 Z13.606
X93.129 Z13.914
X92.399 Z14.187
X91.67 Z14.418
X90.925 Z14.612
X90.173 Z14.768
X89.4 Z14.887
X88.656 Z14.963
X87.857 Z15.002
X84.058 Z14.999
X83.332 Z14.961
X82.546 Z14.878
X81.788 Z14.758
X81.021 Z14.596
X80.277 Z14.398
X79.539 Z14.16
X78.819 Z13.886
X78.111 Z13.575
X77.418 Z13.226
X76.747 Z12.844
X76.098 Z12.429
X75.467 Z11.978
X74.863 Z11.497
X74.286 Z10.987
X73.732 Z10.444
X73.208 Z9.875
X72.716 Z9.282
X72.254 Z8.663
X71.826 Z8.023
X71.429 Z7.359
X71.067 Z6.674
X70.743 Z5.977
X70.451 Z5.255
X70.2 Z4.525
X69.986 Z3.783
X69.811 Z3.034
X69.674 Z2.27
X69.579 Z1.533
X69.52 Z0.775
X69.506 Z0.25
X69.46 Z0.258
X69.418 Z0.279
X69.385 Z0.312
X69.364 Z0.354
X69.356 Z0.4
Z0.401
X69.349 Z0.447
X69.328 Z0.489
X69.295 Z0.522
X69.253 Z0.543
X69.206 Z0.551
X67.808
X67.762 Z0.543
X67.72 Z0.522
X67.687 Z0.489
X67.666 Z0.447
X67.658 Z0.401
X67.651 Z0.354
X67.63 Z0.312
X67.596 Z0.279
X67.555 Z0.258
X67.508 Z0.251
X67.494 Z0.789
X67.432 Z1.571
X67.331 Z2.338
X67.19 Z3.1
X67.009 Z3.86
X66.791 Z4.6
X66.536 Z5.329
X66.243 Z6.042
X65.912 Z6.746
X65.548 Z7.424
X65.146 Z8.09
X64.713 Z8.729
X64.249 Z9.344
X63.754 Z9.935
X63.228 Z10.5
X62.671 Z11.041
X62.09 Z11.548
X61.482 Z12.027
X60.85 Z12.473
X60.201 Z12.884
X59.524 Z13.265
X58.837 Z13.606
X58.129 Z13.914
X57.399 Z14.187
X56.67 Z14.418
X55.925 Z14.612
X55.173 Z14.768
X54.4 Z14.887
X53.656 Z14.963
X52.857 Z15.002
X49.058 Z14.999
X48.332 Z14.961
X47.546 Z14.878
X46.788 Z14.758
X46.021 Z14.596
X45.277 Z14.398
X44.539 Z14.16
X43.819 Z13.886
X43.111 Z13.575
X42.418 Z13.226
X41.747 Z12.844
X41.098 Z12.429
X40.467 Z11.978
X39.863 Z11.497
X39.286 Z10.987
X38.732 Z10.444
X38.208 Z9.875
X37.716 Z9.282
X37.254 Z8.663
X36.826 Z8.023
X36.429 Z7.359
X36.067 Z6.674
X35.743 Z5.977
X35.451 Z5.255
X35.2 Z4.525
X34.986 Z3.783
X34.811 Z3.034
X34.674 Z2.27
X34.579 Z1.533
X34.52 Z0.775
X34.506 Z0.25
X34.46 Z0.258
X34.418 Z0.279
X34.385 Z0.312
X34.364 Z0.354
X34.356 Z0.4
Z0.401
X34.349 Z0.447
X34.328 Z0.489
X34.295 Z0.522
X34.253 Z0.543
X34.206 Z0.551
X32.808
X32.762 Z0.543
X32.72 Z0.522
X32.687 Z0.489
X32.666 Z0.447
X32.658 Z0.401
X32.651 Z0.354
X32.63 Z0.312
X32.596 Z0.279
X32.555 Z0.258
X32.508 Z0.251
X32.494 Z0.789
X32.432 Z1.571
X32.331 Z2.338
X32.19 Z3.1
X32.009 Z3.86
X31.791 Z4.6
X31.536 Z5.329
X31.243 Z6.042
X30.912 Z6.746
X30.548 Z7.424
X30.146 Z8.09
X29.713 Z8.729
X29.249 Z9.344
X28.754 Z9.935
X28.228 Z10.5
X27.671 Z11.041
X27.09 Z11.548
X26.482 Z12.027
X25.85 Z12.473
X25.201 Z12.884
X24.524 Z13.265
X23.837 Z13.606
X23.129 Z13.914
X22.399 Z14.187
X21.67 Z14.418
X20.925 Z14.612
X20.173 Z14.768
X19.4 Z14.887
X18.656 Z14.963
X17.852 Z15.002
X14.058 Z14.999
X13.332 Z14.961
X12.546 Z14.878
X11.788 Z14.758
X11.021 Z14.596
X10.277 Z14.398
X9.539 Z14.16
X8.819 Z13.886
X8.111 Z13.575
X7.418 Z13.226
X6.747 Z12.844
X6.098 Z12.429
X5.467 Z11.978
X4.863 Z11.497
X4.286 Z10.987
X3.732 Z10.444
X3.208 Z9.875
X2.716 Z9.282
X2.254 Z8.663
X1.826 Z8.023
X1.429 Z7.359
X1.067 Z6.674
X0.743 Z5.977
X0.451 Z5.255
X0.2 Z4.525
X-0.014 Z3.783
X-0.189 Z3.034
X-0.326 Z2.27
X-0.421 Z1.533
X-0.48 Z0.775
X-0.494 Z0.25
Y2.493
X-0.48 Z0.775
X-0.421 Z1.533
X-0.326 Z2.27
X-0.189 Z3.034
X-0.014 Z3.783
X0.2 Z4.525
X0.451 Z5.255
X0.743 Z5.977
X1.067 Z6.674
X1.429 Z7.359
X1.826 Z8.023
X2.254 Z8.663
X2.716 Z9.282
X3.208 Z9.875
X3.732 Z10.444
X4.286 Z10.987
X4.863 Z11.497
X5.467 Z11.978
X6.098 Z12.429
X6.747 Z12.844
X7.418 Z13.226
X8.111 Z13.575
X8.819 Z13.886
X9.539 Z14.16
X10.277 Z14.398
X11.021 Z14.596
X11.788 Z14.758
X12.546 Z14.878
X13.332 Z14.961
X14.058 Z14.999
X17.857 Z15.002
X18.656 Z14.963
X19.4 Z14.887
X20.173 Z14.768
X20.925 Z14.612
X21.67 Z14.418
X22.399 Z14.187
X23.129 Z13.914
X23.837 Z13.606
X24.524 Z13.265
X25.201 Z12.884
X25.85 Z12.473
X26.482 Z12.027
X27.09 Z11.548
X27.671 Z11.041
X28.228 Z10.5
X28.754 Z9.935
X29.249 Z9.344
X29.713 Z8.729
X30.146 Z8.09
X30.548 Z7.424
X30.912 Z6.746
X31.243 Z6.042
X31.536 Z5.329
X31.791 Z4.6
X32.009 Z3.86
X32.19 Z3.1
X32.331 Z2.338
X32.432 Z1.571
X32.494 Z0.789
X32.508 Z0.251
X32.555 Z0.258
X32.596 Z0.279
X32.63 Z0.312
X32.651 Z0.354
X32.658 Z0.401
X32.666 Z0.447
X32.687 Z0.489
X32.72 Z0.522
X32.762 Z0.543
X32.808 Z0.551
X34.206
X34.253 Z0.543
X34.295 Z0.522
X34.328 Z0.489
X34.349 Z0.447
X34.356 Z0.401
Z0.4
X34.364 Z0.354
X34.385 Z0.312
X34.418 Z0.279
X34.46 Z0.258
X34.506 Z0.25
X34.52 Z0.775
X34.579 Z1.533
X34.674 Z2.27
X34.811 Z3.034
X34.986 Z3.783
X35.2 Z4.525
X35.451 Z5.255
X35.743 Z5.977
X36.067 Z6.674
X36.429 Z7.359
X36.826 Z8.023
X37.254 Z8.663
X37.716 Z9.282
X38.208 Z9.875
X38.732 Z10.444
X39.286 Z10.987
X39.863 Z11.497
X40.467 Z11.978
X41.098 Z12.429
X41.747 Z12.844
X42.418 Z13.226
X43.111 Z13.575
X43.819 Z13.886
X44.539 Z14.16
X45.277 Z14.398
X46.021 Z14.596
X46.788 Z14.758
X47.546 Z14.878
X48.332 Z14.961
X49.058 Z14.999
X52.857 Z15.002
X53.656 Z14.963
X54.4 Z14.887
X55.173 Z14.768
X55.925 Z14.612
X56.67 Z14.418
X57.399 Z14.187
X58.129 Z13.914
X58.837 Z13.606
X59.524 Z13.265
X60.201 Z12.884
X60.85 Z12.473
X61.482 Z12.027
X62.09 Z11.548
X62.671 Z11.041
X63.228 Z10.5
X63.754 Z9.935
X64.249 Z9.344
X64.713 Z8.729
X65.146 Z8.09
X65.548 Z7.424
X65.912 Z6.746
X66.243 Z6.042
X66.536 Z5.329
X66.791 Z4.6
X67.009 Z3.86
X67.19 Z3.1
X67.331 Z2.338
X67.432 Z1.571
X67.494 Z0.789
X67.508 Z0.251
X67.555 Z0.258
X67.596 Z0.279
X67.63 Z0.312
X67.651 Z0.354
X67.658 Z0.401
X67.666 Z0.447
X67.687 Z0.489
X67.72 Z0.522
X67.762 Z0.543
X67.808 Z0.551
X69.206
X69.253 Z0.543
X69.295 Z0.522
X69.328 Z0.489
X69.349 Z0.447
X69.356 Z0.401
Z0.4
X69.364 Z0.354
X69.385 Z0.312
X69.418 Z0.279
X69.46 Z0.258
X69.506 Z0.25
X69.52 Z0.775
X69.579 Z1.533
X69.674 Z2.27
X69.811 Z3.034
X69.986 Z3.783
X70.2 Z4.525
X70.451 Z5.255
X70.743 Z5.977
X71.067 Z6.674
X71.429 Z7.359
X71.826 Z8.023
X72.254 Z8.663
X72.716 Z9.282
X73.208 Z9.875
X73.732 Z10.444
X74.286 Z10.987
X74.863 Z11.497
X75.467 Z11.978
X76.098 Z12.429
X76.747 Z12.844
X77.418 Z13.226
X78.111 Z13.575
X78.819 Z13.886
X79.539 Z14.16
X80.277 Z14.398
X81.021 Z14.596
X81.788 Z14.758
X82.546 Z14.878
X83.332 Z14.961
X84.058 Z14.999
X87.857 Z15.002
X88.656 Z14.963
X89.4 Z14.887
X90.173 Z14.768
X90.925 Z14.612
X91.67 Z14.418
X92.399 Z14.187
X93.129 Z13.914
X93.837 Z13.606
X94.524 Z13.265
X95.201 Z12.884
X95.85 Z12.473
X96.482 Z12.027
X97.09 Z11.548
X97.671 Z11.041
X98.228 Z10.5
X98.754 Z9.935
X99.249 Z9.344
X99.713 Z8.729
X100.146 Z8.09
X100.548 Z7.424
X100.912 Z6.746
X101.243 Z6.042
X101.536 Z5.329
X101.791 Z4.6
X102.009 Z3.86
X102.19 Z3.1
X102.331 Z2.338
X102.432 Z1.57
X102.494 Z0.789
X102.508 Z0.25
Y3.243
X102.494 Z0.789
X102.432 Z1.57
X102.331 Z2.338
X102.19 Z3.1
X102.009 Z3.86
X101.791 Z4.6
X101.536 Z5.329
X101.243 Z6.042
X100.912 Z6.746
X100.548 Z7.424
X100.146 Z8.09
X99.713 Z8.729
X99.249 Z9.344
X98.754 Z9.935
X98.228 Z10.5
X97.671 Z11.041
X97.09 Z11.548
X96.482 Z12.027
X95.85 Z12.473
X95.201 Z12.884
X94.524 Z13.265
X93.837 Z13.606
X93.129 Z13.914
X92.399 Z14.187
X91.67 Z14.418
X90.925 Z14.612
X90.173 Z14.768
X89.4 Z14.887
X88.656 Z14.963
X87.857 Z15.002
X84.058 Z14.999
X83.332 Z14.961
X82.546 Z14.878
X81.788 Z14.758
X81.021 Z14.596
X80.277 Z14.398
X79.539 Z14.16
X78.819 Z13.886
X78.111 Z13.575
X77.418 Z13.226
X76.747 Z12.844
X76.098 Z12.429
X75.467 Z11.978
X74.863 Z11.497
X74.286 Z10.987
X73.732 Z10.444
X73.208 Z9.875
X72.716 Z9.282
X72.254 Z8.663
X71.826 Z8.023
X71.429 Z7.359
X71.067 Z6.674
X70.743 Z5.977
X70.451 Z5.255
X70.2 Z4.525
X69.986 Z3.783
X69.811 Z3.034
X69.674 Z2.27
X69.579 Z1.533
X69.52 Z0.775
X69.506 Z0.25
X69.46 Z0.258
X69.418 Z0.279
X69.385 Z0.312
X69.364 Z0.354
X69.356 Z0.4
Z0.401
X69.349 Z0.447
X69.328 Z0.489
X69.295 Z0.522
X69.253 Z0.543
X69.206 Z0.551
X67.808
X67.762 Z0.543
X67.72 Z0.522
X67.687 Z0.489
X67.666 Z0.447
X67.658 Z0.401
X67.651 Z0.354
X67.63 Z0.312
X67.596 Z0.279
X67.555 Z0.258
X67.508 Z0.251
X67.494 Z0.789
X67.432 Z1.571
X67.331 Z2.338
X67.19 Z3.1
X67.009 Z3.86
X66.791 Z4.6
X66.536 Z5.329
X66.243 Z6.042
X65.912 Z6.746
X65.548 Z7.424
X65.146 Z8.09
X64.713 Z8.729
X64.249 Z9.344
X63.754 Z9.935
X63.228 Z10.5
X62.671 Z11.041
X62.09 Z11.548
X61.482 Z12.027
X60.85 Z12.473
X60.201 Z12.884
X59.524 Z13.265
X58.837 Z13.606
X58.129 Z13.914
X57.399 Z14.187
X56.67 Z14.418
X55.925 Z14.612
X55.173 Z14.768
X54.4 Z14.887
X53.656 Z14.963
X52.857 Z15.002
X49.058 Z14.999
X48.332 Z14.961
X47.546 Z14.878
X46.788 Z14.758
X46.021 Z14.596
X45.277 Z14.398
X44.539 Z14.16
X43.819 Z13.886
X43.111 Z13.575
X42.418 Z13.226
X41.747 Z12.844
X41.098 Z12.429
X40.467 Z11.978
X39.863 Z11.497
X39.286 Z10.987
X38.732 Z10.444
X38.208 Z9.875
X37.716 Z9.282
X37.254 Z8.663
X36.826 Z8.023
X36.429 Z7.359
X36.067 Z6.674
X35.743 Z5.977
X35.451 Z5.255
X35.2 Z4.525
X34.986 Z3.783
X34.811 Z3.034
X34.674 Z2.27
X34.579 Z1.533
X34.52 Z0.775
X34.506 Z0.25
X34.46 Z0.258
X34.418 Z0.279
X34.385 Z0.312
X34.364 Z0.354
X34.356 Z0.4
Z0.401
X34.349 Z0.448
X34.328 Z0.489
X34.295 Z0.523
X34.253 Z0.544
X34.206 Z0.551
X32.808
X32.762 Z0.544
X32.72 Z0.523
X32.687 Z0.489
X32.666 Z0.448
X32.658 Z0.401
X32.651 Z0.355
X32.63 Z0.313
X32.596 Z0.28
X32.555 Z0.259
X32.508 Z0.251
X32.493 Z0.789
X32.432 Z1.571
X32.331 Z2.338
X32.19 Z3.1
X32.009 Z3.86
X31.791 Z4.6
X31.536 Z5.329
X31.243 Z6.043
X30.912 Z6.746
X30.548 Z7.424
X30.146 Z8.09
X29.713 Z8.729
X29.249 Z9.344
X28.754 Z9.935
X28.228 Z10.5
X27.671 Z11.041
X27.09 Z11.548
X26.482 Z12.027
X25.85 Z12.473
X25.201 Z12.884
X24.524 Z13.265
X23.837 Z13.606
X23.129 Z13.914
X22.399 Z14.187
X21.67 Z14.418
X20.925 Z14.612
X20.173 Z14.768
X19.4 Z14.887
X18.656 Z14.963
X17.857 Z15.002
X14.058 Z14.999
X13.332 Z14.961
X12.546 Z14.878
X11.788 Z14.758
X11.021 Z14.596
X10.277 Z14.398
X9.539 Z14.16
X8.819 Z13.886
X8.111 Z13.575
X7.418 Z13.226
X6.747 Z12.844
X6.098 Z12.429
X5.467 Z11.978
X4.863 Z11.497
X4.286 Z10.987
X3.731 Z10.444
X3.208 Z9.875
X2.716 Z9.282
X2.254 Z8.663
X1.826 Z8.023
X1.429 Z7.358
X1.067 Z6.674
X0.743 Z5.977
X0.451 Z5.255
X0.2 Z4.525
X-0.014 Z3.783
X-0.189 Z3.034
X-0.326 Z2.27
X-0.421 Z1.533
X-0.48 Z0.775
X-0.494 Z0.25
X-0.493 Y3.436
X-0.477 Y3.626
X-0.436 Y3.811
X-0.372 Y3.993
X-0.359 Z0.728
X-0.303 Z1.482
X-0.209 Z2.237
X-0.073 Z3.002
X0.1 Z3.751
X0.312 Z4.494
X0.562 Z5.224
X0.85 Z5.942
X1.174 Z6.643
X1.534 Z7.328
X1.927 Z7.99
X2.356 Z8.634
X2.818 Z9.255
X3.31 Z9.851
X3.832 Z10.421
X4.381 Z10.961
X4.959 Z11.474
X5.563 Z11.957
X6.191 Z12.408
X6.84 Z12.826
X7.512 Z13.21
X8.202 Z13.559
X8.906 Z13.871
X9.629 Z14.148
X10.363 Z14.386
X11.109 Z14.587
X11.869 Z14.75
X12.629 Z14.872
X13.404 Z14.956
X14.168 Z14.999
X17.727 Z15.002
X18.469 Z14.966
X19.241 Z14.89
X20.005 Z14.775
X20.76 Z14.621
X21.511 Z14.427
X22.247 Z14.196
X22.968 Z13.928
X23.681 Z13.621
X24.372 Z13.28
X25.046 Z12.903
X25.7 Z12.491
X26.332 Z12.047
X26.94 Z11.571
X27.524 Z11.062
X28.079 Z10.527
X28.608 Z9.961
X29.106 Z9.37
X29.573 Z8.754
X30.007 Z8.116
X30.408 Z7.456
X30.775 Z6.774
X31.105 Z6.077
X31.4 Z5.364
X31.657 Z4.636
X31.878 Z3.891
X32.059 Z3.138
X32.201 Z2.379
X32.304 Z1.616
X32.366 Z0.865
X32.386 Z0.25
X32.433 Z0.257
X32.475 Z0.279
X32.508 Z0.312
X32.529 Z0.354
X32.536 Z0.4
X32.544 Z0.446
X32.565 Z0.488
X32.598 Z0.521
X32.64 Z0.543
X32.686 Z0.55
X34.328
X34.375 Z0.543
X34.416 Z0.521
X34.45 Z0.488
X34.471 Z0.446
X34.478 Z0.4
X34.486 Z0.354
X34.507 Z0.312
X34.54 Z0.279
X34.582 Z0.257
X34.628 Z0.25
X34.64 Z0.7
X34.696 Z1.472
X34.792 Z2.242
X34.926 Z2.998
X35.099 Z3.748
X35.312 Z4.492
X35.562 Z5.222
X35.85 Z5.941
X36.173 Z6.641
X36.534 Z7.326
X36.928 Z7.991
X37.355 Z8.633
X37.817 Z9.254
X38.308 Z9.849
X38.831 Z10.419
X39.382 Z10.962
X39.959 Z11.474
X40.562 Z11.956
X41.192 Z12.409
X41.841 Z12.826
X42.51 Z13.209
X43.2 Z13.559
X43.908 Z13.872
X44.628 Z14.147
X45.365 Z14.387
X46.112 Z14.588
X46.866 Z14.749
X47.636 Z14.873
X48.406 Z14.956
X49.169 Z14.999
X52.728 Z15.002
X53.471 Z14.966
X54.243 Z14.89
X55.007 Z14.775
X55.761 Z14.621
X56.507 Z14.428
X57.243 Z14.197
X57.969 Z13.928
X58.679 Z13.622
X59.372 Z13.28
X60.047 Z12.902
X60.701 Z12.491
X61.332 Z12.047
X61.94 Z11.571
X62.525 Z11.062
X63.079 Z10.527
X63.606 Z9.963
X64.104 Z9.372
X64.571 Z8.756
X65.007 Z8.116
X65.408 Z7.456
X65.774 Z6.777
X66.106 Z6.077
X66.4 Z5.363
X66.657 Z4.635
X66.878 Z3.891
X67.058 Z3.144
X67.202 Z2.378
X67.304 Z1.615
X67.366 Z0.862
X67.386 Z0.25
X67.433 Z0.257
X67.475 Z0.279
X67.508 Z0.312
X67.529 Z0.354
X67.536 Z0.4
X67.544 Z0.446
X67.565 Z0.488
X67.598 Z0.521
X67.64 Z0.543
X67.686 Z0.55
X69.328
X69.375 Z0.543
X69.416 Z0.521
X69.45 Z0.488
X69.471 Z0.446
X69.478 Z0.4
X69.486 Z0.354
X69.507 Z0.312
X69.54 Z0.279
X69.582 Z0.257
X69.628 Z0.25
X69.64 Z0.718
X69.696 Z1.478
X69.791 Z2.235
X69.927 Z3.
X70.1 Z3.75
X70.312 Z4.493
X70.562 Z5.223
X70.85 Z5.942
X71.174 Z6.642
X71.534 Z7.327
X71.929 Z7.992
X72.356 Z8.634
X72.818 Z9.255
X73.309 Z9.85
X73.831 Z10.42
X74.383 Z10.962
X74.96 Z11.475
X75.563 Z11.957
X76.19 Z12.408
X76.839 Z12.825
X77.511 Z13.21
X78.201 Z13.559
X78.909 Z13.873
X79.628 Z14.148
X80.367 Z14.388
X81.111 Z14.587
X81.87 Z14.75
X82.631 Z14.872
X83.406 Z14.956
X84.169 Z14.999
X87.728 Z15.002
X88.471 Z14.966
X89.243 Z14.89
X90.007 Z14.775
X90.761 Z14.621
X91.507 Z14.429
X92.248 Z14.196
X92.969 Z13.928
X93.678 Z13.622
X94.372 Z13.28
X95.047 Z12.903
X95.701 Z12.491
X96.332 Z12.047
X96.94 Z11.571
X97.524 Z11.062
X98.079 Z10.527
X98.606 Z9.963
X99.104 Z9.372
X99.573 Z8.754
X100.007 Z8.116
X100.408 Z7.456
X100.775 Z6.774
X101.105 Z6.077
X101.4 Z5.364
X101.657 Z4.636
X101.878 Z3.891
X102.059 Z3.138
X102.201 Z2.379
X102.304 Z1.616
X102.367 Z0.846
X102.386 Z0.25
X102.272 Y4.209
X102.127 Y4.4
X101.958 Y4.573
X101.787 Y4.743
X101.773 Z0.781
X101.711 Z1.555
X101.61 Z2.316
X101.469 Z3.071
X101.291 Z3.814
X101.073 Z4.549
X100.818 Z5.274
X100.528 Z5.976
X100.2 Z6.67
X99.836 Z7.346
X99.441 Z7.998
X99.007 Z8.637
X98.539 Z9.256
X98.04 Z9.85
X97.506 Z10.424
X96.939 Z10.972
X96.345 Z11.491
X95.717 Z11.985
X95.065 Z12.446
X94.381 Z12.879
X93.664 Z13.28
X92.97 Z13.622
X92.262 Z13.928
X91.54 Z14.196
X90.8 Z14.428
X90.055 Z14.621
X89.299 Z14.775
X88.53 Z14.891
X87.772 Z14.966
X87.03 Z15.002
X84.876 Z14.998
X84.109 Z14.955
X83.339 Z14.872
X82.576 Z14.749
X81.818 Z14.587
X81.07 Z14.386
X80.337 Z14.148
X79.617 Z13.873
X78.91 Z13.559
X78.219 Z13.21
X77.553 Z12.83
X76.88 Z12.399
X76.236 Z11.939
X75.616 Z11.446
X75.028 Z10.928
X74.466 Z10.379
X73.936 Z9.806
X73.441 Z9.212
X72.973 Z8.587
X72.542 Z7.948
X72.146 Z7.287
X71.784 Z6.607
X71.46 Z5.917
X71.169 Z5.2
X70.918 Z4.477
X70.704 Z3.74
X70.53 Z2.997
X70.396 Z2.261
X70.298 Z1.505
X70.24 Z0.742
X70.227 Z0.25
X70.358 Y4.874
X70.488 Y5.004
X70.62 Y5.131
X70.763 Y5.241
X70.917 Y5.333
X71.082 Y5.407
X71.259 Y5.461
X71.45 Y5.493
X71.462 Z0.708
X71.516 Z1.432
X71.611 Z2.18
X71.745 Z2.925
X71.917 Z3.657
X72.128 Z4.383
X72.375 Z5.093
X72.661 Z5.793
X72.982 Z6.476
X73.339 Z7.141
X73.729 Z7.784
X74.152 Z8.406
X74.609 Z9.009
X75.096 Z9.585
X75.612 Z10.134
X76.156 Z10.656
X76.727 Z11.149
X77.322 Z11.61
X77.943 Z12.041
X78.585 Z12.439
X79.244 Z12.801
X79.923 Z13.129
X80.621 Z13.423
X81.328 Z13.677
X82.052 Z13.896
X82.787 Z14.076
X83.528 Z14.217
X84.313 Z14.324
X85.134 Z14.391
X85.962 Z14.415
X86.795 Z14.395
X87.619 Z14.333
X88.349 Z14.239
X89.086 Z14.106
X89.826 Z13.932
X90.547 Z13.723
X91.257 Z13.475
X91.957 Z13.189
X92.64 Z12.868
X93.302 Z12.513
X93.949 Z12.121
X94.572 Z11.698
X95.172 Z11.242
X95.749 Z10.755
X96.298 Z10.238
X96.82 Z9.694
X97.313 Z9.123
X97.776 Z8.525
X98.206 Z7.907
X98.604 Z7.265
X98.966 Z6.606
X99.294 Z5.927
X99.586 Z5.232
X99.842 Z4.52
X100.061 Z3.797
X100.241 Z3.063
X100.381 Z2.324
X100.484 Z1.574
X100.545 Z0.84
X100.565 Z0.25
X100.35 Y5.501
X99.689
X99.516 Y5.585
X99.353 Y5.689 Z0.251
X99.223 Y5.849
Y6.243
X99.208 Z0.706
X99.146 Z1.393
X99.045 Z2.069
X98.907 Z2.731
X98.727 Z3.394
X98.51 Z4.042
X98.257 Z4.675
X97.968 Z5.29
X97.643 Z5.888
X97.283 Z6.468
X96.888 Z7.03
X96.463 Z7.563
X96.009 Z8.07
X95.525 Z8.551
X95.015 Z9.002
X94.482 Z9.421
X93.921 Z9.812
X93.336 Z10.17
X92.738 Z10.49
X92.123 Z10.775
X91.482 Z11.028
X90.842 Z11.238
X90.177 Z11.414
X89.631 Z11.531
X88.966 Z11.706
X88.236 Z11.855
X87.477 Z11.964
X86.72 Z12.028
X86.069 Z12.047
X85.797 Z12.042
X85.23 Z12.024
X84.488 Z11.958
X83.748 Z11.849
X83.027 Z11.701
X82.264 Z11.502
X81.777 Z11.4
X81.114 Z11.22
X80.466 Z11.003
X79.833 Z10.75
X79.218 Z10.461
X78.614 Z10.133
X78.035 Z9.773
X77.479 Z9.381
X76.945 Z8.957
X76.438 Z8.503
X75.958 Z8.019
X75.506 Z7.509
X75.084 Z6.972
X74.694 Z6.411
X74.339 Z5.832
X74.016 Z5.227
X73.731 Z4.612
X73.481 Z3.979
X73.268 Z3.329
X73.095 Z2.677
X72.957 Z1.999
X72.862 Z1.343
X72.803 Z0.652
X72.792 Z0.257
Y6.807 Z0.267
X72.761 Y6.993 Z0.27
X72.766 Z0.43
X72.783 Z0.791
X72.833 Z1.342
X72.901 Z1.832
X72.958 Z2.165
X73.071 Z2.7
X73.216 Z3.255
X73.347 Z3.678
X73.483 Z4.071
X73.7 Z4.618
X73.931 Z5.126
X74.134 Z5.526
X74.358 Z5.931
X74.66 Z6.422
X74.976 Z6.883
X75.26 Z7.262
X75.566 Z7.638
X75.946 Z8.064
X76.322 Z8.448
X76.687 Z8.789
X77.085 Z9.131
X77.509 Z9.463
X77.957 Z9.783
X78.404 Z10.073
X78.861 Z10.342
X79.328 Z10.59
X79.817 Z10.824
X80.308 Z11.033
X80.82 Z11.226
X81.343 Z11.397
X81.946 Z11.568
X82.466 Z11.693
X82.845 Z11.771
X83.25 Z11.844
X83.671 Z11.908
X84.196 Z11.972
X85.004 Z12.037
X85.441 Z12.055
X86.085 Z12.068
X86.863 Z12.047
X87.662 Z11.987
X88.068 Z11.943
X88.506 Z11.885
X88.926 Z11.817
X89.318 Z11.742
X89.717 Z11.655
X90.105 Z11.559
X90.509 Z11.446
X90.868 Z11.335
X91.217 Z11.218
X91.563 Z11.089
X91.893 Z10.956
X92.223 Z10.812
X92.547 Z10.66
X92.865 Z10.498
X93.179 Z10.328
X93.488 Z10.148
X93.788 Z9.961
X94.086 Z9.764
X94.381 Z9.555
X94.645 Z9.357
X94.937 Z9.124
X95.174 Z8.924
X95.461 Z8.668
X95.67 Z8.469
X95.952 Z8.186
X96.15 Z7.975
X96.429 Z7.661
X96.613 Z7.44
X96.878 Z7.102
X97.082 Z6.822
X97.338 Z6.448
X97.612 Z6.007
X97.754 Z5.759
X97.977 Z5.342
X98.151 Z4.984
X98.318 Z4.611
X98.518 Z4.11
X98.633 Z3.783
X98.772 Z3.35
X98.903 Z2.868
X98.972 Z2.577
X99.08 Z2.038
X99.143 Z1.631
X99.184 Z1.316
X99.237 Z0.686
X99.252 Z0.25
X99.29 Y7.182
X99.333 Y7.369
X99.376 Y7.556
X99.422 Y7.743
X99.41 Z0.639
X99.36 Z1.266
X99.313 Z1.648
X99.263 Z1.976
X99.203 Z2.305
X99.137 Z2.618
X99.065 Z2.922
X98.98 Z3.241
X98.888 Z3.552
X98.783 Z3.874
X98.671 Z4.188
X98.548 Z4.503
X98.414 Z4.82
X98.275 Z5.124
X98.121 Z5.437
X97.962 Z5.739
X97.79 Z6.044
X97.608 Z6.345
X97.419 Z6.638
X97.22 Z6.929
X97.013 Z7.212
X96.793 Z7.495
X96.568 Z7.767
X96.33 Z8.039
X96.09 Z8.298
X95.838 Z8.553
X95.579 Z8.801
X95.312 Z9.042
X95.035 Z9.277
X94.752 Z9.503
X94.464 Z9.719
X94.169 Z9.928
X93.856 Z10.136
X93.539 Z10.333
X93.218 Z10.52
X92.899 Z10.694
X92.567 Z10.862
X92.23 Z11.021
X91.892 Z11.168
X91.539 Z11.311
X91.193 Z11.439
X90.827 Z11.563
X90.379 Z11.701
X90.016 Z11.801
X89.639 Z11.894
X89.242 Z11.982
X88.837 Z12.059
X88.417 Z12.127
X88.004 Z12.183
X87.597 Z12.227
X86.825 Z12.285
X86.094 Z12.304
X85.549 Z12.295
X85.104 Z12.28
X84.272 Z12.213
X83.781 Z12.153
X83.34 Z12.087
X82.92 Z12.011
X82.556 Z11.935
X82.022 Z11.808
X81.44 Z11.643
X80.856 Z11.451
X80.327 Z11.253
X79.813 Z11.034
X79.312 Z10.795
X78.826 Z10.537
X78.353 Z10.258
X77.876 Z9.948
X77.432 Z9.632
X77.009 Z9.301
X76.598 Z8.95
X76.203 Z8.58
X75.826 Z8.194
X75.472 Z7.798
X75.135 Z7.385
X74.816 Z6.958
X74.518 Z6.52
X74.242 Z6.073
X73.986 Z5.616
X73.753 Z5.152
X73.54 Z4.68
X73.351 Z4.207
X73.183 Z3.728
X73.036 Z3.246
X72.912 Z2.768
X72.807 Z2.283
X72.727 Z1.823
X72.662 Z1.336
X72.619 Z0.862
X72.595 Z0.443
X72.592 Z0.25
X72.542 Y7.932
X72.491 Y8.12
X72.435 Y8.307
X72.377 Y8.493
X72.382 Z0.491
X72.405 Z0.89
X72.449 Z1.364
X72.514 Z1.853
X72.597 Z2.33
X72.705 Z2.83
X72.832 Z3.319
X72.98 Z3.802
X73.15 Z4.288
X73.346 Z4.778
X73.562 Z5.257
X73.798 Z5.727
X74.06 Z6.196
X74.343 Z6.655
X74.648 Z7.104
X74.974 Z7.54
X75.319 Z7.962
X75.685 Z8.371
X76.07 Z8.766
X76.478 Z9.148
X76.919 Z9.525
X77.356 Z9.867
X77.815 Z10.194
X78.288 Z10.501
X78.777 Z10.789
X79.281 Z11.057
X79.796 Z11.302
X80.375 Z11.548
X80.92 Z11.753
X81.485 Z11.939
X82.058 Z12.101
X82.614 Z12.234
X82.995 Z12.313
X83.433 Z12.391
X83.857 Z12.456
X84.327 Z12.513
X85.145 Z12.579
X85.99 Z12.602
X86.78 Z12.583
X87.548 Z12.526
X87.921 Z12.486
X88.337 Z12.43
X88.754 Z12.362
X89.178 Z12.282
X89.589 Z12.191
X89.977 Z12.095
X90.371 Z11.986
X90.749 Z11.869
X91.134 Z11.739
X91.496 Z11.605
X91.879 Z11.45
X92.253 Z11.287
X92.603 Z11.121
X92.941 Z10.95
X93.272 Z10.769
X93.599 Z10.579
X93.921 Z10.378
X94.234 Z10.171
X94.54 Z9.955
X94.838 Z9.73
X95.13 Z9.497
X95.429 Z9.242
X95.705 Z8.994
X95.973 Z8.737
X96.233 Z8.474
X96.482 Z8.206
X96.72 Z7.934
X96.952 Z7.653
X97.175 Z7.365
X97.389 Z7.071
X97.593 Z6.775
X97.788 Z6.471
X97.97 Z6.169
X98.146 Z5.859
X98.312 Z5.544
X98.465 Z5.231
X98.611 Z4.913
X98.744 Z4.596
X98.871 Z4.272
X98.986 Z3.949
X99.091 Z3.627
X99.189 Z3.296
X99.274 Z2.976
X99.349 Z2.659
X99.418 Z2.328
X99.475 Z2.013
X99.525 Z1.686
X99.572 Z1.305
X99.625 Z0.646
X99.637 Z0.25
X99.701 Y8.683 Z0.253
X99.768 Y8.871 Z0.255
X99.838 Y9.058 Z0.258
X99.915 Y9.243 Z0.261
X99.9 Z0.694
X99.845 Z1.364
X99.791 Z1.786
X99.717 Z2.245
X99.628 Z2.688
X99.543 Z3.046
X99.455 Z3.378
X99.357 Z3.711
X99.249 Z4.043
X99.13 Z4.376
X99.001 Z4.708
X98.864 Z5.033
X98.712 Z5.366
X98.552 Z5.693
X98.382 Z6.015
X98.204 Z6.331
X98.012 Z6.65
X97.812 Z6.96
X97.602 Z7.266
X97.38 Z7.57
X97.154 Z7.862
X96.914 Z8.154
X96.664 Z8.439
X96.407 Z8.716
X96.14 Z8.988
X95.867 Z9.248
X95.582 Z9.505
X95.287 Z9.756
X94.991 Z9.993
X94.678 Z10.229
X94.363 Z10.452
X94.034 Z10.67
X93.701 Z10.878
X93.363 Z11.075
X93.02 Z11.262
X92.663 Z11.444
X92.305 Z11.613
X91.939 Z11.773
X91.57 Z11.922
X91.19 Z12.063
X90.807 Z12.193
X90.419 Z12.312
X90.027 Z12.422
X89.613 Z12.525
X89.218 Z12.612
X88.796 Z12.692
X88.379 Z12.76
X87.966 Z12.816
X87.578 Z12.859
X86.797 Z12.916
X85.977 Z12.936
X85.152 Z12.913
X84.309 Z12.847
X83.817 Z12.786
X83.393 Z12.722
X82.984 Z12.649
X82.603 Z12.57
X82.033 Z12.434
X81.447 Z12.268
X80.863 Z12.076
X80.301 Z11.865
X79.75 Z11.631
X79.215 Z11.376
X78.693 Z11.098
X78.192 Z10.804
X77.693 Z10.48
X77.219 Z10.142
X76.763 Z9.785
X76.327 Z9.412
X75.91 Z9.022
X75.513 Z8.616
X75.131 Z8.19
X74.775 Z7.754
X74.438 Z7.303
X74.123 Z6.839
X73.833 Z6.37
X73.564 Z5.888
X73.318 Z5.4
X73.093 Z4.901
X72.894 Z4.402
X72.717 Z3.898
X72.567 Z3.406
X72.434 Z2.891
X72.326 Z2.393
X72.24 Z1.897
X72.175 Z1.413
X72.128 Z0.911
X72.105 Z0.502
X72.098 Z0.25
X72.057 Y9.337 Z0.253
X72.018 Y9.431 Z0.256
X71.978 Y9.525 Z0.258
X71.936 Y9.619 Z0.261
X71.894 Y9.712 Z0.264
X71.811 Y9.899 Z0.269
X71.769 Y9.993 Z0.272
X71.772 Z0.438
X71.799 Z0.933
X71.845 Z1.437
X71.913 Z1.947
X72.002 Z2.461
X72.116 Z2.987
X72.249 Z3.499
X72.406 Z4.013
X72.586 Z4.526
X72.792 Z5.04
X73.02 Z5.546
X73.273 Z6.049
X73.548 Z6.542
X73.848 Z7.028
X74.171 Z7.502
X74.515 Z7.963
X74.883 Z8.413
X75.264 Z8.839
X75.642 Z9.226
X76.094 Z9.651
X76.543 Z10.035
X77.009 Z10.4
X77.492 Z10.744
X77.992 Z11.069
X78.505 Z11.37
