(Hest og konge V1)
(Machine)
(  vendor: Autodesk)
(  model: Generic 3-axis)
(  description: This machine has XYZ axis on the Head)
(T2  D=3. CR=0. - ZMIN=0. - flat end mill)
G90

(2D Contour3)
T2 M6 (flat end mill D=3.)
S15000 M3
G64
G54
G43 H2
G0 Z30.
G0 X15.175 Y73.717
Z31.244
Z21.244
G1 Z17.244 F133.3
Z0.802
Y73.709 Z0.736 F400
X15.174 Y73.687 Z0.672
X15.173 Y73.651 Z0.615
X15.171 Y73.604 Z0.568
X15.169 Y73.547 Z0.532
X15.167 Y73.484 Z0.51
X15.165 Y73.417 Z0.502
X15.154 Y73.117
G3 X15.443 Y72.807 I0.3 J-0.011
G1 X15.545 Y72.8
X15.696 Y72.786
X15.782 Y72.776
X15.867 Y72.762
X16.017 Y72.733
X16.107 Y72.714
X16.195 Y72.69
X16.342 Y72.646
X16.434 Y72.616
X16.524 Y72.581
X16.667 Y72.521
X16.76 Y72.479
X16.851 Y72.432
X16.987 Y72.355
X17.079 Y72.301
X17.166 Y72.241
X17.295 Y72.147
X17.381 Y72.08
X17.463 Y72.009
X17.582 Y71.898
X17.657 Y71.823
X17.728 Y71.744
X17.836 Y71.617
X17.9 Y71.537
X17.96 Y71.454
X18.055 Y71.31
X18.106 Y71.23
X18.152 Y71.147
X18.236 Y70.989
X18.274 Y70.912
X18.308 Y70.833
X18.379 Y70.661
X18.431 Y70.516
X18.488 Y70.332
X18.523 Y70.203
X18.569 Y70.009
X18.591 Y69.894
X18.625 Y69.691
X18.638 Y69.593
X18.662 Y69.383
X18.671 Y69.267
X18.69 Y68.833
X18.692 Y68.729
X18.686 Y68.288
X18.685 Y68.246
X18.669 Y67.82
X18.66 Y67.451
X18.663 Y67.355
X18.822 Y67.363
X18.855 Y67.364
X19.117 Y67.373
X19.15 Y67.374
X19.427 Y67.378
X19.46
X19.748 Y67.377
X19.799 Y67.376
X20.389 Y67.357
X20.464 Y67.353
X21.043 Y67.31
X21.11 Y67.304
X21.384 Y67.273
X21.439 Y67.266
X21.698 Y67.229
X21.766 Y67.218
X22.007 Y67.174
X22.092 Y67.156
X22.312 Y67.105
X22.419 Y67.076
X22.618 Y67.017
X22.75 Y66.971
X22.928 Y66.903
X23.008 Y66.87
X23.086 Y66.833
X23.243 Y66.754
X23.333 Y66.706
X23.419 Y66.653
X23.557 Y66.563
X23.649 Y66.499
X23.737 Y66.429
X23.858 Y66.327
X23.941 Y66.251
X24.02 Y66.171
X24.126 Y66.056
X24.194 Y65.977
X24.257 Y65.895
X24.35 Y65.766
X24.4 Y65.695
X24.446 Y65.621
X24.53 Y65.477
X24.592 Y65.363
X24.67 Y65.205
X24.708 Y65.122
X24.783 Y64.949
X24.803 Y64.899
X24.878 Y64.712
X24.886 Y64.691
X24.963 Y64.489
X25.042 Y64.284
X25.122 Y64.084
X25.207 Y63.883
X25.299 Y63.682
X25.401 Y63.477
X25.515 Y63.267
X25.643 Y63.052
X25.789 Y62.831
X25.952 Y62.602
X26.136 Y62.366
X26.342 Y62.123
X26.57 Y61.873
X26.821 Y61.616
X27.095 Y61.354
X27.391 Y61.086
X27.708 Y60.813
X28.044 Y60.537
X28.393 Y60.26
X29.152 Y59.686
X29.948 Y59.105
X30.758 Y58.519
X30.774 Y58.507
X31.564 Y57.921
X31.592 Y57.9
X31.971 Y57.607
X31.998 Y57.586
X32.363 Y57.293
X32.397 Y57.265
X32.745 Y56.971
X32.787 Y56.935
X33.114 Y56.641
X33.164 Y56.595
X33.469 Y56.3
X33.526 Y56.242
X33.805 Y55.946
X33.87 Y55.874
X34.122 Y55.576
X34.194 Y55.487
X34.417 Y55.187
X34.492 Y55.078
X34.683 Y54.776
X34.759 Y54.644
X34.918 Y54.341
X34.956 Y54.263
X34.991 Y54.184
X35.115 Y53.878
X35.148 Y53.789
X35.177 Y53.697
X35.265 Y53.389
X35.291 Y53.29
X35.311 Y53.189
X35.362 Y52.878
X35.377 Y52.771
X35.385 Y52.664
X35.399 Y52.35
X35.401 Y52.242
X35.396 Y52.133
X35.372 Y51.816
X35.361 Y51.71
X35.343 Y51.605
X35.281 Y51.286
X35.258 Y51.187
X35.231 Y51.09
X35.129 Y50.768
X35.098 Y50.679
X35.063 Y50.593
X34.922 Y50.268
X34.886 Y50.19
X34.847 Y50.115
X34.665 Y49.787
X34.606 Y49.688
X34.501 Y49.523
X34.461 Y49.463
X34.345 Y49.297
X34.306 Y49.243
X34.18 Y49.076
X34.141 Y49.027
X34.006 Y48.86
X33.968 Y48.814
X33.822 Y48.646
X33.785 Y48.605
X33.63 Y48.436
X33.593 Y48.397
X33.427 Y48.228
X33.393 Y48.194
X33.217 Y48.024
X33.184 Y47.992
X32.998 Y47.821
X32.966 Y47.792
X32.77 Y47.62
G2 X31.912 Y47.204 I-1.187 J1.353
G1 X31.142 Y47.061
X31.126 Y47.058
X30.347 Y46.921
X30.33 Y46.918
X29.543 Y46.788
X29.525 Y46.785
X28.729 Y46.661
X28.711 Y46.658
X27.904 Y46.541
X27.886 Y46.538
X27.068 Y46.428
X27.049 Y46.425
X26.221 Y46.323
X26.202 Y46.32
X25.363 Y46.225
X25.345 Y46.223
X24.494 Y46.136
X24.477 Y46.134
X23.615 Y46.054
X23.599 Y46.052
X22.727 Y45.979
X22.712 Y45.978
X21.83 Y45.912
X21.816 Y45.911
X20.924 Y45.851
X20.911 Y45.85
X20.011 Y45.797
X19.998 Y45.796
X19.629 Y45.777
X19.652 Y45.585
X19.691 Y45.322
X19.739 Y45.045
X19.793 Y44.767
X19.93 Y44.166
X20.093 Y43.567
X20.28 Y42.974
X20.489 Y42.392
X20.718 Y41.82
X20.969 Y41.251
X21.242 Y40.676
X21.539 Y40.085
X21.86 Y39.471
X22.208 Y38.824
X22.39 Y38.49
X22.581 Y38.145
X22.779 Y37.79
X22.984 Y37.424
X23.198 Y37.047
X23.42 Y36.66
X23.65 Y36.262
X23.89 Y35.853
X24.138 Y35.433
X24.394 Y35.003
X24.659 Y34.563
X24.932 Y34.115
X25.501 Y33.194
X26.094 Y32.252
X26.699 Y31.306
X27.303 Y30.371
X27.6 Y29.915
X27.89 Y29.47
X28.171 Y29.038
X28.172 Y29.037
X28.442 Y28.622
X28.443 Y28.62
X28.7 Y28.224
X28.703 Y28.22
X28.945 Y27.845
X28.949 Y27.839
X29.174 Y27.486
X29.178 Y27.479
X29.386 Y27.151
X29.392 Y27.141
X29.581 Y26.838
X29.589 Y26.824
X29.759 Y26.547
X29.769 Y26.53
X29.919 Y26.278
X29.931 Y26.258
X30.063 Y26.031
X30.077 Y26.006
X30.191 Y25.802
X30.207 Y25.773
X30.304 Y25.59
X30.32 Y25.559
X30.404 Y25.395
X30.42 Y25.362
X30.492 Y25.213
X30.511 Y25.173
X30.632 Y24.907
X30.644 Y24.879
X30.752 Y24.63
X30.862 Y24.377
X30.986 Y24.095
X30.987 Y24.092
X31.127 Y23.771
X31.134 Y23.755
X31.286 Y23.4
X31.297 Y23.373
X31.451 Y22.996
X31.465 Y22.959
X31.612 Y22.576
X31.631 Y22.523
X31.76 Y22.15
X31.783 Y22.082
X31.892 Y21.721
X31.914 Y21.642
X32.004 Y21.286
X32.022 Y21.208
X32.098 Y20.84
X32.112 Y20.765
X32.176 Y20.372
X32.188 Y20.287
X32.236 Y19.867
X32.245 Y19.75
X32.267 Y19.312
X32.269 Y19.195
X32.265 Y18.976
X32.261 Y18.878
X32.245 Y18.662
X32.234 Y18.552
X32.206 Y18.342
X32.186 Y18.219
X32.144 Y18.017
X32.113 Y17.889
X32.059 Y17.696
X32.018 Y17.571
X31.952 Y17.389
X31.905 Y17.271
X31.828 Y17.099
X31.779 Y16.997
X31.694 Y16.836
X31.627 Y16.717
X31.441 Y16.419
X31.365 Y16.308
X31.165 Y16.034
X31.095 Y15.945
X30.877 Y15.684
X30.81 Y15.608
X30.69 Y15.478
X30.634 Y15.422
X30.502 Y15.292
X30.438 Y15.233
X30.292 Y15.103
X30.224 Y15.045
X30.061 Y14.914
X29.992 Y14.861
X29.812 Y14.73
X29.742 Y14.682
X29.545 Y14.552
X29.476 Y14.51
X29.264 Y14.384
X29.232 Y14.365
X29.414 Y14.093
X29.934 Y13.349
X29.942 Y13.337
X30.197 Y12.967
X30.222 Y12.929
X30.462 Y12.561
X30.5 Y12.5
X30.721 Y12.129
X30.767 Y12.048
X30.965 Y11.672
X31.012 Y11.576
X31.186 Y11.194
X31.23 Y11.087
X31.376 Y10.701
X31.415 Y10.587
X31.531 Y10.206
X31.564 Y10.083
X31.648 Y9.714
X31.668 Y9.613
X31.698 Y9.437
X31.709 Y9.363
X31.731 Y9.194
X31.739 Y9.116
X31.752 Y8.954
X31.757 Y8.868
X31.763 Y8.715
X31.764 Y8.622
X31.761 Y8.478
X31.757 Y8.377
X31.747 Y8.245
X31.735 Y8.132
X31.719 Y8.01
X31.698 Y7.891
X31.675 Y7.779
X31.644 Y7.651
X31.615 Y7.549
X31.574 Y7.423
X31.541 Y7.331
X31.506 Y7.242
X31.466 Y7.155
X31.386 Y6.993
X31.342 Y6.908
X31.293 Y6.826
X31.133 Y6.571
X31.125 Y6.55
X31.113 Y6.505
X31.096 Y6.431
X31.076 Y6.325
X31.056 Y6.188
X31.037 Y6.019
X31.019 Y5.82
X31.011 Y5.686
G2 X31.657 Y5.271 I-0.627 J-1.687
G1 X32.256 Y4.672
G2 X32.784 Y3.399 I-1.273 J-1.273
G1 Y1.6
G2 X32.256 Y0.327 I-1.8 J0.
G1 X31.657 Y-0.273
G2 X30.384 Y-0.8 I-1.273 J1.273
G1 X1.6
G2 X0.327 Y-0.273 I0. J1.8
G1 X-0.273 Y0.327
G2 X-0.8 Y1.6 I1.273 J1.273
G1 Y3.399
G2 X-0.273 Y4.671 I1.8 J0.
G1 X0.327 Y5.271
G2 X0.973 Y5.686 I1.273 J-1.273
G1 X0.969 Y5.754
X0.95 Y5.988
X0.928 Y6.183
X0.905 Y6.338
X0.883 Y6.452
X0.865 Y6.526
X0.853 Y6.563
X0.851 Y6.571
X0.775 Y6.69
X0.752 Y6.726
X0.651 Y6.893
X0.574 Y7.036
X0.529 Y7.128
X0.47 Y7.263
X0.43 Y7.365
X0.38 Y7.511
X0.347 Y7.625
X0.311 Y7.769
X0.284 Y7.896
X0.262 Y8.032
X0.244 Y8.173
X0.232 Y8.298
X0.223 Y8.453
X0.22 Y8.566
X0.221 Y8.733
X0.225 Y8.835
X0.236 Y9.015
X0.244 Y9.107
X0.266 Y9.298
X0.277 Y9.382
X0.31 Y9.582
X0.324 Y9.66
X0.367 Y9.867
X0.384 Y9.941
X0.437 Y10.154
X0.456 Y10.223
X0.52 Y10.44
X0.541 Y10.506
X0.615 Y10.726
X0.65 Y10.821
X0.826 Y11.259
X0.878 Y11.377
X1.089 Y11.809
X1.142 Y11.911
X1.383 Y12.336
X1.43 Y12.413
X1.697 Y12.833
X1.73 Y12.883
X2.018 Y13.303
X2.031 Y13.323
X2.328 Y13.746
X2.617 Y14.162
X2.879 Y14.561
X3.111 Y14.948
X3.198 Y15.109
X3.275 Y15.265
X3.335 Y15.403
X3.348 Y15.438
G2 X2.982 Y16.262 I1.409 J1.12
G1 X2.902 Y16.338
X2.85 Y16.39
X2.64 Y16.61
X2.578 Y16.678
X2.375 Y16.913
X2.306 Y16.999
X2.112 Y17.252
X2.04 Y17.355
X1.858 Y17.631
X1.788 Y17.747
X1.621 Y18.048
X1.558 Y18.173
X1.408 Y18.502
X1.356 Y18.628
X1.223 Y18.988
X1.184 Y19.108
X1.07 Y19.5
X1.042 Y19.61
X0.947 Y20.035
X0.928 Y20.13
X0.851 Y20.588
X0.84 Y20.669
X0.78 Y21.157
X0.774 Y21.224
X0.73 Y21.743
X0.727 Y21.796
X0.698 Y22.342
X0.696 Y22.384
X0.679 Y22.956
X0.678 Y22.987
X0.671 Y23.58
X0.67 Y23.603
Y24.215
Y24.23
X0.675 Y24.858
Y24.866
X0.691 Y26.156
X0.702 Y27.46
X0.698 Y28.757
X0.671 Y30.036
X0.647 Y30.656
X0.617 Y31.272
X0.579 Y31.877
X0.535 Y32.472
X0.484 Y33.058
X0.426 Y33.634
X0.363 Y34.202
X0.295 Y34.761
X0.146 Y35.876
X-0.173 Y38.102
X-0.176 Y38.123
X-0.325 Y39.257
X-0.328 Y39.282
X-0.396 Y39.861
X-0.399 Y39.883
X-0.461 Y40.473
X-0.463 Y40.497
X-0.518 Y41.1
X-0.521 Y41.126
X-0.568 Y41.744
X-0.57 Y41.771
X-0.609 Y42.405
X-0.611 Y42.432
X-0.641 Y43.084
X-0.642 Y43.111
X-0.663 Y43.781
X-0.664 Y43.809
X-0.675 Y44.498
Y44.525
X-0.676 Y45.234
Y45.26
X-0.666 Y45.989
Y46.014
X-0.646 Y46.765
X-0.645 Y46.788
X-0.614 Y47.56
X-0.613 Y47.583
X-0.571 Y48.376
X-0.57 Y48.398
X-0.517 Y49.212
X-0.516 Y49.233
X-0.452 Y50.069
X-0.45 Y50.089
X-0.376 Y50.947
X-0.374 Y50.965
X-0.288 Y51.845
X-0.287 Y51.862
X-0.19 Y52.763
G2 X-0.145 Y53.016 I1.79 J-0.192
G1 X-0.03 Y53.467
X-0.015 Y53.521
X0.117 Y53.98
X0.133 Y54.031
X0.282 Y54.496
X0.298 Y54.545
X0.465 Y55.017
X0.482 Y55.064
X0.666 Y55.543
X0.684 Y55.588
X0.886 Y56.074
X0.904 Y56.117
X1.124 Y56.61
X1.143 Y56.651
X1.381 Y57.151
X1.401 Y57.19
X1.658 Y57.698
X1.677 Y57.736
X1.954 Y58.251
X1.973 Y58.287
X2.269 Y58.81
X2.288 Y58.844
X2.604 Y59.375
X2.623 Y59.407
X2.959 Y59.946
X2.978 Y59.975
X3.333 Y60.522
X3.351 Y60.55
X3.726 Y61.105
X3.744 Y61.13
X4.138 Y61.693
X4.155 Y61.716
X4.569 Y62.287
X4.585 Y62.308
X5.017 Y62.886
X5.032 Y62.906
X5.483 Y63.491
X5.497 Y63.509
X5.966 Y64.101
X5.979 Y64.117
X6.465 Y64.716
X6.477 Y64.732
X6.979 Y65.337
X6.991 Y65.351
X7.509 Y65.963
X7.52 Y65.976
X8.054 Y66.594
X8.065 Y66.606
X8.613 Y67.23
X8.623 Y67.241
X9.186 Y67.871
X9.196 Y67.881
X9.773 Y68.516
X9.782 Y68.526
X10.373 Y69.167
X10.381 Y69.176
X10.986 Y69.822
X10.994 Y69.831
X11.612 Y70.482
X11.62 Y70.491
X12.251 Y71.147
X12.259 Y71.155
X12.903 Y71.817
X12.999 Y71.909
X13.109 Y72.006
X13.232 Y72.106
X13.347 Y72.191
X13.484 Y72.283
X13.606 Y72.357
X13.752 Y72.437
X13.88 Y72.499
X14.032 Y72.564
X14.166 Y72.615
X14.321 Y72.665
X14.46 Y72.704
X14.619 Y72.74
X14.763 Y72.766
X14.921 Y72.787
X15.068 Y72.8
X15.23 Y72.808
X15.38
X15.443 Y72.807
G2 X15.668 Y72.639 I-0.009 J-0.246
G3 X15.879 Y72.454 I0.263 J0.088
G1 X15.961 Y72.439
X16.109 Y72.403
X16.257 Y72.359
X16.333 Y72.334
X16.408 Y72.305
X16.551 Y72.245
X16.629 Y72.21
X16.704 Y72.17
X16.841 Y72.093
X16.917 Y72.048
X16.99 Y71.998
X17.119 Y71.904
X17.19 Y71.849
X17.259 Y71.789
X17.377 Y71.678
X17.44 Y71.616
X17.5 Y71.55
X17.607 Y71.423
X17.661 Y71.357
X17.71 Y71.287
X17.806 Y71.144
X17.848 Y71.077
X17.887 Y71.008
X17.97 Y70.849
X18.031 Y70.719
X18.101 Y70.547
X18.144 Y70.427
X18.202 Y70.242
X18.231 Y70.135
X18.276 Y69.94
X18.295 Y69.845
X18.329 Y69.642
X18.34 Y69.56
X18.363 Y69.35
X18.371 Y69.253
X18.39 Y68.819
X18.392 Y68.732
X18.386 Y68.292
X18.385 Y68.257
X18.369 Y67.829
X18.36 Y67.45
X18.368 Y67.124
X18.375 Y67.036
X18.568 Y67.049
X18.595 Y67.051
X18.837 Y67.063
X18.865 Y67.064
X19.126 Y67.073
X19.154 Y67.074
X19.431 Y67.078
X19.459
X19.747 Y67.077
X19.789 Y67.076
X20.38 Y67.057
X20.442 Y67.053
X21.021 Y67.011
X21.077 Y67.005
X21.351 Y66.975
X21.397 Y66.969
X21.655 Y66.932
X21.712 Y66.923
X21.953 Y66.879
X22.024 Y66.864
X22.244 Y66.813
X22.333 Y66.789
X22.532 Y66.729
X22.642 Y66.692
X22.82 Y66.623
X22.952 Y66.565
X23.109 Y66.486
X23.183 Y66.446
X23.255 Y66.402
X23.393 Y66.312
X23.47 Y66.258
X23.543 Y66.2
X23.664 Y66.098
X23.733 Y66.035
X23.799 Y65.968
X23.905 Y65.853
X23.961 Y65.787
X24.014 Y65.719
X24.108 Y65.59
X24.187 Y65.469
X24.271 Y65.325
X24.323 Y65.23
X24.401 Y65.072
X24.432 Y65.003
X24.507 Y64.83
X24.524 Y64.789
X24.599 Y64.601
X24.606 Y64.583
X24.683 Y64.381
X24.763 Y64.175
X24.844 Y63.969
X24.932 Y63.763
X25.028 Y63.553
X25.134 Y63.339
X25.254 Y63.119
X25.389 Y62.893
X25.541 Y62.661
X25.712 Y62.422
X25.903 Y62.177
X26.117 Y61.925
X26.352 Y61.667
X26.61 Y61.403
X26.89 Y61.134
X27.192 Y60.861
X27.514 Y60.584
X27.855 Y60.303
X28.21 Y60.023
X28.973 Y59.445
X29.772 Y58.863
X30.582 Y58.276
X30.595 Y58.266
X31.386 Y57.68
X31.409 Y57.662
X31.788 Y57.369
X31.811 Y57.352
X32.176 Y57.059
X32.204 Y57.036
X32.552 Y56.742
X32.586 Y56.712
X32.914 Y56.418
X32.955 Y56.38
X33.26 Y56.084
X33.308 Y56.036
X33.587 Y55.74
X33.641 Y55.68
X33.894 Y55.382
X33.953 Y55.308
X34.176 Y55.008
X34.239 Y54.917
X34.43 Y54.615
X34.494 Y54.506
X34.652 Y54.202
X34.713 Y54.071
X34.837 Y53.765
X34.865 Y53.691
X34.889 Y53.615
X34.977 Y53.306
X34.998 Y53.224
X35.015 Y53.14
X35.066 Y52.829
X35.078 Y52.74
X35.085 Y52.65
X35.1 Y52.337
X35.101 Y52.246
X35.097 Y52.155
X35.073 Y51.839
X35.064 Y51.751
X35.049 Y51.663
X34.986 Y51.344
X34.968 Y51.261
X34.945 Y51.18
X34.843 Y50.858
X34.817 Y50.785
X34.788 Y50.712
X34.647 Y50.387
X34.584 Y50.26
X34.403 Y49.932
X34.354 Y49.849
X34.248 Y49.684
X34.215 Y49.635
X34.099 Y49.469
X34.066 Y49.423
X33.941 Y49.257
X33.908 Y49.216
X33.773 Y49.049
X33.741 Y49.011
X33.595 Y48.842
X33.565 Y48.808
X33.409 Y48.639
X33.378 Y48.607
X33.213 Y48.438
X33.184 Y48.41
X33.009 Y48.239
X32.98 Y48.213
X32.795 Y48.042
X32.768 Y48.018
X32.572 Y47.846
G2 X31.857 Y47.499 I-0.989 J1.128
G1 X31.088 Y47.356
X31.074 Y47.353
X30.295 Y47.216
X30.281 Y47.214
X29.494 Y47.083
X29.479 Y47.081
X28.682 Y46.957
X28.667 Y46.955
X27.861 Y46.838
X27.845 Y46.835
X27.028 Y46.725
X27.012 Y46.723
X26.184 Y46.62
X26.169 Y46.618
X25.329 Y46.523
X25.314 Y46.521
X24.464 Y46.434
X24.449 Y46.433
X23.588 Y46.352
X23.574 Y46.351
X22.702 Y46.278
X22.689 Y46.277
X21.807 Y46.211
X21.795 Y46.21
X20.904 Y46.151
X20.893 Y46.15
X19.993 Y46.096
X19.982
X19.301 Y46.06
X19.303 Y46.031
X19.324 Y45.799
X19.355 Y45.545
X19.395 Y45.274
X19.444 Y44.99
X19.5 Y44.705
X19.639 Y44.093
X19.805 Y43.482
X19.996 Y42.878
X20.208 Y42.286
X20.442 Y41.704
X20.696 Y41.126
X20.973 Y40.544
X21.272 Y39.948
X21.595 Y39.33
X21.944 Y38.681
X22.127 Y38.345
X22.318 Y37.999
X22.517 Y37.643
X22.723 Y37.276
X22.937 Y36.899
X23.16 Y36.51
X23.391 Y36.111
X23.631 Y35.701
X23.88 Y35.28
X24.137 Y34.848
X24.403 Y34.407
X24.676 Y33.959
X25.247 Y33.035
X25.84 Y32.092
X26.447 Y31.143
X27.052 Y30.208
X27.348 Y29.752
X27.638 Y29.306
X27.92 Y28.875
X27.921 Y28.873
X28.191 Y28.458
X28.192 Y28.457
X28.449 Y28.06
X28.451 Y28.057
X28.693 Y27.682
X28.696 Y27.677
X28.921 Y27.325
X28.925 Y27.319
X29.132 Y26.991
X29.138 Y26.982
X29.327 Y26.679
X29.333 Y26.668
X29.503 Y26.391
X29.511 Y26.377
X29.662 Y26.125
X29.672 Y26.108
X29.803 Y25.881
X29.815 Y25.86
X29.929 Y25.656
X29.942 Y25.632
X30.039 Y25.449
X30.053 Y25.423
X30.136 Y25.259
X30.15 Y25.231
X30.222 Y25.082
X30.238 Y25.049
X30.358 Y24.783
X30.369 Y24.76
X30.476 Y24.511
X30.587 Y24.257
X30.711 Y23.974
X30.712 Y23.972
X30.853 Y23.65
X30.858 Y23.638
X31.01 Y23.282
X31.019 Y23.26
X31.173 Y22.883
X31.185 Y22.852
X31.331 Y22.469
X31.347 Y22.425
X31.477 Y22.052
X31.495 Y21.995
X31.605 Y21.634
X31.623 Y21.568
X31.713 Y21.212
X31.728 Y21.147
X31.804 Y20.779
X31.816 Y20.717
X31.88 Y20.324
X31.89 Y20.253
X31.938 Y19.833
X31.946 Y19.735
X31.967 Y19.298
X31.969 Y19.2
X31.965 Y18.981
X31.962 Y18.899
X31.946 Y18.683
X31.937 Y18.591
X31.909 Y18.381
X31.892 Y18.279
X31.85 Y18.077
X31.824 Y17.97
X31.77 Y17.778
X31.736 Y17.673
X31.67 Y17.491
X31.631 Y17.393
X31.554 Y17.221
X31.513 Y17.136
X31.429 Y16.975
X31.372 Y16.876
X31.186 Y16.578
X31.123 Y16.485
X30.923 Y16.211
X30.865 Y16.137
X30.647 Y15.876
X30.591 Y15.812
X30.47 Y15.683
X30.424 Y15.636
X30.292 Y15.507
X30.239 Y15.457
X30.093 Y15.327
X30.036 Y15.279
X29.873 Y15.148
X29.815 Y15.104
X29.636 Y14.973
X29.577 Y14.932
X29.38 Y14.803
X29.323 Y14.767
X29.111 Y14.642
X29.054 Y14.609
X28.83 Y14.489
X28.805 Y14.476
X28.926 Y14.282
X29.166 Y13.924
X29.688 Y13.177
X29.695 Y13.167
X29.95 Y12.797
X29.971 Y12.765
X30.211 Y12.397
X30.242 Y12.346
X30.463 Y11.976
X30.501 Y11.908
X30.7 Y11.532
X30.739 Y11.452
X30.913 Y11.07
X30.95 Y10.981
X31.096 Y10.595
X31.128 Y10.5
X31.244 Y10.118
X31.271 Y10.016
X31.356 Y9.647
X31.372 Y9.563
X31.402 Y9.387
X31.411 Y9.325
X31.433 Y9.156
X31.44 Y9.091
X31.453 Y8.929
X31.458 Y8.858
X31.463 Y8.705
X31.464 Y8.627
X31.461 Y8.483
X31.458 Y8.399
X31.448 Y8.266
X31.438 Y8.173
X31.421 Y8.05
X31.404 Y7.951
X31.381 Y7.839
X31.355 Y7.733
X31.327 Y7.631
X31.293 Y7.526
X31.259 Y7.433
X31.23 Y7.359
X31.196 Y7.287
X31.117 Y7.125
X31.08 Y7.054
X31.039 Y6.986
X30.875 Y6.724
X30.866 Y6.71
X30.86 Y6.696
X30.852 Y6.677
X30.839 Y6.64
X30.822 Y6.579
X30.802 Y6.491
X30.78 Y6.374
X30.758 Y6.226
X30.738 Y6.049
X30.72 Y5.843
X30.705 Y5.608
X30.699 Y5.465
G2 X31.444 Y5.059 I-0.315 J-1.467
G1 X32.044 Y4.459
G2 X32.484 Y3.399 I-1.061 J-1.061
G1 Y1.6
G2 X32.044 Y0.539 I-1.5 J0.
G1 X31.444 Y-0.061
G2 X30.384 Y-0.5 I-1.061 J1.061
G1 X1.6
G2 X0.539 Y-0.061 I0. J1.5
G1 X-0.061 Y0.539
G2 X-0.5 Y1.6 I1.061 J1.061
G1 Y3.399
G2 X-0.061 Y4.459 I1.5 J0.
G1 X0.539 Y5.059
G2 X1.285 Y5.465 I1.061 J-1.061
G1 X1.284 Y5.494
X1.268 Y5.774
X1.248 Y6.017
X1.226 Y6.222
X1.201 Y6.388
X1.176 Y6.516
X1.154 Y6.606
X1.137 Y6.662
X1.125 Y6.692
X1.118 Y6.708
X1.111 Y6.721
X1.028 Y6.851
X1.009 Y6.881
X0.908 Y7.048
X0.843 Y7.167
X0.798 Y7.26
X0.749 Y7.372
X0.709 Y7.474
X0.668 Y7.595
X0.634 Y7.71
X0.604 Y7.83
X0.578 Y7.957
X0.559 Y8.07
X0.541 Y8.211
X0.532 Y8.315
X0.523 Y8.47
X0.52 Y8.564
X0.521 Y8.732
X0.524 Y8.817
X0.535 Y8.996
X0.542 Y9.073
X0.564 Y9.264
X0.573 Y9.334
X0.606 Y9.534
X0.618 Y9.599
X0.661 Y9.806
X0.675 Y9.867
X0.728 Y10.081
X0.744 Y10.138
X0.808 Y10.355
X0.826 Y10.411
X0.899 Y10.63
X0.929 Y10.709
X1.105 Y11.148
X1.148 Y11.246
X1.358 Y11.678
X1.403 Y11.763
X1.644 Y12.187
X1.683 Y12.252
X1.95 Y12.672
X1.978 Y12.713
X2.265 Y13.134
X2.276 Y13.15
X2.574 Y13.574
X2.866 Y13.994
X3.133 Y14.401
X3.372 Y14.799
X3.464 Y14.971
X3.547 Y15.139
X3.613 Y15.29
X3.662 Y15.421
X3.688 Y15.506
G2 X3.265 Y16.405 I1.069 J1.052
G1 X3.11 Y16.554
X3.067 Y16.598
X2.857 Y16.818
X2.805 Y16.874
X2.602 Y17.109
X2.544 Y17.18
X2.351 Y17.434
X2.291 Y17.52
X2.109 Y17.796
X2.051 Y17.892
X1.884 Y18.193
X1.831 Y18.297
X1.681 Y18.627
X1.637 Y18.732
X1.505 Y19.092
X1.472 Y19.192
X1.358 Y19.584
X1.334 Y19.675
X1.239 Y20.1
X1.224 Y20.18
X1.147 Y20.637
X1.137 Y20.705
X1.078 Y21.193
X1.073 Y21.249
X1.029 Y21.768
X1.026 Y21.812
X0.997 Y22.358
X0.996 Y22.393
X0.979 Y22.965
X0.978 Y22.991
X0.97 Y23.584
Y23.603
Y24.216
Y24.227
X0.975 Y24.856
Y24.863
X0.991 Y26.152
X1.002 Y27.459
X0.998 Y28.76
X0.97 Y30.045
X0.947 Y30.669
X0.916 Y31.288
X0.878 Y31.898
X0.834 Y32.497
X0.782 Y33.086
X0.725 Y33.666
X0.661 Y34.237
X0.593 Y34.799
X0.443 Y35.918
X0.124 Y38.145
X0.122 Y38.162
X-0.028 Y39.296
X-0.03 Y39.317
X-0.098 Y39.896
X-0.1 Y39.914
X-0.162 Y40.504
X-0.164 Y40.524
X-0.22 Y41.127
X-0.221 Y41.149
X-0.269 Y41.767
X-0.271 Y41.789
X-0.31 Y42.423
X-0.311 Y42.446
X-0.342 Y43.098
Y43.121
X-0.363 Y43.791
X-0.364 Y43.814
X-0.375 Y44.503
Y44.525
X-0.376 Y45.234
Y45.256
X-0.366 Y45.985
Y46.006
X-0.346 Y46.757
X-0.345 Y46.776
X-0.314 Y47.548
X-0.313 Y47.567
X-0.272 Y48.36
X-0.27 Y48.378
X-0.218 Y49.193
X-0.216 Y49.21
X-0.153 Y50.046
X-0.151 Y50.063
X-0.077 Y50.921
X-0.075 Y50.936
X0.01 Y51.816
X0.012 Y51.83
X0.108 Y52.731
X0.123 Y52.837
X0.146 Y52.942
X0.261 Y53.393
X0.273 Y53.438
X0.405 Y53.897
X0.418 Y53.939
X0.567 Y54.404
X0.581 Y54.445
X0.748 Y54.917
X0.762 Y54.956
X0.946 Y55.435
X0.961 Y55.473
X1.163 Y55.959
X1.178 Y55.994
X1.398 Y56.488
X1.414 Y56.522
X1.652 Y57.022
X1.668 Y57.055
X1.926 Y57.563
X1.942 Y57.594
X2.218 Y58.11
X2.234 Y58.139
X2.53 Y58.663
X2.546 Y58.69
X2.862 Y59.222
X2.878 Y59.248
X3.214 Y59.787
X3.229 Y59.812
X3.585 Y60.359
X3.6 Y60.382
X3.975 Y60.937
X3.989 Y60.958
X4.384 Y61.521
X4.398 Y61.54
X4.812 Y62.11
X4.825 Y62.128
X5.258 Y62.706
X5.27 Y62.723
X5.721 Y63.307
X5.733 Y63.323
X6.201 Y63.915
X6.212 Y63.929
X6.698 Y64.527
X6.708 Y64.54
X7.21 Y65.145
X7.22 Y65.157
X7.738 Y65.769
X7.747 Y65.78
X8.281 Y66.398
X8.29 Y66.408
X8.838 Y67.032
X8.847 Y67.041
X9.41 Y67.671
X9.418 Y67.679
X9.995 Y68.314
X10.002 Y68.323
X10.593 Y68.963
X10.601 Y68.971
X11.205 Y69.617
X11.212 Y69.625
X11.83 Y70.276
X11.836 Y70.283
X12.467 Y70.939
X12.474 Y70.946
X13.118 Y71.608
X13.198 Y71.684
X13.308 Y71.781
X13.41 Y71.865
X13.526 Y71.95
X13.64 Y72.027
X13.762 Y72.101
X13.884 Y72.167
X14.011 Y72.229
X14.138 Y72.284
X14.271 Y72.334
X14.401 Y72.376
X14.54 Y72.414
X14.673 Y72.445
X14.816 Y72.471
X14.948 Y72.488
X15.095 Y72.502
X15.23 Y72.508
X15.38
X15.517 Y72.501
X15.668 Y72.488
X15.811 Y72.467
X15.879 Y72.454
G3 X16.23 Y72.693 I0.056 J0.295
G1 X16.286 Y72.988
X16.299 Y73.053 Z0.51
X16.31 Y73.116 Z0.532
X16.321 Y73.171 Z0.568
X16.33 Y73.218 Z0.615
X16.337 Y73.253 Z0.672
X16.341 Y73.275 Z0.736
X16.342 Y73.282 Z0.802
G0 Z31.244
X63.626 Y59.334
Z21.244
G1 Z17.244 F133.3
Z0.55
X63.621 Y59.329 Z0.483 F400
X63.604 Y59.314 Z0.42
X63.577 Y59.291 Z0.363
X63.541 Y59.259 Z0.315
X63.499 Y59.222 Z0.28
X63.451 Y59.18 Z0.258
X63.401 Y59.136 Z0.25
X63.175 Y58.938
G3 X63.147 Y58.515 I0.198 J-0.226
G1 X63.25 Y58.397
X63.361 Y58.273
X63.486 Y58.135
X63.624 Y57.983
X63.776 Y57.817
X63.94 Y57.638
X63.943 Y57.635
X64.116 Y57.445
X64.123 Y57.437
X64.304 Y57.237
X64.325 Y57.213
X64.696 Y56.787
X64.749 Y56.722
X65.105 Y56.273
X65.168 Y56.188
X65.328 Y55.96
X65.384 Y55.874
X65.524 Y55.647
X65.59 Y55.532
X65.707 Y55.307
X65.778 Y55.153
X65.867 Y54.933
X65.904 Y54.835
X65.935 Y54.735
X65.994 Y54.522
G2 X66.044 Y54.274 I-1.735 J-0.48
G1 X66.07 Y54.069
G2 X66.085 Y53.784 I-1.785 J-0.232
G1 X66.079 Y53.589
G2 X66.046 Y53.295 I-1.799 J0.052
G1 X66.01 Y53.11
G2 X65.936 Y52.844 I-1.766 J0.346
G1 X65.873 Y52.669
X65.829 Y52.559
X65.778 Y52.452
X65.692 Y52.287
X65.646 Y52.204
X65.596 Y52.124
X65.494 Y51.97
X65.412 Y51.855
X65.299 Y51.71
X65.22 Y51.616
X64.984 Y51.352
X64.948 Y51.314
X64.733 Y51.087
X64.654 Y51.002
X64.595 Y50.936
X64.554 Y50.887
X64.507 Y50.826
G2 X63.087 Y50.133 I-1.419 J1.107
G1 X61.057
X59.021 Y48.742
X59.112 Y48.064
X59.237 Y47.199
X59.366 Y46.34
X59.499 Y45.491
X59.636 Y44.652
X59.778 Y43.824
X59.924 Y43.006
X60.076 Y42.198
X60.231 Y41.403
X60.392 Y40.618
X60.558 Y39.846
X60.728 Y39.087
X60.904 Y38.339
X61.086 Y37.605
X61.272 Y36.884
X61.465 Y36.177
X61.662 Y35.482
X61.866 Y34.801
X62.075 Y34.133
X62.289 Y33.478
X62.509 Y32.835
X62.735 Y32.205
X62.965 Y31.586
X63.201 Y30.979
X63.442 Y30.383
X63.688 Y29.798
X63.939 Y29.224
X64.194 Y28.661
X64.454 Y28.109
X64.718 Y27.567
X64.993 Y27.024
G2 X65.096 Y25.646 I-1.606 J-0.813
X64.192 Y24.601 I-1.709 J0.565
G1 X63.677 Y24.344
X63.821 Y24.112
X63.851 Y24.063
X64.231 Y23.406
X64.26 Y23.355
X64.615 Y22.692
X64.643 Y22.638
X64.972 Y21.97
X64.999 Y21.915
X65.303 Y21.242
X65.328 Y21.184
X65.605 Y20.507
X65.628 Y20.448
X65.88 Y19.768
X65.901 Y19.707
X66.125 Y19.026
X66.144 Y18.964
X66.341 Y18.284
X66.358 Y18.22
X66.527 Y17.545
X66.542 Y17.479
X66.682 Y16.812
X66.695 Y16.745
X66.807 Y16.091
X66.817 Y16.021
X66.9 Y15.385
X66.908 Y15.312
X66.963 Y14.701
X66.967 Y14.644
X66.984 Y14.349
X66.985 Y14.308
X66.995 Y14.022
X66.996 Y13.979
X66.999 Y13.702
Y13.658
X66.995 Y13.391
X66.993 Y13.343
X66.983 Y13.085
X66.98 Y13.036
X66.963 Y12.788
X66.959 Y12.736
X66.936 Y12.499
X66.929 Y12.445
X66.9 Y12.218
X66.892 Y12.16
X66.857 Y11.944
X66.846 Y11.886
X66.806 Y11.68
X66.793 Y11.621
X66.748 Y11.425
X66.733 Y11.364
X66.683 Y11.177
X66.658 Y11.093
X66.545 Y10.743
X66.511 Y10.646
X66.385 Y10.319
X66.353 Y10.239
X66.076 Y9.613
X66.074 Y9.607
X65.939 Y9.304
X65.816 Y9.011
X65.7 Y8.706
X65.588 Y8.375
X65.479 Y8.011
X65.373 Y7.609
X65.271 Y7.167
X65.204 Y6.84
Y5.955
X65.413 Y5.821
X66.087
G2 X67.36 Y5.294 I0. J-1.8
G1 X67.952 Y4.702
G2 X68.479 Y3.429 I-1.273 J-1.273
G1 Y1.652
G2 X67.951 Y0.379 I-1.8 J0.
G1 X67.334 Y-0.238
G2 X66.061 Y-0.766 I-1.273 J1.273
G1 X37.323
G2 X36.05 Y-0.238 I0. J1.8
G1 X35.433 Y0.379
G2 X34.906 Y1.652 I1.273 J1.273
G1 Y3.429
G2 X35.433 Y4.702 I1.8 J0.
G1 X36.024 Y5.294
G2 X37.297 Y5.821 I1.273 J-1.273
G1 X37.971
X38.18 Y5.955
Y6.84
X38.114 Y7.167
X38.012 Y7.609
X37.906 Y8.011
X37.796 Y8.375
X37.684 Y8.706
X37.568 Y9.011
X37.445 Y9.304
X37.31 Y9.607
X37.308 Y9.613
X37.032 Y10.239
X36.999 Y10.319
X36.873 Y10.646
X36.839 Y10.743
X36.726 Y11.093
X36.702 Y11.177
X36.651 Y11.364
X36.636 Y11.425
X36.591 Y11.621
X36.578 Y11.68
X36.538 Y11.886
X36.527 Y11.944
X36.492 Y12.16
X36.484 Y12.218
X36.455 Y12.445
X36.449 Y12.499
X36.425 Y12.736
X36.421 Y12.788
X36.404 Y13.036
X36.401 Y13.085
X36.391 Y13.343
X36.389 Y13.391
X36.385 Y13.658
Y13.702
X36.388 Y13.979
X36.389 Y14.022
X36.399 Y14.308
X36.401 Y14.349
X36.417 Y14.644
X36.422 Y14.701
X36.476 Y15.312
X36.484 Y15.385
X36.567 Y16.021
X36.578 Y16.091
X36.689 Y16.745
X36.702 Y16.812
X36.842 Y17.479
X36.858 Y17.545
X37.026 Y18.22
X37.043 Y18.284
X37.24 Y18.964
X37.259 Y19.026
X37.483 Y19.707
X37.505 Y19.768
X37.756 Y20.448
X37.779 Y20.507
X38.057 Y21.184
X38.082 Y21.242
X38.386 Y21.915
X38.412 Y21.97
X38.742 Y22.638
X38.769 Y22.692
X39.124 Y23.355
X39.153 Y23.406
X39.533 Y24.063
X39.563 Y24.112
X39.707 Y24.344
X39.192 Y24.601
G2 X38.288 Y25.646 I0.805 J1.61
X38.391 Y27.024 I1.709 J0.565
G1 X38.666 Y27.567
X38.93 Y28.109
X39.19 Y28.661
X39.446 Y29.224
X39.696 Y29.798
X39.942 Y30.383
X40.183 Y30.979
X40.419 Y31.586
X40.65 Y32.205
X40.875 Y32.835
X41.095 Y33.478
X41.309 Y34.133
X41.518 Y34.801
X41.722 Y35.482
X41.92 Y36.177
X42.112 Y36.884
X42.299 Y37.605
X42.48 Y38.339
X42.656 Y39.087
X42.827 Y39.846
X42.992 Y40.618
X43.153 Y41.403
X43.309 Y42.198
X43.46 Y43.006
X43.606 Y43.824
X43.748 Y44.652
X43.885 Y45.491
X44.019 Y46.34
X44.147 Y47.199
X44.272 Y48.064
X44.363 Y48.742
X42.327 Y50.133
X40.297
G2 X38.878 Y50.826 I0. J1.8
G1 X38.83 Y50.887
X38.789 Y50.936
X38.73 Y51.002
X38.651 Y51.087
X38.436 Y51.314
X38.401 Y51.352
X38.164 Y51.616
X38.085 Y51.71
X37.972 Y51.855
X37.89 Y51.97
X37.788 Y52.124
X37.738 Y52.204
X37.692 Y52.287
X37.606 Y52.452
X37.555 Y52.559
X37.511 Y52.669
X37.448 Y52.844
G2 X37.374 Y53.11 I1.693 J0.612
G1 X37.338 Y53.295
G2 X37.305 Y53.589 I1.766 J0.346
G1 X37.3 Y53.784
G2 X37.314 Y54.069 I1.799 J0.052
G1 X37.34 Y54.274
G2 X37.39 Y54.522 I1.785 J-0.232
G1 X37.449 Y54.735
X37.48 Y54.835
X37.517 Y54.933
X37.606 Y55.153
X37.677 Y55.307
X37.795 Y55.532
X37.86 Y55.647
X38.001 Y55.874
X38.057 Y55.96
X38.216 Y56.188
X38.28 Y56.273
X38.635 Y56.722
X38.689 Y56.787
X39.059 Y57.213
X39.08 Y57.237
X39.261 Y57.437
X39.268 Y57.445
X39.441 Y57.635
X39.444 Y57.638
X39.608 Y57.817
X39.76 Y57.983
X39.899 Y58.135
X40.023 Y58.273
X40.134 Y58.397
X40.237 Y58.515
G2 X41.59 Y59.128 I1.353 J-1.187
G1 X42.797
X43.39 Y59.59
X41.918 Y61.797
G2 X41.732 Y62.159 I1.498 J0.998
G1 X41.34 Y63.194
X40.924 Y64.22
X40.485 Y65.271
X40.475 Y65.294
X40.26 Y65.831
X40.243 Y65.876
X40.04 Y66.423
X40.015 Y66.493
X39.833 Y67.054
X39.805 Y67.148
X39.652 Y67.725
X39.632 Y67.808
X39.569 Y68.102
X39.557 Y68.165
X39.504 Y68.463
X39.494 Y68.527
X39.451 Y68.828
X39.443 Y68.895
X39.412 Y69.198
X39.406 Y69.268
X39.387 Y69.572
X39.384 Y69.641
X39.376 Y69.945
Y70.016
X39.38 Y70.319
X39.382 Y70.39
X39.398 Y70.69
X39.404 Y70.762
X39.432 Y71.057
X39.441 Y71.134
X39.48 Y71.422
X39.493 Y71.501
X39.544 Y71.781
X39.561 Y71.865
X39.624 Y72.135
X39.648 Y72.226
X39.723 Y72.486
X39.753 Y72.582
X39.84 Y72.83
X39.88 Y72.934
X39.979 Y73.17
X40.03 Y73.28
X40.142 Y73.503
X40.205 Y73.619
X40.331 Y73.829
X40.407 Y73.946
X40.548 Y74.144
X40.635 Y74.257
X40.791 Y74.444
X40.886 Y74.549
X41.058 Y74.725
X41.158 Y74.819
X41.348 Y74.985
X41.445 Y75.065
X41.653 Y75.223
X41.745 Y75.288
X41.971 Y75.438
X42.056 Y75.491
X42.301 Y75.635
X42.376 Y75.677
X42.64 Y75.815
X42.704 Y75.848
X42.986 Y75.982
X43.042 Y76.007
X43.342 Y76.137
X43.391 Y76.157
X43.707 Y76.284
X43.748 Y76.299
X44.079 Y76.423
X44.115 Y76.436
X44.459 Y76.555
X44.505 Y76.57
X45.224 Y76.799
X45.276 Y76.815
X46.021 Y77.027
X46.068 Y77.04
X46.821 Y77.233
X46.866 Y77.244
X47.608 Y77.414
X47.644 Y77.421
X48.005 Y77.496
X48.031 Y77.502
X48.225 Y77.539
Y77.568
X46.692
G2 X44.892 Y79.368 I0. J1.8
G1 Y82.701
G2 X46.692 Y84.501 I1.8 J0.
G1 X48.225
Y86.035
G2 X50.026 Y87.835 I1.8 J0.
G1 X53.359
G2 X55.159 Y86.035 I0. J-1.8
G1 Y84.501
X56.692
G2 X58.492 Y82.701 I0. J-1.8
G1 Y79.368
G2 X56.692 Y77.568 I-1.8 J0.
G1 X55.159
Y77.539
X55.353 Y77.502
X55.379 Y77.496
X55.741 Y77.421
X55.777 Y77.414
X56.518 Y77.244
X56.564 Y77.233
X57.317 Y77.04
X57.363 Y77.027
X58.108 Y76.815
X58.16 Y76.799
X58.88 Y76.57
X58.925 Y76.555
X59.269 Y76.436
X59.305 Y76.423
X59.637 Y76.299
X59.678 Y76.284
X59.994 Y76.157
X60.041 Y76.137
X60.341 Y76.007
X60.398 Y75.982
X60.68 Y75.848
X60.745 Y75.815
X61.009 Y75.677
X61.083 Y75.635
X61.329 Y75.491
X61.412 Y75.439
X61.639 Y75.288
X61.731 Y75.223
X61.939 Y75.065
X62.037 Y74.985
X62.227 Y74.818
X62.326 Y74.725
X62.498 Y74.549
X62.593 Y74.444
X62.749 Y74.257
X62.836 Y74.144
X62.977 Y73.946
X63.053 Y73.829
X63.179 Y73.619
X63.242 Y73.503
X63.354 Y73.28
X63.405 Y73.17
X63.504 Y72.934
X63.544 Y72.83
X63.631 Y72.582
X63.662 Y72.486
X63.736 Y72.226
X63.76 Y72.135
X63.823 Y71.865
X63.84 Y71.781
X63.891 Y71.501
X63.904 Y71.422
X63.944 Y71.134
X63.953 Y71.057
X63.98 Y70.763
X63.986 Y70.69
X64.002 Y70.39
X64.004 Y70.319
X64.009 Y70.016
X64.008 Y69.945
X64. Y69.641
X63.997 Y69.572
X63.978 Y69.267
X63.972 Y69.198
X63.941 Y68.895
X63.933 Y68.828
X63.891 Y68.527
X63.88 Y68.462
X63.827 Y68.165
X63.815 Y68.103
X63.752 Y67.808
X63.732 Y67.724
X63.579 Y67.148
X63.551 Y67.054
X63.369 Y66.493
X63.345 Y66.423
X63.141 Y65.876
X63.124 Y65.831
X62.909 Y65.294
X62.899 Y65.271
X62.461 Y64.22
X62.044 Y63.194
X61.652 Y62.159
G2 X61.466 Y61.797 I-1.683 J0.637
G1 X59.995 Y59.59
X60.587 Y59.128
X61.794
G3 X62.094 Y59.428 I0. J0.3
G1 Y59.728
Y59.795 Z0.258
Y59.858 Z0.28
Y59.915 Z0.315
Y59.963 Z0.363
Y59.998 Z0.42
Y60.021 Z0.483
Y60.028 Z0.55
G0 Z21.244
X63.401 Y59.136
G1 Z17.244 F133.3
Z0.55
X63.395 Y59.131 Z0.483 F400
X63.378 Y59.116 Z0.42
X63.352 Y59.093 Z0.363
X63.316 Y59.061 Z0.315
X63.273 Y59.024 Z0.28
X63.225 Y58.982 Z0.258
X63.175 Y58.938 Z0.25
X62.95 Y58.74
G3 X62.922 Y58.317 I0.198 J-0.226
G1 X63.025 Y58.199
X63.138 Y58.073
X63.263 Y57.933
X63.402 Y57.781
X63.555 Y57.614
X63.719 Y57.435
X63.721 Y57.433
X63.895 Y57.243
X63.901 Y57.236
X64.081 Y57.036
X64.099 Y57.016
X64.469 Y56.59
X64.514 Y56.536
X64.869 Y56.087
X64.922 Y56.016
X65.082 Y55.788
X65.128 Y55.717
X65.269 Y55.489
X65.323 Y55.393
X65.441 Y55.168
X65.5 Y55.04
X65.589 Y54.82
X65.62 Y54.738
X65.646 Y54.655
X65.705 Y54.442
X65.729 Y54.339
X65.746 Y54.235
X65.773 Y54.03
X65.784 Y53.912
X65.785 Y53.793
X65.779 Y53.598
X65.77 Y53.475
X65.752 Y53.353
X65.715 Y53.168
X65.689 Y53.056
X65.654 Y52.946
X65.591 Y52.771
X65.554 Y52.679
X65.511 Y52.59
X65.426 Y52.426
X65.388 Y52.356
X65.346 Y52.289
X65.244 Y52.135
X65.175 Y52.04
X65.062 Y51.895
X64.997 Y51.816
X64.76 Y51.552
X64.731 Y51.52
X64.515 Y51.293
X64.432 Y51.204
X64.368 Y51.132
X64.321 Y51.076
X64.27 Y51.011
G2 X63.087 Y50.433 I-1.183 J0.923
G1 X60.964
X58.699 Y48.885
X58.815 Y48.023
X58.94 Y47.155
X59.069 Y46.294
X59.202 Y45.444
X59.34 Y44.603
X59.483 Y43.772
X59.629 Y42.952
X59.781 Y42.142
X59.937 Y41.344
X60.098 Y40.557
X60.265 Y39.782
X60.436 Y39.019
X60.613 Y38.269
X60.795 Y37.532
X60.982 Y36.808
X61.176 Y36.096
X61.374 Y35.398
X61.579 Y34.714
X61.789 Y34.042
X62.005 Y33.383
X62.226 Y32.736
X62.453 Y32.102
X62.685 Y31.479
X62.922 Y30.868
X63.165 Y30.269
X63.412 Y29.68
X63.665 Y29.102
X63.922 Y28.536
X64.183 Y27.979
X64.45 Y27.434
X64.725 Y26.889
G2 X64.811 Y25.741 I-1.338 J-0.677
X64.058 Y24.87 I-1.424 J0.471
G1 X63.283 Y24.483
X63.305 Y24.374
X63.567 Y23.954
X63.591 Y23.913
X63.972 Y23.256
X63.995 Y23.213
X64.351 Y22.55
X64.374 Y22.505
X64.703 Y21.838
X64.725 Y21.791
X65.029 Y21.119
X65.05 Y21.07
X65.328 Y20.394
X65.347 Y20.344
X65.598 Y19.664
X65.616 Y19.613
X65.84 Y18.932
X65.856 Y18.88
X66.053 Y18.201
X66.067 Y18.147
X66.236 Y17.472
X66.248 Y17.417
X66.388 Y16.75
X66.399 Y16.694
X66.511 Y16.04
X66.52 Y15.982
X66.603 Y15.346
X66.609 Y15.286
X66.664 Y14.675
X66.667 Y14.627
X66.684 Y14.332
X66.686 Y14.298
X66.695 Y14.012
X66.696 Y13.976
X66.699 Y13.699
Y13.662
X66.695 Y13.395
X66.694 Y13.355
X66.683 Y13.097
X66.681 Y13.056
X66.664 Y12.809
X66.66 Y12.766
X66.637 Y12.529
X66.632 Y12.483
X66.603 Y12.257
X66.596 Y12.208
X66.561 Y11.992
X66.552 Y11.944
X66.512 Y11.738
X66.501 Y11.688
X66.456 Y11.492
X66.443 Y11.442
X66.393 Y11.255
X66.372 Y11.185
X66.26 Y10.834
X66.231 Y10.754
X66.105 Y10.427
X66.078 Y10.36
X65.802 Y9.734
X65.8 Y9.729
X65.664 Y9.423
X65.538 Y9.122
X65.418 Y8.807
X65.302 Y8.467
X65.19 Y8.093
X65.081 Y7.681
X64.977 Y7.231
X64.904 Y6.87
Y5.791
X65.325 Y5.521
X66.087
G2 X67.148 Y5.082 I0. J-1.5
G1 X67.739 Y4.49
G2 X68.179 Y3.429 I-1.061 J-1.061
G1 Y1.652
G2 X67.739 Y0.591 I-1.5 J0.
G1 X67.122 Y-0.026
G2 X66.061 Y-0.466 I-1.061 J1.061
G1 X37.323
G2 X36.262 Y-0.026 I0. J1.5
G1 X35.645 Y0.591
G2 X35.206 Y1.652 I1.061 J1.061
G1 Y3.429
G2 X35.645 Y4.49 I1.5 J0.
G1 X36.237 Y5.082
G2 X37.297 Y5.521 I1.061 J-1.061
G1 X38.059
X38.48 Y5.791
Y6.87
X38.407 Y7.231
X38.303 Y7.681
X38.194 Y8.093
X38.082 Y8.467
X37.966 Y8.807
X37.846 Y9.122
X37.721 Y9.423
X37.584 Y9.729
X37.582 Y9.734
X37.306 Y10.36
X37.279 Y10.427
X37.153 Y10.754
X37.125 Y10.834
X37.012 Y11.185
X36.991 Y11.255
X36.941 Y11.442
X36.929 Y11.492
X36.883 Y11.688
X36.873 Y11.738
X36.832 Y11.944
X36.824 Y11.992
X36.789 Y12.208
X36.782 Y12.257
X36.752 Y12.483
X36.747 Y12.529
X36.724 Y12.766
X36.72 Y12.809
X36.703 Y13.056
X36.701 Y13.097
X36.69 Y13.355
X36.689 Y13.395
X36.685 Y13.662
Y13.699
X36.688 Y13.976
X36.689 Y14.012
X36.699 Y14.298
X36.7 Y14.332
X36.717 Y14.627
X36.72 Y14.675
X36.775 Y15.286
X36.782 Y15.346
X36.865 Y15.982
X36.873 Y16.04
X36.985 Y16.694
X36.996 Y16.75
X37.136 Y17.417
X37.149 Y17.472
X37.317 Y18.147
X37.332 Y18.201
X37.528 Y18.88
X37.544 Y18.932
X37.768 Y19.613
X37.786 Y19.664
X38.037 Y20.344
X38.056 Y20.394
X38.334 Y21.07
X38.355 Y21.119
X38.659 Y21.791
X38.681 Y21.838
X39.011 Y22.505
X39.034 Y22.55
X39.389 Y23.213
X39.413 Y23.256
X39.793 Y23.913
X39.818 Y23.954
X40.079 Y24.374
X40.101 Y24.483
X39.326 Y24.87
G2 X38.573 Y25.741 I0.671 J1.342
X38.659 Y26.889 I1.424 J0.471
G1 X38.935 Y27.434
X39.201 Y27.979
X39.463 Y28.536
X39.72 Y29.102
X39.972 Y29.68
X40.219 Y30.269
X40.462 Y30.868
X40.699 Y31.479
X40.931 Y32.102
X41.158 Y32.736
X41.379 Y33.383
X41.595 Y34.042
X41.805 Y34.714
X42.01 Y35.398
X42.209 Y36.096
X42.402 Y36.808
X42.589 Y37.532
X42.772 Y38.269
X42.948 Y39.019
X43.12 Y39.782
X43.286 Y40.557
X43.447 Y41.344
X43.603 Y42.142
X43.755 Y42.952
X43.902 Y43.772
X44.044 Y44.603
X44.182 Y45.444
X44.315 Y46.294
X44.444 Y47.155
X44.569 Y48.023
X44.685 Y48.885
X42.42 Y50.433
X40.297
G2 X39.114 Y51.011 I0. J1.5
G1 X39.063 Y51.076
X39.016 Y51.132
X38.952 Y51.204
X38.87 Y51.293
X38.654 Y51.52
X38.624 Y51.552
X38.387 Y51.816
X38.322 Y51.895
X38.209 Y52.04
X38.14 Y52.135
X38.038 Y52.289
X37.996 Y52.356
X37.958 Y52.426
X37.873 Y52.59
X37.83 Y52.679
X37.793 Y52.771
X37.73 Y52.946
X37.695 Y53.056
X37.669 Y53.168
X37.633 Y53.353
X37.614 Y53.475
X37.605 Y53.598
X37.599 Y53.793
X37.601 Y53.912
X37.611 Y54.03
X37.638 Y54.235
X37.655 Y54.339
X37.68 Y54.442
X37.739 Y54.655
X37.764 Y54.738
X37.795 Y54.82
X37.884 Y55.04
X37.944 Y55.168
X38.061 Y55.393
X38.115 Y55.489
X38.256 Y55.717
X38.302 Y55.788
X38.462 Y56.016
X38.515 Y56.087
X38.87 Y56.536
X38.915 Y56.59
X39.285 Y57.016
X39.303 Y57.036
X39.484 Y57.236
X39.489 Y57.243
X39.663 Y57.433
X39.665 Y57.435
X39.829 Y57.614
X39.982 Y57.781
X40.121 Y57.933
X40.246 Y58.073
X40.359 Y58.199
X40.462 Y58.317
G2 X41.59 Y58.828 I1.128 J-0.989
G1 X42.9
X43.794 Y59.524
X42.168 Y61.964
G2 X42.013 Y62.265 I1.248 J0.832
G1 X41.62 Y63.304
X41.201 Y64.334
X40.762 Y65.387
X40.754 Y65.406
X40.538 Y65.943
X40.524 Y65.98
X40.321 Y66.527
X40.301 Y66.586
X40.118 Y67.146
X40.095 Y67.225
X39.942 Y67.801
X39.925 Y67.871
X39.862 Y68.165
X39.852 Y68.217
X39.799 Y68.515
X39.791 Y68.569
X39.748 Y68.87
X39.742 Y68.926
X39.71 Y69.229
X39.706 Y69.287
X39.686 Y69.591
X39.684 Y69.649
X39.676 Y69.953
Y70.012
X39.68 Y70.315
X39.682 Y70.374
X39.698 Y70.674
X39.703 Y70.734
X39.73 Y71.029
X39.738 Y71.093
X39.777 Y71.382
X39.788 Y71.447
X39.839 Y71.727
X39.854 Y71.797
X39.916 Y72.068
X39.936 Y72.143
X40.011 Y72.403
X40.036 Y72.483
X40.123 Y72.731
X40.156 Y72.818
X40.255 Y73.053
X40.298 Y73.145
X40.41 Y73.368
X40.463 Y73.465
X40.589 Y73.675
X40.652 Y73.773
X40.793 Y73.971
X40.865 Y74.065
X41.021 Y74.251
X41.1 Y74.339
X41.273 Y74.515
X41.356 Y74.593
X41.545 Y74.76
X41.627 Y74.826
X41.834 Y74.984
X41.911 Y75.038
X42.137 Y75.188
X42.208 Y75.233
X42.453 Y75.377
X42.515 Y75.411
X42.779 Y75.55
X42.833 Y75.577
X43.115 Y75.711
X43.162 Y75.732
X43.462 Y75.862
X43.502 Y75.879
X43.818 Y76.005
X43.852 Y76.018
X44.183 Y76.141
X44.214 Y76.152
X44.558 Y76.272
X44.596 Y76.284
X45.315 Y76.513
X45.358 Y76.526
X46.104 Y76.739
X46.142 Y76.749
X46.895 Y76.942
X46.933 Y76.951
X47.675 Y77.121
X47.705 Y77.128
X48.066 Y77.203
X48.087 Y77.207
X48.44 Y77.275
X48.464 Y77.279
X48.526 Y77.29
Y77.868
X46.692
G2 X45.192 Y79.368 I0. J1.5
G1 Y82.701
G2 X46.692 Y84.201 I1.5 J0.
G1 X48.526
Y86.035
G2 X50.026 Y87.535 I1.5 J0.
G1 X53.359
G2 X54.859 Y86.035 I0. J-1.5
G1 Y84.201
X56.692
G2 X58.192 Y82.701 I0. J-1.5
G1 Y79.368
G2 X56.692 Y77.868 I-1.5 J0.
G1 X54.859
Y77.29
X54.921 Y77.279
X54.944 Y77.275
X55.297 Y77.207
X55.318 Y77.203
X55.68 Y77.128
X55.71 Y77.121
X56.451 Y76.951
X56.489 Y76.942
X57.242 Y76.749
X57.28 Y76.739
X58.026 Y76.526
X58.069 Y76.513
X58.789 Y76.284
X58.827 Y76.272
X59.171 Y76.152
X59.201 Y76.141
X59.532 Y76.018
X59.566 Y76.005
X59.883 Y75.879
X59.922 Y75.862
X60.222 Y75.732
X60.269 Y75.711
X60.551 Y75.577
X60.605 Y75.55
X60.869 Y75.411
X60.931 Y75.376
X61.177 Y75.232
X61.246 Y75.189
X61.473 Y75.039
X61.55 Y74.984
X61.757 Y74.826
X61.84 Y74.759
X62.029 Y74.593
X62.111 Y74.515
X62.283 Y74.339
X62.363 Y74.251
X62.519 Y74.065
X62.592 Y73.971
X62.732 Y73.773
X62.796 Y73.675
X62.921 Y73.465
X62.974 Y73.368
X63.086 Y73.145
X63.129 Y73.053
X63.228 Y72.818
X63.261 Y72.731
X63.348 Y72.483
X63.373 Y72.403
X63.448 Y72.143
X63.468 Y72.068
X63.531 Y71.797
X63.545 Y71.727
X63.596 Y71.447
X63.607 Y71.381
X63.646 Y71.093
X63.654 Y71.029
X63.682 Y70.734
X63.686 Y70.674
X63.702 Y70.374
X63.704 Y70.315
X63.709 Y70.012
X63.708 Y69.953
X63.701 Y69.648
X63.698 Y69.591
X63.679 Y69.287
X63.674 Y69.229
X63.643 Y68.926
X63.636 Y68.87
X63.594 Y68.569
X63.585 Y68.515
X63.532 Y68.217
X63.522 Y68.165
X63.459 Y67.871
X63.442 Y67.801
X63.289 Y67.225
X63.266 Y67.146
X63.084 Y66.586
X63.063 Y66.527
X62.86 Y65.98
X62.846 Y65.943
X62.63 Y65.406
X62.623 Y65.387
X62.183 Y64.334
X61.765 Y63.304
X61.371 Y62.265
G2 X61.217 Y61.964 I-1.403 J0.531
G1 X59.59 Y59.524
X60.484 Y58.828
X61.794
G3 X62.094 Y59.128 I0. J0.3
G1 Y59.428
Y59.495 Z0.258
Y59.558 Z0.28
Y59.615 Z0.315
Y59.663 Z0.363
Y59.698 Z0.42
Y59.721 Z0.483
Y59.728 Z0.55
G0 Z31.244

(Parallel4)
G64
X67.686 Y0.244
Z31.244
Z8.314
G1 Z0.55 F200
X67.678 Z0.483 F600
X67.656 Z0.42
X67.62 Z0.363
X67.573 Z0.316
X67.516 Z0.28
X67.452 Z0.258
X67.386 Z0.25
X67.371 Z0.778
X67.309 Z1.551
X67.208 Z2.308
X67.067 Z3.062
X66.889 Z3.802
X66.671 Z4.536
X66.415 Z5.258
X66.126 Z5.958
X65.8 Z6.644
X65.44 Z7.313
X65.044 Z7.964
X64.614 Z8.597
X64.149 Z9.211
X63.652 Z9.802
X63.123 Z10.369
X62.563 Z10.911
X61.971 Z11.428
X61.348 Z11.918
X60.696 Z12.378
X60.016 Z12.807
X59.311 Z13.204
X58.585 Z13.565
X57.832 Z13.891
X57.064 Z14.177
X56.328 Z14.408
X55.582 Z14.6
X54.828 Z14.754
X54.064 Z14.87
X53.292 Z14.946
X52.549 Z14.982
X50.721 Z14.978
X49.95 Z14.935
X49.176 Z14.851
X48.416 Z14.729
X47.662 Z14.567
X46.914 Z14.366
X46.181 Z14.128
X45.447 Z13.847
X44.725 Z13.53
X44.001 Z13.165
X43.305 Z12.769
X42.637 Z12.343
X41.993 Z11.884
X41.377 Z11.396
X40.788 Z10.879
X40.238 Z10.344
X39.722 Z9.79
X39.229 Z9.203
X38.759 Z8.582
X38.325 Z7.941
X37.924 Z7.277
X37.558 Z6.594
X37.231 Z5.897
X36.94 Z5.182
X36.688 Z4.459
X36.475 Z3.724
X36.3 Z2.982
X36.166 Z2.245
X36.069 Z1.485
X36.013 Z0.775
X35.999 Z0.25
X35.65 Y0.592
X35.567 Y0.683
X35.491 Y0.78
X35.424 Y0.883
X35.364 Y0.994
X35.377 Z0.745
X35.431 Z1.467
X35.527 Z2.239
X35.661 Z2.994
X35.835 Z3.745
X36.047 Z4.488
X36.297 Z5.218
X36.583 Z5.932
X36.907 Z6.633
X37.267 Z7.317
X37.66 Z7.979
X38.088 Z8.621
X38.547 Z9.24
X39.039 Z9.835
X39.561 Z10.405
X40.11 Z10.945
X40.687 Z11.458
X41.29 Z11.94
X41.917 Z12.391
X42.567 Z12.808
X43.235 Z13.191
X43.926 Z13.541
X44.63 Z13.853
X45.35 Z14.128
X46.083 Z14.366
X46.83 Z14.567
X47.589 Z14.729
X48.35 Z14.852
X49.125 Z14.935
X49.894 Z14.978
X53.391 Z14.982
X54.133 Z14.945
X54.891 Z14.87
X55.659 Z14.754
X56.409 Z14.601
X57.161 Z14.407
X57.891 Z14.178
X58.617 Z13.908
X59.326 Z13.603
X60.017 Z13.262
X60.691 Z12.884
X61.342 Z12.474
X61.974 Z12.03
X62.582 Z11.554
X63.164 Z11.048
X63.719 Z10.512
X64.246 Z9.948
X64.744 Z9.357
X65.209 Z8.744
X65.643 Z8.106
X66.044 Z7.446
X66.41 Z6.767
X66.742 Z6.067
X67.036 Z5.354
X67.292 Z4.63
X67.512 Z3.885
X67.692 Z3.139
X67.835 Z2.38
X67.938 Z1.608
X67.999 Z0.872
X68.02 Z0.25
X68.087 Z0.258
X68.15 Z0.28
X68.207 Z0.315
X68.255 Z0.363
X68.29 Z0.42
X68.313 Z0.483
X68.32 Z0.55
G0 Z21.244
X32.049 Y0.244
Z8.506
G1 Z0.563 F200
X32.041 Z0.496 F600
X32.019 Z0.433
X31.983 Z0.376
X31.936 Z0.328
X31.879 Z0.293
X31.815 Z0.27
X31.749 Z0.263
X31.726 Z1.052
X31.667 Z1.797
X31.562 Z2.584
X31.425 Z3.319
X31.246 Z4.061
X31.028 Z4.796
X30.773 Z5.52
X30.483 Z6.222
X30.158 Z6.909
X29.794 Z7.585
X29.399 Z8.237
X28.965 Z8.876
X28.501 Z9.49
X28.002 Z10.084
X27.467 Z10.657
X26.905 Z11.201
X26.311 Z11.721
X25.683 Z12.214
X25.031 Z12.675
X24.349 Z13.106
X23.645 Z13.502
X22.921 Z13.86
X22.212 Z14.165
X21.486 Z14.435
X20.75 Z14.666
X20.004 Z14.858
X19.25 Z15.012
X18.486 Z15.127
X17.714 Z15.203
X16.971 Z15.239
X14.885 Z15.235
X14.123 Z15.192
X13.353 Z15.109
X12.59 Z14.986
X11.838 Z14.825
X11.089 Z14.624
X10.355 Z14.386
X9.636 Z14.11
X8.928 Z13.797
X8.238 Z13.448
X7.561 Z13.062
X6.886 Z12.63
X6.242 Z12.171
X5.622 Z11.678
X5.034 Z11.16
X4.473 Z10.613
X3.947 Z10.044
X3.451 Z9.449
X2.986 Z8.83
X2.555 Z8.19
X2.159 Z7.531
X1.797 Z6.851
X1.47 Z6.152
X1.182 Z5.444
X0.931 Z4.72
X0.717 Z3.985
X0.543 Z3.243
X0.409 Z2.506
X0.312 Z1.747
X0.256 Z1.037
X0.235 Z0.265
X0.063 Y0.415 Z0.263
X-0.107 Y0.588 Z0.261
X-0.255 Y0.778 Z0.258
X-0.317 Y0.883 Z0.257
X-0.372 Y0.994 Z0.256
X-0.353 Z0.987
X-0.297 Z1.736
X-0.203 Z2.489
X-0.069 Z3.246
X0.105 Z3.996
X0.317 Z4.74
X0.567 Z5.47
X0.855 Z6.189
X1.179 Z6.889
X1.537 Z7.57
X1.932 Z8.235
X2.359 Z8.877
X2.819 Z9.496
X3.31 Z10.091
X3.833 Z10.661
X4.382 Z11.202
X4.96 Z11.715
X5.562 Z12.196
X6.189 Z12.647
X6.838 Z13.064
X7.509 Z13.449
X8.197 Z13.796
X8.904 Z14.11
X9.624 Z14.385
X10.358 Z14.624
X11.106 Z14.825
X11.858 Z14.986
X12.621 Z15.109
X13.392 Z15.192
X14.156 Z15.235
X17.713 Z15.239
X18.455 Z15.203
X19.213 Z15.128
X19.982 Z15.012
X20.738 Z14.858
X21.483 Z14.665
X22.218 Z14.435
X22.944 Z14.165
X23.652 Z13.86
X24.343 Z13.519
X25.018 Z13.141
X25.669 Z12.731
X26.3 Z12.287
X26.908 Z11.811
X27.49 Z11.305
X28.047 Z10.768
X28.574 Z10.203
X29.071 Z9.615
X29.537 Z8.999
X29.971 Z8.361
X30.372 Z7.701
X30.74 Z7.019
X31.07 Z6.323
X31.364 Z5.609
X31.621 Z4.881
X31.841 Z4.141
X32.022 Z3.388
X32.164 Z2.629
X32.267 Z1.867
X32.33 Z1.097
X32.355 Z0.265
X32.422 Y1.175 Z0.266
X32.464 Y1.361 Z0.268
X32.482 Y1.551 Z0.269
X32.483 Y1.744 Z0.27
X32.459 Z1.077
X32.4 Z1.823
X32.296 Z2.608
X32.159 Z3.349
X31.978 Z4.109
X31.76 Z4.849
X31.505 Z5.577
X31.212 Z6.291
X30.884 Z6.988
X30.517 Z7.672
X30.119 Z8.332
X29.686 Z8.972
X29.222 Z9.587
X28.727 Z10.177
X28.201 Z10.743
X27.647 Z11.279
X27.062 Z11.791
X26.458 Z12.266
X25.827 Z12.712
X25.178 Z13.123
X24.5 Z13.504
X23.813 Z13.845
X23.105 Z14.153
X22.384 Z14.423
X21.643 Z14.657
X20.899 Z14.851
X20.147 Z15.006
X19.402 Z15.122
X18.63 Z15.2
X17.859 Z15.239
X14.043 Z15.236
X13.318 Z15.198
X12.531 Z15.114
X11.773 Z14.995
X11.018 Z14.835
X10.263 Z14.634
X9.533 Z14.399
X8.806 Z14.123
X8.104 Z13.814
X7.411 Z13.465
X6.74 Z13.083
X6.091 Z12.668
X5.464 Z12.22
X4.86 Z11.74
X4.279 Z11.226
X3.729 Z10.687
X3.205 Z10.119
X2.713 Z9.525
X2.251 Z8.906
X1.823 Z8.267
X1.426 Z7.602
X1.067 Z6.923
X0.74 Z6.219
X0.451 Z5.506
X0.2 Z4.776
X-0.014 Z4.034
X-0.189 Z3.286
X-0.326 Z2.523
X-0.424 Z1.754
X-0.48 Z1.03
X-0.5 Z0.254
X-0.567 Z0.262
X-0.63 Z0.284
X-0.687 Z0.319
X-0.735 Z0.367
X-0.77 Z0.424
X-0.792 Z0.487
X-0.8 Z0.554
G0 Z21.244
X34.912
Z7.413
G1 Z0.55 F200
X34.92 Z0.483 F600
X34.942 Z0.42
X34.978 Z0.363
X35.025 Z0.315
X35.082 Z0.28
X35.145 Z0.258
X35.212 Z0.25
X35.227 Z0.786
X35.282 Z1.506
X35.38 Z2.276
X35.517 Z3.037
X35.692 Z3.784
X35.906 Z4.526
X36.158 Z5.254
X36.446 Z5.968
X36.77 Z6.664
X37.132 Z7.349
X37.526 Z8.008
X37.957 Z8.653
X38.416 Z9.267
X38.908 Z9.861
X39.431 Z10.429
X39.986 Z10.972
X40.563 Z11.482
X41.167 Z11.963
X41.794 Z12.411
X42.443 Z12.826
X43.114 Z13.208
X43.806 Z13.557
X44.507 Z13.865
X45.235 Z14.142
X45.965 Z14.377
X46.718 Z14.578
X47.473 Z14.737
X48.231 Z14.857
X49.018 Z14.94
X49.743 Z14.978
X53.559 Z14.982
X54.33 Z14.943
X55.102 Z14.864
X55.847 Z14.749
X56.599 Z14.593
X57.343 Z14.399
X58.084 Z14.165
X58.805 Z13.895
X59.513 Z13.587
X60.2 Z13.246
X60.872 Z12.868
X61.526 Z12.454
X62.157 Z12.008
X62.761 Z11.533
X63.341 Z11.025
X63.895 Z10.489
X64.421 Z9.924
X64.92 Z9.329
X65.384 Z8.714
X65.817 Z8.073
X66.215 Z7.414
X66.579 Z6.735
X66.907 Z6.038
X67.2 Z5.325
X67.455 Z4.597
X67.673 Z3.857
X67.854 Z3.098
X67.993 Z2.346
X68.094 Z1.583
X68.156 Z0.807
X68.172 Z0.25
Y2.494
X68.156 Z0.807
X68.094 Z1.583
X67.993 Z2.346
X67.854 Z3.098
X67.673 Z3.857
X67.455 Z4.597
X67.2 Z5.325
X66.907 Z6.038
X66.579 Z6.735
X66.215 Z7.414
X65.817 Z8.073
X65.384 Z8.714
X64.92 Z9.329
X64.421 Z9.924
X63.895 Z10.489
X63.341 Z11.025
X62.761 Z11.533
X62.157 Z12.008
X61.526 Z12.454
X60.872 Z12.868
X60.2 Z13.246
X59.513 Z13.587
X58.805 Z13.895
X58.084 Z14.165
X57.343 Z14.399
X56.599 Z14.593
X55.847 Z14.749
X55.102 Z14.864
X54.33 Z14.943
X53.559 Z14.982
X49.743 Z14.978
X49.018 Z14.94
X48.231 Z14.857
X47.473 Z14.737
X46.718 Z14.578
X45.965 Z14.377
X45.235 Z14.142
X44.507 Z13.865
X43.806 Z13.557
X43.114 Z13.208
X42.443 Z12.826
X41.794 Z12.411
X41.167 Z11.963
X40.563 Z11.482
X39.986 Z10.972
X39.431 Z10.429
X38.908 Z9.861
X38.416 Z9.267
X37.957 Z8.653
X37.526 Z8.008
X37.132 Z7.349
X36.77 Z6.664
X36.446 Z5.968
X36.158 Z5.254
X35.906 Z4.526
X35.692 Z3.784
X35.517 Z3.037
X35.38 Z2.276
X35.282 Z1.506
X35.227 Z0.786
X35.212 Z0.25
X35.166 Z0.257
X35.124 Z0.279
X35.091 Z0.312
X35.069 Z0.354
X35.062 Z0.4
Z0.42
X35.055 Z0.467
X35.033 Z0.509
X35. Z0.542
X34.958 Z0.563
X34.912 Z0.57
X32.783
X32.737 Z0.563
X32.695 Z0.542
X32.662 Z0.509
X32.64 Z0.467
X32.633 Z0.42
X32.626 Z0.374
X32.604 Z0.332
X32.571 Z0.299
X32.529 Z0.278
X32.483 Z0.27
X32.459 Z1.077
X32.4 Z1.823
X32.296 Z2.608
X32.159 Z3.349
X31.978 Z4.109
X31.76 Z4.849
X31.505 Z5.577
X31.212 Z6.291
X30.884 Z6.988
X30.517 Z7.672
X30.119 Z8.332
X29.686 Z8.972
X29.222 Z9.587
X28.727 Z10.177
X28.201 Z10.743
X27.647 Z11.279
X27.062 Z11.791
X26.458 Z12.266
X25.827 Z12.712
X25.178 Z13.123
X24.5 Z13.504
X23.813 Z13.845
X23.105 Z14.153
X22.384 Z14.423
X21.643 Z14.657
X20.899 Z14.851
X20.147 Z15.006
X19.402 Z15.122
X18.63 Z15.2
X17.859 Z15.239
X14.043 Z15.236
X13.318 Z15.198
X12.531 Z15.114
X11.773 Z14.995
X11.018 Z14.835
X10.263 Z14.634
X9.533 Z14.399
X8.806 Z14.123
X8.104 Z13.814
X7.411 Z13.465
X6.74 Z13.083
X6.091 Z12.668
X5.464 Z12.22
X4.86 Z11.74
X4.279 Z11.226
X3.729 Z10.687
X3.205 Z10.119
X2.713 Z9.525
X2.251 Z8.906
X1.823 Z8.267
X1.426 Z7.602
X1.067 Z6.923
X0.74 Z6.219
X0.451 Z5.506
X0.2 Z4.776
X-0.014 Z4.034
X-0.189 Z3.286
X-0.326 Z2.523
X-0.424 Z1.754
X-0.48 Z1.03
X-0.5 Z0.254
Y3.243
X-0.48 Z1.03
X-0.424 Z1.754
X-0.326 Z2.523
X-0.189 Z3.286
X-0.014 Z4.034
X0.2 Z4.776
X0.451 Z5.506
X0.74 Z6.219
X1.067 Z6.923
X1.426 Z7.602
X1.823 Z8.267
X2.251 Z8.906
X2.713 Z9.525
X3.205 Z10.119
X3.729 Z10.687
X4.279 Z11.226
X4.86 Z11.74
X5.464 Z12.22
X6.091 Z12.668
X6.74 Z13.083
X7.411 Z13.465
X8.104 Z13.814
X8.806 Z14.123
X9.533 Z14.399
X10.263 Z14.634
X11.018 Z14.835
X11.773 Z14.995
X12.531 Z15.114
X13.318 Z15.198
X14.043 Z15.236
X17.859 Z15.239
X18.63 Z15.2
X19.402 Z15.122
X20.147 Z15.006
X20.899 Z14.851
X21.643 Z14.657
X22.384 Z14.423
X23.105 Z14.153
X23.813 Z13.845
X24.5 Z13.504
X25.178 Z13.123
X25.827 Z12.712
X26.458 Z12.266
X27.062 Z11.791
X27.647 Z11.279
X28.201 Z10.743
X28.727 Z10.177
X29.222 Z9.587
X29.686 Z8.972
X30.119 Z8.332
X30.517 Z7.672
X30.884 Z6.988
X31.212 Z6.291
X31.505 Z5.577
X31.76 Z4.849
X31.978 Z4.109
X32.159 Z3.349
X32.296 Z2.608
X32.4 Z1.823
X32.459 Z1.077
X32.483 Z0.27
X32.529 Z0.278
X32.571 Z0.299
X32.604 Z0.332
X32.626 Z0.374
X32.633 Z0.42
X32.64 Z0.467
X32.662 Z0.509
X32.695 Z0.542
X32.737 Z0.563
X32.783 Z0.57
X34.912
X34.958 Z0.563
X35. Z0.542
X35.033 Z0.509
X35.055 Z0.467
X35.062 Z0.42
Z0.4
X35.069 Z0.354
X35.091 Z0.312
X35.124 Z0.279
X35.166 Z0.257
X35.212 Z0.25
X35.227 Z0.786
X35.282 Z1.506
X35.38 Z2.276
X35.517 Z3.037
X35.692 Z3.784
X35.906 Z4.526
X36.158 Z5.254
X36.446 Z5.968
X36.77 Z6.664
X37.132 Z7.349
X37.526 Z8.008
X37.957 Z8.653
X38.416 Z9.267
X38.908 Z9.861
X39.431 Z10.429
X39.986 Z10.972
X40.563 Z11.482
X41.167 Z11.963
X41.794 Z12.411
X42.443 Z12.826
X43.114 Z13.208
X43.806 Z13.557
X44.507 Z13.865
X45.235 Z14.142
X45.965 Z14.377
X46.718 Z14.578
X47.473 Z14.737
X48.231 Z14.857
X49.018 Z14.94
X49.743 Z14.978
X53.559 Z14.982
X54.33 Z14.943
X55.102 Z14.864
X55.847 Z14.749
X56.599 Z14.593
X57.343 Z14.399
X58.084 Z14.165
X58.805 Z13.895
X59.513 Z13.587
X60.2 Z13.246
X60.872 Z12.868
X61.526 Z12.454
X62.157 Z12.008
X62.761 Z11.533
X63.341 Z11.025
X63.895 Z10.489
X64.421 Z9.924
X64.92 Z9.329
X65.384 Z8.714
X65.817 Z8.073
X66.215 Z7.414
X66.579 Z6.735
X66.907 Z6.038
X67.2 Z5.325
X67.455 Z4.597
X67.673 Z3.857
X67.854 Z3.098
X67.993 Z2.346
X68.094 Z1.583
X68.156 Z0.807
X68.172 Z0.25
Y3.435
X68.159 Y3.625
X68.123 Y3.811
X68.062 Y3.993
X68.042 Z0.855
X67.98 Z1.609
X67.876 Z2.381
X67.734 Z3.139
X67.554 Z3.886
X67.335 Z4.626
X67.078 Z5.354
X66.783 Z6.068
X66.453 Z6.765
X66.086 Z7.446
X65.685 Z8.106
X65.251 Z8.744
X64.786 Z9.357
X64.288 Z9.948
X63.761 Z10.512
X63.206 Z11.047
X62.624 Z11.554
X62.016 Z12.03
X61.385 Z12.474
X60.733 Z12.884
X60.059 Z13.261
X59.368 Z13.603
X58.659 Z13.908
X57.938 Z14.176
X57.201 Z14.408
X56.455 Z14.6
X55.701 Z14.754
X54.937 Z14.87
X54.165 Z14.946
X53.423 Z14.982
X49.844 Z14.978
X49.074 Z14.934
X48.304 Z14.851
X47.541 Z14.728
X46.789 Z14.567
X46.042 Z14.366
X45.309 Z14.128
X44.589 Z13.853
X43.881 Z13.539
X43.194 Z13.192
X42.526 Z12.809
X41.876 Z12.391
X41.249 Z11.941
X40.646 Z11.459
X40.069 Z10.946
X39.518 Z10.404
X38.998 Z9.836
X38.506 Z9.241
X38.046 Z8.622
X37.619 Z7.98
X37.224 Z7.315
X36.866 Z6.634
X36.542 Z5.933
X36.254 Z5.215
X36.004 Z4.484
X35.794 Z3.747
X35.62 Z2.998
X35.485 Z2.232
X35.39 Z1.475
X35.334 Z0.711
X35.323 Z0.266
X35.431 Y4.209 Z0.262
X35.57 Y4.402 Z0.258
X35.736 Y4.574 Z0.254
X35.905 Y4.743 Z0.25
X35.917 Z0.733
X35.976 Z1.503
X36.073 Z2.26
X36.207 Z2.997
X36.382 Z3.74
X36.595 Z4.477
X36.847 Z5.201
X37.134 Z5.91
X37.461 Z6.609
X37.82 Z7.283
X38.22 Z7.949
X38.65 Z8.59
X39.115 Z9.21
X39.61 Z9.805
X40.14 Z10.378
X40.7 Z10.926
X41.288 Z11.445
X41.906 Z11.937
X42.553 Z12.399
X43.192 Z12.809
X43.86 Z13.191
X44.55 Z13.54
X45.254 Z13.852
X45.974 Z14.128
X46.712 Z14.368
X47.456 Z14.567
X48.209 Z14.728
X48.976 Z14.852
X49.742 Z14.934
X50.513 Z14.978
X52.765 Z14.982
X53.508 Z14.945
X54.266 Z14.87
X55.034 Z14.754
X55.784 Z14.601
X56.535 Z14.407
X57.271 Z14.176
X57.992 Z13.908
X58.701 Z13.603
X59.392 Z13.262
X60.066 Z12.885
X60.753 Z12.452
X61.41 Z11.988
X62.038 Z11.494
X62.632 Z10.975
X63.198 Z10.426
X63.732 Z9.853
X64.231 Z9.258
X64.699 Z8.639
X65.133 Z8.
X65.531 Z7.342
X65.895 Z6.665
X66.22 Z5.977
X66.51 Z5.275
X66.765 Z4.55
X66.983 Z3.814
X67.161 Z3.071
X67.302 Z2.316
X67.403 Z1.556
X67.465 Z0.781
X67.479 Z0.25
X67.359 Y4.864
X67.238 Y4.985
X67.117 Y5.105
X66.989 Y5.215
X66.85 Y5.309
X66.701 Y5.387
X66.54 Y5.449
X66.368 Y5.493
X66.349 Z0.83
X66.287 Z1.575
X66.184 Z2.323
X66.043 Z3.062
X65.863 Z3.796
X65.645 Z4.518
X65.391 Z5.226
X65.099 Z5.921
X64.77 Z6.6
X64.408 Z7.26
X64.01 Z7.901
X63.58 Z8.52
X63.119 Z9.115
X62.626 Z9.686
X62.104 Z10.23
X61.557 Z10.745
X60.98 Z11.232
X60.38 Z11.687
X59.758 Z12.111
X59.114 Z12.501
X58.448 Z12.858
X57.769 Z13.178
X57.069 Z13.463
X56.359 Z13.711
X55.633 Z13.922
X54.908 Z14.092
X54.142 Z14.232
X53.323 Z14.339
X52.485 Z14.402
X51.664 Z14.422
X50.828 Z14.399
X49.986 Z14.33
X49.166 Z14.22
X48.374 Z14.071
X47.608 Z13.883
X46.886 Z13.666
X46.179 Z13.411
X45.484 Z13.119
X44.805 Z12.791
X44.146 Z12.429
X43.504 Z12.031
X42.886 Z11.602
X42.289 Z11.138
X41.72 Z10.647
X41.176 Z10.126
X40.659 Z9.576
X40.173 Z9.001
X39.717 Z8.4
X39.294 Z7.778
X38.902 Z7.132
X38.547 Z6.47
X38.226 Z5.786
X37.942 Z5.091
X37.694 Z4.382
X37.483 Z3.656
X37.311 Z2.924
X37.177 Z2.179
X37.083 Z1.432
X37.028 Z0.709
X37.016 Z0.25
X37.234 Y5.519 Z0.253
X37.465 Y5.521 Z0.255
X37.929 Z0.26
X38.137 Y5.567 Z0.262
X38.487 Y5.79 Z0.267
X38.488 Y6.016 Z0.268
Y6.243 Z0.269
X38.499 Z0.663
X38.558 Z1.346
X38.653 Z2.001
X38.791 Z2.678
X38.964 Z3.329
X39.177 Z3.979
X39.427 Z4.611
X39.711 Z5.226
X40.035 Z5.83
X40.39 Z6.409
X40.776 Z6.964
X41.199 Z7.502
X41.65 Z8.012
X42.131 Z8.495
X42.638 Z8.949
X43.171 Z9.374
X43.728 Z9.765
X44.307 Z10.125
X44.904 Z10.45
X45.519 Z10.739
X46.151 Z10.992
X46.799 Z11.209
X47.451 Z11.386
X47.702 Z11.44
X48.027 Z11.539
X48.712 Z11.72
X49.436 Z11.869
X50.179 Z11.978
X50.91 Z12.042
X51.656 Z12.066
X52.407 Z12.046
X53.176 Z11.981
X53.939 Z11.87
X54.668 Z11.721
X55.302 Z11.554
X55.592 Z11.465
X55.869 Z11.402
X56.519 Z11.229
X57.168 Z11.016
X57.802 Z10.766
X58.417 Z10.481
X59.021 Z10.158
X59.6 Z9.803
X60.156 Z9.416
X60.694 Z8.994
X61.204 Z8.542
X61.687 Z8.061
X62.141 Z7.555
X62.565 Z7.021
X62.957 Z6.465
X63.317 Z5.885
X63.642 Z5.287
X63.931 Z4.672
X64.184 Z4.04
X64.402 Z3.392
X64.581 Z2.729
X64.716 Z2.085
X64.822 Z1.378
X64.88 Z0.737
X64.897 Z0.269
Y6.806 Z0.255
X64.923 Y6.993 Z0.25
X64.908 Z0.686
X64.855 Z1.315
X64.811 Z1.649
X64.748 Z2.054
X64.634 Z2.615
X64.56 Z2.919
X64.43 Z3.39
X64.257 Z3.917
X64.148 Z4.213
X63.96 Z4.676
X63.753 Z5.126
X63.625 Z5.383
X63.364 Z5.865
X63.122 Z6.265
X62.945 Z6.539
X62.665 Z6.939
X62.463 Z7.209
X62.157 Z7.589
X61.856 Z7.932
X61.643 Z8.16
X61.349 Z8.456
X61.135 Z8.659
X60.839 Z8.923
X60.607 Z9.119
X60.314 Z9.352
X60.054 Z9.546
X59.758 Z9.755
X59.466 Z9.949
X59.166 Z10.135
X58.856 Z10.315
X58.543 Z10.486
X58.225 Z10.647
X57.9 Z10.8
X57.57 Z10.944
X57.232 Z11.08
X56.893 Z11.205
X56.554 Z11.32
X56.194 Z11.43
X55.768 Z11.549
X55.389 Z11.642
X55.005 Z11.726
X54.597 Z11.804
X54.174 Z11.872
X53.757 Z11.928
X53.347 Z11.972
X52.543 Z12.031
X51.759 Z12.052
X51.011 Z12.037
X50.621 Z12.017
X49.87 Z11.956
X49.358 Z11.893
X48.939 Z11.83
X48.531 Z11.757
X48.154 Z11.678
X47.634 Z11.554
X47.029 Z11.383
X46.507 Z11.211
X45.996 Z11.018
X45.504 Z10.809
X45.023 Z10.579
X44.549 Z10.328
X44.093 Z10.059
X43.642 Z9.766
X43.204 Z9.453
X42.774 Z9.117
X42.383 Z8.781
X42.021 Z8.442
X41.64 Z8.054
X41.257 Z7.623
X40.959 Z7.257
X40.675 Z6.878
X40.359 Z6.418
X40.05 Z5.915
X39.826 Z5.51
X39.63 Z5.123
X39.395 Z4.608
X39.178 Z4.06
X39.046 Z3.675
X38.917 Z3.263
X38.769 Z2.699
X38.656 Z2.162
X38.6 Z1.83
X38.53 Z1.317
X38.48 Z0.75
X38.465 Z0.434
X38.46 Z0.25
X38.422 Y7.181
X38.38 Y7.369
X38.337 Y7.556
X38.291 Y7.743
X38.295 Z0.456
X38.319 Z0.865
X38.362 Z1.338
X38.424 Z1.803
X38.507 Z2.283
X38.612 Z2.768
X38.736 Z3.245
X38.88 Z3.718
X39.048 Z4.196
X39.237 Z4.671
X39.45 Z5.143
X39.683 Z5.607
X39.938 Z6.064
X40.214 Z6.51
X40.513 Z6.949
X40.831 Z7.376
X41.165 Z7.784
X41.523 Z8.185
X41.901 Z8.571
X42.291 Z8.936
X42.701 Z9.288
X43.124 Z9.619
X43.568 Z9.936
X44.036 Z10.239
X44.519 Z10.523
X45.005 Z10.781
X45.5 Z11.018
X46.012 Z11.236
X46.541 Z11.435
X47.112 Z11.622
X47.709 Z11.791
X48.24 Z11.919
X48.619 Z11.997
X49.039 Z12.073
X49.464 Z12.137
X49.954 Z12.197
X50.8 Z12.264
X51.358 Z12.281
X51.783 Z12.288
X52.511 Z12.268
X53.295 Z12.21
X53.671 Z12.169
X54.11 Z12.11
X54.511 Z12.044
X54.917 Z11.967
X55.314 Z11.88
X55.703 Z11.784
X56.097 Z11.674
X56.505 Z11.549
X56.869 Z11.425
X57.224 Z11.294
X57.569 Z11.155
X57.906 Z11.008
X58.244 Z10.848
X58.576 Z10.68
X58.895 Z10.507
X59.21 Z10.323
X59.543 Z10.116
X59.846 Z9.915
X60.141 Z9.706
X60.43 Z9.49
X60.712 Z9.264
X60.984 Z9.033
X61.252 Z8.792
X61.511 Z8.544
X61.763 Z8.289
X62.007 Z8.025
X62.242 Z7.758
X62.466 Z7.485
X62.682 Z7.208
X62.893 Z6.919
X63.093 Z6.628
X63.281 Z6.335
X63.463 Z6.034
X63.632 Z5.735
X63.791 Z5.433
X63.945 Z5.12
X64.087 Z4.809
X64.218 Z4.5
X64.341 Z4.185
X64.453 Z3.871
X64.554 Z3.56
X64.65 Z3.24
X64.731 Z2.933
X64.807 Z2.618
X64.873 Z2.303
X64.932 Z1.977
X64.983 Z1.648
X65.03 Z1.266
X65.08 Z0.639
X65.092 Z0.25
X65.141 Y7.932
X65.192 Y8.12
X65.248 Y8.307
X65.305 Y8.493
X65.294 Z0.647
X65.241 Z1.308
X65.194 Z1.686
X65.143 Z2.015
X65.087 Z2.327
X65.018 Z2.656
X64.942 Z2.975
X64.854 Z3.305
X64.759 Z3.626
X64.654 Z3.947
X64.539 Z4.27
X64.416 Z4.586
X64.279 Z4.91
X64.133 Z5.229
X63.98 Z5.542
X63.817 Z5.85
X63.642 Z6.161
X63.46 Z6.462
X63.264 Z6.767
X63.061 Z7.062
X62.846 Z7.356
X62.623 Z7.644
X62.394 Z7.921
X62.152 Z8.198
X61.904 Z8.465
X61.648 Z8.725
X61.38 Z8.981
X61.109 Z9.226
X60.818 Z9.472
X60.513 Z9.717
X60.215 Z9.941
X59.91 Z10.157
X59.597 Z10.364
X59.274 Z10.565
X58.954 Z10.752
X58.617 Z10.936
X58.279 Z11.107
X57.928 Z11.273
X57.576 Z11.426
X57.178 Z11.587
X56.806 Z11.725
X56.432 Z11.852
X56.053 Z11.969
X55.658 Z12.079
X55.269 Z12.175
X54.871 Z12.262
X54.465 Z12.34
X54.03 Z12.411
X53.617 Z12.467
X53.212 Z12.51
X52.492 Z12.564
X51.708 Z12.584
X50.86 Z12.563
X50.015 Z12.496
X49.549 Z12.439
X49.094 Z12.37
X48.67 Z12.294
X48.292 Z12.215
X47.748 Z12.085
X47.175 Z11.923
X46.609 Z11.736
X46.05 Z11.526
X45.486 Z11.286
X44.972 Z11.041
X44.468 Z10.773
X43.979 Z10.485
X43.511 Z10.182
X43.053 Z9.855
X42.603 Z9.503
X42.174 Z9.136
X41.766 Z8.754
X41.384 Z8.364
X41.018 Z7.955
X40.673 Z7.533
X40.347 Z7.096
X40.042 Z6.647
X39.759 Z6.189
X39.5 Z5.726
X39.26 Z5.249
X39.045 Z4.771
X38.849 Z4.28
X38.678 Z3.793
X38.531 Z3.31
X38.404 Z2.82
X38.299 Z2.334
X38.216 Z1.86
X38.151 Z1.376
X38.107 Z0.907
X38.081 Z0.437
X38.078 Z0.25
X38.014 Y8.683
X37.947 Y8.871
X37.877 Y9.058
X37.801 Y9.243
X37.804 Z0.42
X37.831 Z0.916
X37.878 Z1.419
X37.942 Z1.9
X38.029 Z2.395
X38.136 Z2.893
X38.267 Z3.395
X38.42 Z3.897
X38.594 Z4.393
X38.793 Z4.891
X39.015 Z5.384
X39.261 Z5.875
X39.533 Z6.361
X39.823 Z6.83
X40.138 Z7.294
X40.471 Z7.74
X40.831 Z8.18
X41.209 Z8.602
X41.606 Z9.009
X42.023 Z9.398
X42.459 Z9.772
X42.915 Z10.129
X43.389 Z10.466
X43.883 Z10.787
X44.39 Z11.085
X44.906 Z11.359
X45.44 Z11.614
X45.989 Z11.847
X46.558 Z12.062
X47.136 Z12.251
X47.72 Z12.416
X48.278 Z12.55
X48.658 Z12.629
X49.081 Z12.705
X49.503 Z12.768
X49.989 Z12.828
X50.821 Z12.895
X51.684 Z12.918
X52.492 Z12.898
X53.268 Z12.84
X53.653 Z12.798
X54.064 Z12.742
X54.482 Z12.674
X54.887 Z12.597
X55.296 Z12.507
X55.709 Z12.404
X56.101 Z12.295
X56.48 Z12.178
X56.863 Z12.048
X57.243 Z11.907
X57.619 Z11.755
X57.986 Z11.595
X58.343 Z11.426
X58.693 Z11.248
X59.037 Z11.061
X59.381 Z10.86
X59.714 Z10.652
X60.037 Z10.438
X60.353 Z10.214
X60.66 Z9.983
X60.962 Z9.742
X61.257 Z9.491
X61.537 Z9.238
X61.814 Z8.974
X62.081 Z8.702
X62.338 Z8.425
X62.584 Z8.144
X62.824 Z7.853
X63.051 Z7.56
X63.272 Z7.257
X63.483 Z6.95
X63.682 Z6.641
X63.874 Z6.322
X64.053 Z6.005
X64.226 Z5.677
X64.383 Z5.357
X64.534 Z5.024
X64.671 Z4.698
X64.8 Z4.366
X64.915 Z4.043
X65.023 Z3.712
X65.121 Z3.38
X65.21 Z3.048
X65.288 Z2.718
X65.357 Z2.388
X65.417 Z2.057
X65.469 Z1.711
X65.517 Z1.329
X65.57 Z0.664
X65.583 Z0.263
X65.662 Y9.432 Z0.26
X65.744 Y9.619 Z0.257
X65.911 Y9.993 Z0.25
X65.899 Z0.681
X65.843 Z1.379
X65.796 Z1.759
X65.742 Z2.11
X65.683 Z2.441
X65.611 Z2.788
X65.53 Z3.132
X65.441 Z3.464
X65.341 Z3.806
X65.229 Z4.149
X65.108 Z4.49
X64.975 Z4.831
X64.835 Z5.164
X64.68 Z5.504
X64.517 Z5.838
X64.344 Z6.165
X64.159 Z6.494
X63.967 Z6.813
X63.761 Z7.133
X63.543 Z7.451
X63.318 Z7.759
X63.084 Z8.062
X62.836 Z8.362
X62.583 Z8.652
X62.318 Z8.938
X62.046 Z9.214
X61.689 Z9.552
X61.466 Z9.751
X61.189 Z9.987
X60.884 Z10.231
X60.567 Z10.47
X60.241 Z10.7
X59.912 Z10.919
X59.579 Z11.126
X59.236 Z11.327
X58.88 Z11.521
X58.524 Z11.702
X58.16 Z11.874
X57.786 Z12.038
X57.317 Z12.225
X57.015 Z12.334
X56.675 Z12.449
X56.296 Z12.565
X55.891 Z12.678
X55.477 Z12.781
X55.067 Z12.871
X54.648 Z12.952
X54.214 Z13.023
X53.802 Z13.079
X53.35 Z13.126
X52.585 Z13.182
X51.663 Z13.204
X50.744 Z13.18
X49.822 Z13.107
X49.315 Z13.044
X48.92 Z12.983
X48.512 Z12.91
X48.116 Z12.828
X47.532 Z12.689
X46.935 Z12.52
X46.344 Z12.326
X45.768 Z12.107
X45.244 Z11.883
X44.73 Z11.638
X44.2 Z11.356
X43.687 Z11.055
X43.187 Z10.73
X42.703 Z10.385
X42.237 Z10.021
X41.793 Z9.641
X41.343 Z9.217
X40.963 Z8.828
X40.582 Z8.402
X40.214 Z7.953
X39.87 Z7.492
X39.547 Z7.017
X39.247 Z6.531
X38.971 Z6.038
X38.719 Z5.535
X38.493 Z5.035
X38.288 Z4.522
X38.108 Z4.008
X37.951 Z3.495
X37.815 Z2.97
X37.704 Z2.456
X37.615 Z1.944
X37.548 Z1.433
X37.501 Z0.927
X37.477 Z0.518
X37.471 Z0.25
X37.39 Y10.178
X37.309 Y10.365 Z0.251
X37.234 Y10.553
X37.163 Y10.743
X37.168 Z0.491
X37.195 Z0.957
X37.244 Z1.49
X37.312 Z1.995
X37.404 Z2.522
X37.515 Z3.032
X37.654 Z3.569
X37.813 Z4.09
X37.997 Z4.612
X38.205 Z5.134
X38.437 Z5.649
X38.696 Z6.164
X38.975 Z6.663
X39.279 Z7.154
X39.609 Z7.64
X39.957 Z8.106
X40.325 Z8.556
X40.692 Z8.968
X41.1 Z9.387
X41.526 Z9.789
X42.002 Z10.198
X42.464 Z10.56
X42.949 Z10.905
X43.449 Z11.23
X43.968 Z11.535
X44.498 Z11.817
X45.041 Z12.075
X45.599 Z12.313
X46.137 Z12.515
X46.648 Z12.684
X47.242 Z12.854
X47.82 Z12.992
X48.229 Z13.077
X48.672 Z13.156
X49.135 Z13.225
X49.647 Z13.288
X50.59 Z13.361
X51.298 Z13.382
X51.839 Z13.388
X52.788 Z13.361
X53.645 Z13.297
X54.037 Z13.253
X54.465 Z13.194
X54.918 Z13.12
X55.355 Z13.037
X55.779 Z12.944
X56.215 Z12.835
X56.779 Z12.671
X57.262 Z12.51
X57.645 Z12.367
X58.021 Z12.215
X58.393 Z12.052
X58.758 Z11.88
X59.114 Z11.699
X59.463 Z11.509
X59.813 Z11.304
X60.152 Z11.093
X60.481 Z10.874
X60.801 Z10.648
X61.089 Z10.431
X61.322 Z10.247
X61.69 Z9.938
X62.129 Z9.539
X62.49 Z9.18
X62.831 Z8.817
X63.092 Z8.517
X63.34 Z8.217
X63.578 Z7.909
X63.807 Z7.596
X64.028 Z7.273
X64.238 Z6.947
X64.433 Z6.622
X64.622 Z6.288
X64.798 Z5.953
X64.968 Z5.606
X65.122 Z5.266
X65.266 Z4.925
X65.401 Z4.576
X65.523 Z4.234
X65.637 Z3.882
X65.738 Z3.539
X65.833 Z3.183
X65.911 Z2.851
X65.98 Z2.521
X66.035 Z2.219
X66.1 Z1.801
X66.15 Z1.4
X66.205 Z0.707
X66.22 Z0.25
X66.284 Y10.928
X66.344 Y11.115
X66.4 Y11.303
X66.448 Y11.493
X66.434 Z0.708
X66.378 Z1.412
X66.327 Z1.819
X66.274 Z2.17
X66.212 Z2.519
X66.14 Z2.867
X66.055 Z3.225
X65.961 Z3.582
X65.857 Z3.935
X65.743 Z4.286
X65.618 Z4.636
X65.483 Z4.986
X65.336 Z5.334
X65.178 Z5.682
X65.011 Z6.023
X64.832 Z6.363
X64.643 Z6.699
X64.441 Z7.034
X64.231 Z7.36
X64.01 Z7.683
X63.778 Z8.002
X63.536 Z8.314
X63.289 Z8.615
X63.027 Z8.914
X62.759 Z9.203
X62.478 Z9.488
X62.194 Z9.761
X61.896 Z10.03
X61.592 Z10.289
X61.282 Z10.537
X60.965 Z10.776
X60.64 Z11.006
X60.306 Z11.229
X59.964 Z11.442
X59.529 Z11.693
X59.042 Z11.951
X58.604 Z12.159
X58.238 Z12.319
X57.871 Z12.468
X57.493 Z12.609
X57.11 Z12.739
X56.721 Z12.859
X56.223 Z12.994
X55.861 Z13.08
X55.523 Z13.152
X55.145 Z13.223
X54.772 Z13.284
X54.315 Z13.345
X53.906 Z13.388
X53.064 Z13.45
X52.076 Z13.478
X51.291 Z13.477
X50.334 Z13.45
X49.344 Z13.376
X48.782 Z13.309
X48.364 Z13.245
X47.974 Z13.174
X47.591 Z13.095
X47.048 Z12.965
X46.482 Z12.804
X45.94 Z12.626
X45.383 Z12.417
X44.833 Z12.183
X44.273 Z11.914
X43.763 Z11.641
X43.283 Z11.358
X42.798 Z11.043
X42.309 Z10.694
X41.837 Z10.326
X41.386 Z9.94
X40.948 Z9.53
X40.533 Z9.106
X40.139 Z8.666
X39.76 Z8.202
X39.408 Z7.731
X39.078 Z7.246
X38.771 Z6.749
X38.485 Z6.238
X38.229 Z5.729
X37.991 Z5.201
X37.782 Z4.679
X37.596 Z4.149
X37.433 Z3.618
X37.294 Z3.082
X37.18 Z2.556
X37.088 Z2.032
X37.017 Z1.502
X36.967 Z0.969
X36.941 Z0.509
X36.935 Z0.25
X36.913 Y11.586 Z0.253
X36.891 Y11.679 Z0.256
X36.87 Y11.772 Z0.259
X36.852 Y11.866 Z0.262
X36.835 Y11.96 Z0.265
X36.818 Y12.054 Z0.268
X36.803 Y12.148 Z0.271
X36.789 Y12.243 Z0.274
X36.794 Z0.525
X36.821 Z0.985
X36.871 Z1.516
X36.941 Z2.045
X37.033 Z2.571
X37.15 Z3.11
X37.29 Z3.646
X37.455 Z4.189
X37.642 Z4.719
X37.853 Z5.248
X38.092 Z5.778
X38.354 Z6.299
X38.64 Z6.811
X38.941 Z7.297
X39.255 Z7.759
X39.608 Z8.235
X39.985 Z8.699
X40.38 Z9.144
X40.796 Z9.572
X41.261 Z10.009
X41.713 Z10.396
X42.185 Z10.765
X42.671 Z11.111
X43.167 Z11.433
X43.678 Z11.733
X44.197 Z12.009
X44.728 Z12.262
X45.253 Z12.485
X45.76 Z12.677
X46.338 Z12.869
X46.888 Z13.024
X47.507 Z13.172
X48.004 Z13.268
X48.522 Z13.35
X48.965 Z13.405
X49.81 Z13.474
X50.739 Z13.502
X52.435 Z13.505
X53.433 Z13.481
X54.319 Z13.416
X54.844 Z13.353
X55.364 Z13.271
X55.768 Z13.194
X56.15 Z13.11
X56.527 Z13.016
X56.953 Z12.897
X57.502 Z12.72
X57.981 Z12.545
X58.346 Z12.398
X58.704 Z12.241
X59.061 Z12.072
X59.411 Z11.894
X59.76 Z11.703
X60.098 Z11.506
X60.436 Z11.295
X60.765 Z11.076
X61.09 Z10.846
X61.407 Z10.607
X61.717 Z10.358
X62.012 Z10.108
X62.275 Z9.871
X62.697 Z9.465
X63.065 Z9.079
X63.387 Z8.715
X63.772 Z8.243
X64.075 Z7.837
X64.359 Z7.426
X64.57 Z7.097
X64.773 Z6.761
X64.965 Z6.42
X65.144 Z6.079
X65.314 Z5.732
X65.472 Z5.384
X65.622 Z5.028
X65.758 Z4.679
X65.885 Z4.32
X66. Z3.967
X66.104 Z3.613
X66.198 Z3.258
X66.282 Z2.899
X66.351 Z2.568
X66.409 Z2.248
X66.475 Z1.826
X66.523 Z1.43
X66.579 Z0.732
X66.594 Z0.25
X66.619 Y12.43
X66.64 Y12.617
X66.657 Y12.805
X66.67 Y12.993 Z0.251
X66.656 Z0.732
X66.6 Z1.431
X66.55 Z1.838
X66.493 Z2.209
X66.431 Z2.557
X66.359 Z2.904
X66.275 Z3.263
X66.177 Z3.631
X66.073 Z3.985
X65.956 Z4.346
X65.832 Z4.696
X65.693 Z5.054
X65.546 Z5.403
X65.385 Z5.758
X65.215 Z6.105
X65.035 Z6.446
X64.843 Z6.787
X64.641 Z7.123
X64.428 Z7.455
X64.204 Z7.782
X63.971 Z8.101
X63.729 Z8.414
X63.475 Z8.723
X63.213 Z9.023
X62.941 Z9.316
X62.661 Z9.601
X62.372 Z9.877
X62.079 Z10.143
X61.775 Z10.401
X61.46 Z10.653
X61.142 Z10.893
X60.822 Z11.12
X60.488 Z11.342
X60.156 Z11.549
X59.812 Z11.75
X59.369 Z11.989
X58.87 Z12.235
X58.349 Z12.463
X57.876 Z12.649
X57.372 Z12.825
X56.985 Z12.945
X56.602 Z13.051
X56.25 Z13.139
X55.882 Z13.22
X55.507 Z13.292
X55.146 Z13.351
X54.754 Z13.404
X54.367 Z13.443
X53.713 Z13.489
X52.968 Z13.507
X50.209 Z13.503
X49.517 Z13.482
X48.769 Z13.42
X48.342 Z13.366
X47.999 Z13.312
X47.64 Z13.247
X47.323 Z13.181
X46.805 Z13.058
X46.262 Z12.904
X45.679 Z12.71
X45.145 Z12.507
X44.617 Z12.28
X44.095 Z12.029
X43.578 Z11.753
X43.101 Z11.471
X42.615 Z11.156
X42.129 Z10.81
X41.661 Z10.444
X41.205 Z10.054
X40.767 Z9.643
X40.347 Z9.215
X39.95 Z8.77
X39.57 Z8.307
X39.215 Z7.831
X38.881 Z7.34
X38.57 Z6.837
X38.284 Z6.326
X38.021 Z5.804
X37.783 Z5.276
X37.568 Z4.738
X37.382 Z4.208
X37.216 Z3.665
X37.074 Z3.117
X36.96 Z2.593
X36.865 Z2.047
X36.794 Z1.519
X36.744 Z0.982
X36.718 Z0.527
X36.713 Z0.266
X36.703 Y13.18 Z0.262
X36.695 Y13.367 Z0.258
X36.692 Y13.555 Z0.254
X36.691 Y13.743 Z0.25
X36.697 Z0.544
X36.723 Z0.993
X36.773 Z1.526
X36.844 Z2.056
X36.936 Z2.584
X37.053 Z3.123
X37.195 Z3.672
X37.358 Z4.204
X37.548 Z4.745
X37.762 Z5.282
X38.001 Z5.811
X38.264 Z6.333
X38.553 Z6.85
X38.863 Z7.352
X39.197 Z7.843
X39.553 Z8.319
X39.933 Z8.783
X40.331 Z9.228
X40.75 Z9.656
X41.188 Z10.066
X41.64 Z10.453
X42.113 Z10.822
X42.599 Z11.169
X43.095 Z11.49
X43.605 Z11.79
X44.118 Z12.063
X44.643 Z12.313
X45.176 Z12.54
X45.712 Z12.741
X46.248 Z12.917
X46.788 Z13.069
X47.279 Z13.187
X47.594 Z13.253
X48.175 Z13.354
X48.707 Z13.424
X49.423 Z13.483
X50.053 Z13.503
X53.183 Z13.507
X53.817 Z13.491
X54.428 Z13.447
X54.803 Z13.409
X55.384 Z13.327
X55.901 Z13.231
X56.264 Z13.152
X56.627 Z13.061
X56.989 Z12.961
X57.358 Z12.847
X57.713 Z12.726
X58.076 Z12.591
X58.436 Z12.446
X58.787 Z12.292
X59.137 Z12.127
X59.487 Z11.949
X59.83 Z11.761
X60.174 Z11.561
X60.507 Z11.353
X60.835 Z11.134
X61.16 Z10.904
X61.483 Z10.661
X61.792 Z10.413
X62.096 Z10.154
X62.39 Z9.889
X62.679 Z9.612
X62.959 Z9.327
X63.232 Z9.033
X63.493 Z8.734
X63.748 Z8.425
X63.989 Z8.113
X64.225 Z7.789
X64.446 Z7.466
X64.659 Z7.135
X64.862 Z6.798
X65.054 Z6.457
X65.236 Z6.11
X65.406 Z5.763
X65.564 Z5.415
X65.714 Z5.059
X65.852 Z4.702
X65.977 Z4.351
X66.095 Z3.989
X66.199 Z3.635
X66.296 Z3.267
X66.381 Z2.908
X66.452 Z2.561
X66.515 Z2.212
X66.571 Z1.842
X66.622 Z1.434
X66.677 Z0.734
X66.692 Z0.251
X66.69 Y13.93
X66.685 Y14.118
X66.678 Y14.305
X66.669 Y14.492 Z0.25
X66.656 Z0.705
X66.597 Z1.441
X66.547 Z1.846
X66.493 Z2.197
X66.428 Z2.561
X66.353 Z2.923
X66.271 Z3.269
X66.177 Z3.624
X66.073 Z3.979
X65.956 Z4.34
X65.828 Z4.699
X65.692 Z5.049
X65.543 Z5.405
X65.385 Z5.753
X65.215 Z6.1
X65.032 Z6.448
X64.843 Z6.783
X64.641 Z7.119
X64.428 Z7.451
X64.204 Z7.778
X63.971 Z8.098
X63.726 Z8.414
X63.475 Z8.719
X63.214 Z9.018
X62.941 Z9.312
X62.661 Z9.597
X62.372 Z9.874
X62.079 Z10.139
X61.775 Z10.397
X61.465 Z10.646
X61.148 Z10.885
X60.823 Z11.115
X60.494 Z11.334
X60.155 Z11.545
X59.817 Z11.743
X59.474 Z11.93
X59.124 Z12.108
X58.774 Z12.274
X58.415 Z12.431
X58.062 Z12.574
X57.7 Z12.708
X57.335 Z12.832
X56.978 Z12.943
X56.607 Z13.046
X56.242 Z13.137
X55.872 Z13.218
X55.498 Z13.289
X55.135 Z13.348
X54.746 Z13.401
X54.41 Z13.438
X53.742 Z13.488
X52.897 Z13.507
X50.209 Z13.502
X49.532 Z13.481
X48.825 Z13.423
X48.422 Z13.373
X48.05 Z13.317
X47.668 Z13.249
X47.336 Z13.18
X46.807 Z13.054
X46.268 Z12.901
X45.723 Z12.722
X45.19 Z12.521
X44.657 Z12.295
X44.132 Z12.044
X43.619 Z11.772
X43.11 Z11.473
X42.613 Z11.15
X42.127 Z10.804
X41.659 Z10.439
X41.203 Z10.048
X40.769 Z9.642
X40.35 Z9.214
X39.952 Z8.77
X39.572 Z8.306
X39.217 Z7.83
X38.883 Z7.34
X38.573 Z6.837
X38.287 Z6.326
X38.023 Z5.803
X37.785 Z5.275
X37.57 Z4.737
X37.381 Z4.198
X37.218 Z3.665
X37.076 Z3.117
X36.962 Z2.592
X36.867 Z2.048
X36.796 Z1.52
X36.747 Z0.99
X36.72 Z0.529
X36.714 Z0.25
X36.719 Y14.586 Z0.253
X36.726 Y14.68 Z0.256
X36.742 Y14.868 Z0.261
X36.75 Y14.961 Z0.264
X36.767 Y15.149 Z0.27
X36.775 Y15.242 Z0.272
X36.779 Z0.467
X36.808 Z0.988
X36.858 Z1.524
X36.929 Z2.052
X37.021 Z2.576
X37.138 Z3.116
X37.271 Z3.629
X37.426 Z4.14
X37.612 Z4.677
X37.823 Z5.207
X38.057 Z5.734
X38.318 Z6.257
X38.602 Z6.769
X38.911 Z7.272
X39.241 Z7.76
X39.595 Z8.239
X39.97 Z8.7
X40.366 Z9.144
X40.782 Z9.573
X41.247 Z10.01
X41.699 Z10.397
X42.171 Z10.766
X42.652 Z11.109
X43.148 Z11.431
X43.658 Z11.731
X44.171 Z12.003
X44.697 Z12.254
X45.235 Z12.483
X45.778 Z12.687
X46.322 Z12.865
X46.882 Z13.024
X47.436 Z13.156
X47.955 Z13.259
X48.397 Z13.331
X48.932 Z13.401
X49.874 Z13.474
X50.861 Z13.502
X52.379 Z13.505
X52.712 Z13.497
X53.542 Z13.472
X54.465 Z13.399
X54.987 Z13.331
X55.403 Z13.263
X55.791 Z13.189
X56.173 Z13.105
X56.549 Z13.011
X56.92 Z12.908
X57.288 Z12.794
X57.653 Z12.67
X58.015 Z12.535
X58.375 Z12.39
X58.734 Z12.233
X59.084 Z12.067
X59.434 Z11.889
X59.777 Z11.702
X60.115 Z11.505
X60.453 Z11.294
X60.782 Z11.075
X61.103 Z10.848
X61.42 Z10.609
X61.725 Z10.364
X61.975 Z10.153
X62.193 Z9.96
X62.547 Z9.627
X62.915 Z9.256
X63.314 Z8.816
X63.625 Z8.445
X63.972 Z8.
X64.299 Z7.536
X64.564 Z7.129
X64.876 Z6.607
X65.116 Z6.161
X65.356 Z5.675
X65.585 Z5.152
X65.77 Z4.683
X65.969 Z4.107
X66.117 Z3.617
X66.213 Z3.255
X66.297 Z2.895
X66.369 Z2.547
X66.432 Z2.197
X66.485 Z1.845
X66.536 Z1.439
X66.592 Z0.743
X66.607 Z0.25
X66.585 Y15.43
X66.562 Y15.618
X66.537 Y15.805
X66.511 Y15.992
X66.493 Z0.762
X66.439 Z1.427
X66.384 Z1.865
X66.327 Z2.235
X66.268 Z2.557
X66.199 Z2.889
X66.117 Z3.235
X66.023 Z3.591
X65.919 Z3.945
X65.805 Z4.297
X65.68 Z4.648
X65.545 Z4.997
X65.395 Z5.352
X65.237 Z5.699
X65.07 Z6.04
X64.891 Z6.381
X64.702 Z6.716
X64.5 Z7.053
X64.29 Z7.379
X64.066 Z7.706
X63.837 Z8.02
X63.595 Z8.332
X63.344 Z8.638
X63.083 Z8.937
X62.814 Z9.226
X62.538 Z9.507
X62.25 Z9.783
X61.875 Z10.118
X61.488 Z10.44
X61.003 Z10.809
X60.605 Z11.087
X60.13 Z11.393
X59.718 Z11.635
X59.375 Z11.822
X59.025 Z12.
X58.668 Z12.169
X58.309 Z12.326
X57.949 Z12.472
X57.587 Z12.606
X57.213 Z12.733
X56.835 Z12.85
X56.452 Z12.957
X56.076 Z13.05
X55.667 Z13.14
X55.261 Z13.217
X54.843 Z13.286
X54.316 Z13.354
X53.926 Z13.389
X53.199 Z13.443
X52.581 Z13.464
X51.837 Z13.48
X51.161 Z13.473
X50.271 Z13.447
X49.665 Z13.405
X49.111 Z13.359
X48.567 Z13.289
X48.158 Z13.223
X47.783 Z13.153
X47.48 Z13.088
X46.966 Z12.965
X46.397 Z12.805
X45.845 Z12.623
X45.296 Z12.417
X44.764 Z12.191
X44.233 Z11.938
X43.714 Z11.662
X43.21 Z11.365
X42.683 Z11.021
X42.204 Z10.677
X41.741 Z10.313
X41.318 Z9.951
X40.889 Z9.549
X40.474 Z9.125
X40.08 Z8.685
X39.704 Z8.225
X39.349 Z7.75
X39.019 Z7.264
X38.712 Z6.767
X38.426 Z6.256
X38.166 Z5.74
X37.931 Z5.218
X37.72 Z4.689
X37.533 Z4.158
X37.371 Z3.626
X37.232 Z3.091
X37.115 Z2.549
X37.023 Z2.021
X36.952 Z1.488
X36.905 Z0.988
X36.876 Z0.443
X36.871 Z0.25
X36.902 Y16.18
X36.933 Y16.368
X36.965 Y16.555
X37. Y16.742
X37.007 Z0.517
X37.033 Z0.967
X37.08 Z1.475
X37.151 Z2.009
X37.243 Z2.538
X37.357 Z3.062
X37.493 Z3.587
X37.656 Z4.12
X37.842 Z4.651
X38.051 Z5.172
X38.286 Z5.694
X38.542 Z6.203
X38.825 Z6.709
X39.128 Z7.2
X39.459 Z7.686
X39.811 Z8.156
X40.182 Z8.61
X40.576 Z9.051
X40.987 Z9.47
X41.421 Z9.877
X41.868 Z10.259
X42.325 Z10.616
X42.776 Z10.938
X43.265 Z11.258
X43.799 Z11.574
X44.313 Z11.847
X44.843 Z12.1
X45.381 Z12.329
X45.931 Z12.535
X46.492 Z12.72
X47.069 Z12.883
X47.629 Z13.017
X47.952 Z13.084
X48.348 Z13.157
X48.773 Z13.224
X49.377 Z13.299
X50.402 Z13.377
X51.153 Z13.401
X51.751 Z13.41
X52.258 Z13.4
X52.977 Z13.378
X53.723 Z13.322
X54.15 Z13.283
X54.679 Z13.215
X55.124 Z13.142
X55.546 Z13.062
X55.956 Z12.972
X56.356 Z12.872
X56.738 Z12.766
X57.117 Z12.649
X57.49 Z12.522
X57.862 Z12.384
X58.231 Z12.235
X58.589 Z12.078
X58.939 Z11.913
X59.303 Z11.728
X59.743 Z11.485
X60.199 Z11.208
X60.617 Z10.934
X60.937 Z10.707
X61.254 Z10.468
X61.56 Z10.223
X61.863 Z9.965
X62.157 Z9.699
X62.441 Z9.427
X62.717 Z9.146
X62.982 Z8.861
X63.243 Z8.562
X63.491 Z8.261
X63.732 Z7.95
X63.961 Z7.636
X64.178 Z7.318
X64.387 Z6.992
X64.587 Z6.662
X64.776 Z6.327
X64.951 Z5.992
X65.121 Z5.646
X65.276 Z5.305
X65.423 Z4.956
X65.559 Z4.606
X65.683 Z4.256
X65.794 Z3.913
X65.898 Z3.56
X65.992 Z3.205
X66.077 Z2.846
X66.158 Z2.453
X66.243 Z1.946
X66.309 Z1.432
X66.365 Z0.747
X66.383 Z0.25
X66.345 Y16.93
X66.266 Y17.305
X66.224 Y17.492
X66.209 Z0.699
X66.153 Z1.397
X66.105 Z1.781
X66.036 Z2.227
X65.98 Z2.529
X65.914 Z2.844
X65.836 Z3.177
X65.745 Z3.52
X65.64 Z3.874
X65.529 Z4.216
X65.408 Z4.557
X65.272 Z4.905
X65.129 Z5.246
X64.974 Z5.587
X64.807 Z5.927
X64.631 Z6.261
X64.446 Z6.59
X64.25 Z6.915
X64.044 Z7.236
X63.824 Z7.558
X63.598 Z7.867
X63.36 Z8.174
X63.112 Z8.475
X62.859 Z8.765
X62.595 Z9.05
X62.319 Z9.331
X62.034 Z9.603
X61.745 Z9.864
X61.45 Z10.115
X61.144 Z10.36
X60.827 Z10.598
X60.507 Z10.825
X60.178 Z11.044
X59.848 Z11.25
X59.415 Z11.499
X58.921 Z11.76
X58.493 Z11.963
X58.127 Z12.123
X57.766 Z12.269
X57.395 Z12.407
X57.022 Z12.534
X56.634 Z12.654
X56.241 Z12.763
X55.84 Z12.863
X55.432 Z12.953
X54.995 Z13.037
X54.562 Z13.108
X54.138 Z13.165
X53.674 Z13.213
X52.827 Z13.276
X51.926 Z13.302
X51.386 Z13.3
X50.546 Z13.276
X49.548 Z13.2
X48.998 Z13.133
X48.563 Z13.066
X48.14 Z12.99
X47.757 Z12.911
X47.183 Z12.774
X46.606 Z12.611
X46.037 Z12.424
X45.481 Z12.216
X44.943 Z11.987
X44.412 Z11.733
X43.87 Z11.444
X43.402 Z11.168
X42.923 Z10.857
X42.444 Z10.515
X41.982 Z10.154
X41.535 Z9.771
X41.105 Z9.369
X40.695 Z8.949
X40.309 Z8.518
X39.94 Z8.068
X39.592 Z7.603
X39.266 Z7.123
X38.965 Z6.637
X38.686 Z6.137
X38.43 Z5.628
X38.198 Z5.114
X37.993 Z4.601
X37.807 Z4.071
X37.647 Z3.547
X37.511 Z3.022
X37.4 Z2.512
X37.308 Z1.985
X37.241 Z1.48
X37.193 Z0.984
X37.165 Z0.462
X37.159 Z0.25
X37.204 Y17.68
X37.251 Y17.868
X37.298 Y18.056
X37.349 Y18.242
X37.354 Z0.437
X37.382 Z0.969
X37.43 Z1.466
X37.497 Z1.968
X37.587 Z2.478
X37.698 Z2.99
X37.831 Z3.502
X37.987 Z4.016
X38.171 Z4.538
X38.373 Z5.044
X38.601 Z5.551
X38.854 Z6.053
X39.13 Z6.547
X39.427 Z7.027
X39.75 Z7.502
X40.091 Z7.959
X40.455 Z8.403
X40.84 Z8.834
X41.247 Z9.25
X41.671 Z9.647
X42.113 Z10.025
X42.574 Z10.386
X43.049 Z10.724
X43.539 Z11.042
X44.023 Z11.327
X44.497 Z11.579
X45.05 Z11.845
X45.591 Z12.075
X46.145 Z12.284
X46.715 Z12.471
X47.302 Z12.637
X47.875 Z12.774
X48.269 Z12.855
X48.707 Z12.934
X49.168 Z13.003
X49.671 Z13.065
X50.617 Z13.138
X51.204 Z13.156
X51.79 Z13.166
X52.739 Z13.14
X53.582 Z13.077
X53.983 Z13.033
X54.436 Z12.972
X54.889 Z12.897
X55.307 Z12.817
X55.715 Z12.727
X56.117 Z12.627
X56.521 Z12.515
X56.899 Z12.398
X57.283 Z12.268
X57.654 Z12.13
X58.022 Z11.981
X58.438 Z11.798
X58.946 Z11.55
X59.383 Z11.315
X59.724 Z11.116
X60.057 Z10.908
X60.38 Z10.693
X60.696 Z10.47
X61.009 Z10.234
X61.314 Z9.99
X61.609 Z9.74
X61.898 Z9.478
X62.174 Z9.214
X62.446 Z8.938
X62.711 Z8.653
X62.964 Z8.362
X63.208 Z8.066
X63.442 Z7.764
X63.664 Z7.46
X63.878 Z7.148
X64.084 Z6.828
X64.279 Z6.504
X64.461 Z6.181
X64.637 Z5.847
X64.801 Z5.513
X64.952 Z5.18
X65.096 Z4.839
X65.228 Z4.498
X65.35 Z4.156
X65.458 Z3.824
X65.559 Z3.483
X65.65 Z3.139
X65.731 Z2.795
X65.803 Z2.448
X65.863 Z2.117
X65.916 Z1.766
X65.963 Z1.386
X66.019 Z0.691
X66.034 Z0.25
X65.981 Y18.43
X65.927 Y18.618 Z0.251
X65.872 Y18.805
X65.814 Y18.992
X65.8 Z0.683
X65.747 Z1.346
X65.699 Z1.731
X65.646 Z2.083
X65.586 Z2.413
X65.515 Z2.758
X65.436 Z3.09
X65.348 Z3.421
X65.247 Z3.763
X65.139 Z4.096
X65.018 Z4.436
X64.888 Z4.769
X64.748 Z5.101
X64.6 Z5.428
X64.436 Z5.761
X64.267 Z6.082
X64.085 Z6.405
X63.893 Z6.723
X63.69 Z7.038
X63.48 Z7.345
X63.258 Z7.649
X63.028 Z7.946
X62.788 Z8.237
X62.538 Z8.523
X62.277 Z8.804
X62.009 Z9.076
X61.733 Z9.34
X61.452 Z9.593
X61.158 Z9.844
X60.856 Z10.085
X60.548 Z10.317
X60.233 Z10.539
X59.915 Z10.751
X59.587 Z10.955
X59.249 Z11.153
X58.906 Z11.34
X58.568 Z11.511
X58.119 Z11.72
X57.832 Z11.843
X57.509 Z11.973
X57.155 Z12.104
X56.78 Z12.231
X56.392 Z12.351
X55.998 Z12.46
X55.598 Z12.56
X55.188 Z12.65
X54.751 Z12.734
X54.315 Z12.805
X53.88 Z12.864
X53.437 Z12.912
X52.604 Z12.974
X51.813 Z12.994
X51.365 Z12.989
X50.697 Z12.969
X49.801 Z12.898
X49.263 Z12.832
X48.821 Z12.766
X48.383 Z12.687
X47.999 Z12.608
X47.426 Z12.471
X46.841 Z12.306
X46.273 Z12.119
X45.711 Z11.908
X45.183 Z11.683
X44.669 Z11.438
X44.177 Z11.176
X43.675 Z10.881
X43.191 Z10.567
X42.717 Z10.229
X42.265 Z9.875
X41.827 Z9.501
X41.411 Z9.111
X41.009 Z8.701
X40.628 Z8.274
X40.271 Z7.838
X39.931 Z7.383
X39.615 Z6.918
X39.322 Z6.444
X39.05 Z5.957
X38.8 Z5.46
X38.578 Z4.968
X38.376 Z4.461
X38.199 Z3.957
X38.042 Z3.444
X37.909 Z2.931
X37.802 Z2.433
X37.712 Z1.92
X37.647 Z1.435
X37.6 Z0.932
X37.574 Z0.469
X37.569 Z0.25
X37.629 Y19.18
X37.691 Y19.368
X37.754 Y19.555
X37.819 Y19.742
X37.824 Z0.442
X37.85 Z0.916
X37.894 Z1.387
X37.962 Z1.9
X38.048 Z2.391
X38.156 Z2.888
X38.286 Z3.388
X38.436 Z3.88
X38.61 Z4.376
X38.809 Z4.874
X39.031 Z5.367
X39.274 Z5.85
X39.54 Z6.326
X39.83 Z6.795
X40.138 Z7.248
X40.471 Z7.694
X40.827 Z8.13
X41.201 Z8.548
X41.595 Z8.95
X42.007 Z9.336
X42.435 Z9.702
X42.887 Z10.055
X43.35 Z10.386
X43.829 Z10.696
X44.324 Z10.988
X44.835 Z11.259
X45.329 Z11.495
X45.85 Z11.717
X46.402 Z11.925
X46.959 Z12.108
X47.543 Z12.273
X48.1 Z12.406
X48.493 Z12.488
X48.915 Z12.564
X49.354 Z12.63
X49.881 Z12.695
X50.795 Z12.766
X51.713 Z12.789
X52.562 Z12.767
X53.361 Z12.708
X53.805 Z12.659
X54.214 Z12.604
X54.651 Z12.532
X55.071 Z12.452
X55.467 Z12.365
X55.87 Z12.265
X56.263 Z12.156
X56.642 Z12.039
X56.999 Z11.918
X57.306 Z11.806
X57.61 Z11.686
X58.068 Z11.489
X58.416 Z11.325
X58.76 Z11.15
X59.098 Z10.966
X59.43 Z10.773
X59.757 Z10.569
X60.075 Z10.357
X60.386 Z10.138
X60.688 Z9.91
X60.984 Z9.673
X61.27 Z9.43
X61.551 Z9.177
X61.823 Z8.917
X62.087 Z8.649
X62.344 Z8.373
X62.589 Z8.092
X62.825 Z7.805
X63.052 Z7.513
X63.27 Z7.214
X63.477 Z6.913
X63.676 Z6.603
X63.864 Z6.291
X64.043 Z5.974
X64.213 Z5.652
X64.37 Z5.332
X64.515 Z5.013
X64.655 Z4.681
X64.781 Z4.357
X64.9 Z4.025
X65.008 Z3.693
X65.106 Z3.36
X65.191 Z3.041
X65.266 Z2.723
X65.329 Z2.423
X65.387 Z2.114
X65.444 Z1.749
X65.494 Z1.356
X65.546 Z0.721
X65.564 Z0.25
X65.495 Y19.93 Z0.254
X65.425 Y20.118 Z0.257
X65.354 Y20.305 Z0.261
X65.282 Y20.492 Z0.265
X65.268 Z0.662
X65.218 Z1.29
X65.171 Z1.671
X65.121 Z2.002
X65.061 Z2.333
X64.995 Z2.648
X64.917 Z2.98
X64.832 Z3.298
X64.737 Z3.619
X64.632 Z3.941
X64.517 Z4.264
X64.391 Z4.587
X64.254 Z4.911
X64.112 Z5.223
X63.955 Z5.543
X63.792 Z5.852
X63.617 Z6.162
X63.432 Z6.469
X63.236 Z6.773
X63.033 Z7.069
X62.818 Z7.363
X62.595 Z7.651
X62.366 Z7.928
X62.125 Z8.204
X61.872 Z8.476
X61.612 Z8.74
X61.348 Z8.992
X61.072 Z9.241
X60.791 Z9.48
X60.499 Z9.713
X60.201 Z9.937
X59.891 Z10.157
X59.578 Z10.365
X59.261 Z10.562
X58.928 Z10.756
X58.597 Z10.936
X58.26 Z11.107
X57.916 Z11.27
X57.557 Z11.427
X57.09 Z11.612
X56.756 Z11.732
X56.428 Z11.84
X56.095 Z11.941
X55.731 Z12.042
X55.353 Z12.135
X54.958 Z12.222
X54.553 Z12.3
X54.138 Z12.368
X53.703 Z12.427
X53.304 Z12.47
X52.521 Z12.529
X51.65 Z12.549
X50.791 Z12.525
X49.943 Z12.457
X49.433 Z12.395
X49.013 Z12.331
X48.607 Z12.258
X48.226 Z12.179
X47.668 Z12.046
X47.094 Z11.883
X46.536 Z11.7
X46.011 Z11.502
X45.506 Z11.287
X44.992 Z11.042
X44.488 Z10.774
X43.998 Z10.486
X43.526 Z10.179
X43.067 Z9.852
X42.63 Z9.51
X42.206 Z9.147
X41.799 Z8.766
X41.414 Z8.372
X41.045 Z7.959
X40.7 Z7.537
X40.374 Z7.101
X40.069 Z6.652
X39.786 Z6.194
X39.524 Z5.725
X39.287 Z5.255
X39.068 Z4.769
X38.875 Z4.286
X38.704 Z3.799
X38.554 Z3.306
X38.427 Z2.816
X38.322 Z2.329
X38.239 Z1.854
X38.175 Z1.368
X38.13 Z0.893
X38.104 Z0.403
X38.1 Z0.25
X38.177 Y20.68
X38.255 Y20.868
X38.334 Y21.055
X38.414 Y21.242
X38.417 Z0.421
X38.443 Z0.889
X38.484 Z1.323
X38.549 Z1.814
X38.629 Z2.272
X38.734 Z2.757
X38.858 Z3.234
X39.002 Z3.706
X39.169 Z4.183
X39.359 Z4.657
X39.568 Z5.122
X39.801 Z5.585
X40.059 Z6.048
X40.335 Z6.495
X40.633 Z6.933
X40.952 Z7.36
X41.289 Z7.772
X41.651 Z8.177
X42.028 Z8.563
X42.426 Z8.936
X42.841 Z9.291
X43.273 Z9.629
X43.721 Z9.948
X44.188 Z10.252
X44.666 Z10.532
X45.163 Z10.797
X45.671 Z11.039
X46.19 Z11.26
X46.693 Z11.449
X47.228 Z11.626
X47.796 Z11.787
X48.342 Z11.918
X48.708 Z11.994
X49.115 Z12.067
X49.519 Z12.128
X50.007 Z12.188
X50.828 Z12.253
X51.666 Z12.277
X52.473 Z12.258
X53.242 Z12.201
X53.617 Z12.16
X54.032 Z12.104
X54.432 Z12.039
X54.822 Z11.965
X55.221 Z11.878
X55.6 Z11.784
X55.984 Z11.677
X56.345 Z11.567
X56.68 Z11.454
X57.039 Z11.321
X57.392 Z11.179
X57.744 Z11.025
X58.089 Z10.862
X58.42 Z10.695
X58.751 Z10.514
X59.072 Z10.327
X59.389 Z10.13
X59.696 Z9.926
X59.997 Z9.713
X60.285 Z9.496
X60.572 Z9.267
X60.849 Z9.032
X61.121 Z8.787
X61.38 Z8.539
X61.636 Z8.28
X61.88 Z8.017
X62.119 Z7.744
X62.344 Z7.472
X62.563 Z7.189
X62.771 Z6.905
X62.97 Z6.615
X63.162 Z6.317
X63.34 Z6.021
X63.509 Z5.723
X63.672 Z5.414
X63.823 Z5.108
X63.965 Z4.797
X64.099 Z4.48
X64.219 Z4.173
X64.331 Z3.859
X64.433 Z3.547
X64.528 Z3.227
X64.61 Z2.921
X64.685 Z2.605
X64.751 Z2.292
X64.811 Z1.963
X64.861 Z1.635
X64.905 Z1.28
X64.958 Z0.625
X64.968 Z0.25
X64.883 Y21.43
X64.798 Y21.618
X64.711 Y21.806
X64.622 Y21.992
X64.608 Z0.675
X64.557 Z1.292
X64.487 Z1.813
X64.391 Z2.335
X64.269 Z2.865
X64.127 Z3.375
X64.008 Z3.742
X63.896 Z4.056
X63.776 Z4.363
X63.648 Z4.665
X63.51 Z4.969
X63.362 Z5.269
X63.203 Z5.57
X63.037 Z5.863
X62.863 Z6.152
X62.677 Z6.44
X62.481 Z6.725
X62.277 Z7.004
X62.065 Z7.277
X61.844 Z7.544
X61.614 Z7.807
X61.373 Z8.066
X61.125 Z8.317
X60.87 Z8.561
X60.607 Z8.798
X60.334 Z9.029
X60.057 Z9.251
X59.768 Z9.467
X59.473 Z9.676
X59.175 Z9.873
X58.864 Z10.067
X58.549 Z10.25
X58.229 Z10.424
X57.898 Z10.592
X57.567 Z10.748
X57.222 Z10.898
X56.876 Z11.037
X56.521 Z11.169
X56.164 Z11.29
X55.79 Z11.405
X55.452 Z11.498
X55.085 Z11.588
X54.715 Z11.669
X54.322 Z11.743
X53.918 Z11.809
X53.545 Z11.859
X53.17 Z11.899
X52.447 Z11.953
X51.662 Z11.971
X50.869 Z11.949
X50.08 Z11.887
X49.609 Z11.829
X49.207 Z11.768
X48.803 Z11.695
X48.441 Z11.62
X47.93 Z11.497
X47.382 Z11.34
X46.883 Z11.176
X46.355 Z10.978
X45.843 Z10.76
X45.343 Z10.521
X44.858 Z10.263
X44.387 Z9.986
X43.937 Z9.693
X43.494 Z9.377
X43.071 Z9.047
X42.666 Z8.7
X42.281 Z8.339
X41.912 Z7.961
X41.558 Z7.565
X41.228 Z7.162
X40.917 Z6.745
X40.627 Z6.317
X40.358 Z5.882
X40.11 Z5.438
X39.88 Z4.981
X39.678 Z4.531
X39.494 Z4.072
X39.33 Z3.602
X39.176 Z3.092
X39.057 Z2.622
X38.958 Z2.153
X38.881 Z1.694
X38.822 Z1.23
X38.782 Z0.775
X38.761 Z0.333
X38.76 Z0.25
X38.853 Y22.18
X38.947 Y22.368
X39.042 Y22.556
X39.14 Y22.742
X39.143 Z0.44
X39.167 Z0.843
X39.205 Z1.245
X39.264 Z1.691
X39.344 Z2.155
X39.439 Z2.596
X39.555 Z3.041
X39.692 Z3.493
X39.85 Z3.945
X40.03 Z4.397
X40.229 Z4.84
X40.443 Z5.265
X40.665 Z5.664
X40.923 Z6.087
X41.228 Z6.539
X41.532 Z6.946
X41.854 Z7.34
X42.195 Z7.723
X42.551 Z8.087
X42.933 Z8.444
X43.324 Z8.779
X43.736 Z9.102
X44.164 Z9.407
X44.608 Z9.696
X45.067 Z9.967
X45.54 Z10.218
X46.027 Z10.45
X46.524 Z10.662
X47.042 Z10.857
X47.561 Z11.027
X48.1 Z11.18
X48.593 Z11.298
X48.927 Z11.369
X49.267 Z11.431
X49.666 Z11.492
X50.126 Z11.549
X50.581 Z11.587
X51.007 Z11.616
X51.761 Z11.632
X52.412 Z11.615
X53.118 Z11.562
X53.442 Z11.528
X53.819 Z11.477
X54.208 Z11.415
X54.554 Z11.349
X54.926 Z11.268
X55.292 Z11.178
X55.654 Z11.078
X56.005 Z10.97
X56.363 Z10.849
X56.701 Z10.724
X57.047 Z10.585
X57.377 Z10.441
X57.701 Z10.289
X58.019 Z10.128
X58.333 Z9.957
X58.643 Z9.777
X58.943 Z9.59
X59.241 Z9.393
X59.526 Z9.192
X59.805 Z8.983
X60.078 Z8.765
X60.342 Z8.541
X60.596 Z8.312
X60.847 Z8.073
X61.091 Z7.826
X61.32 Z7.58
X61.547 Z7.321
X61.76 Z7.063
X61.976 Z6.785
X62.221 Z6.448
X62.509 Z6.013
X62.779 Z5.561
X63.013 Z5.127
X63.154 Z4.841
X63.29 Z4.545
X63.414 Z4.252
X63.53 Z3.955
X63.637 Z3.659
X63.736 Z3.357
X63.824 Z3.059
X63.903 Z2.764
X63.973 Z2.475
X64.036 Z2.178
X64.092 Z1.868
X64.14 Z1.562
X64.184 Z1.209
X64.234 Z0.59
X64.242 Z0.25
X64.141 Y22.93
X64.039 Y23.119
X63.936 Y23.306
X63.829 Y23.492
X63.818 Z0.6
X63.771 Z1.175
X63.728 Z1.521
X63.678 Z1.838
X63.619 Z2.153
X63.541 Z2.509
X63.435 Z2.92
X63.34 Z3.24
X63.241 Z3.54
X63.138 Z3.826
X63.028 Z4.107
X62.907 Z4.393
X62.778 Z4.675
X62.64 Z4.953
X62.491 Z5.236
X62.335 Z5.51
X62.17 Z5.782
X61.995 Z6.053
X61.81 Z6.322
X61.62 Z6.581
X61.416 Z6.844
X61.206 Z7.097
X60.885 Z7.458
X60.563 Z7.788
X60.308 Z8.032
X60.053 Z8.261
X59.798 Z8.477
X59.535 Z8.687
X59.261 Z8.892
X58.98 Z9.09
X58.699 Z9.277
X58.409 Z9.457
X58.105 Z9.633
X57.803 Z9.797
X57.491 Z9.955
X57.174 Z10.104
X56.85 Z10.245
X56.52 Z10.378
X56.18 Z10.503
X55.841 Z10.617
X55.49 Z10.724
X55.149 Z10.819
X54.792 Z10.906
X54.419 Z10.987
X54.053 Z11.056
X53.66 Z11.117
X53.296 Z11.165
X53.019 Z11.193
X52.371 Z11.241
X51.667 Z11.258
X50.926 Z11.236
X50.219 Z11.18
X49.775 Z11.125
X49.394 Z11.066
X48.983 Z10.99
X48.683 Z10.926
X48.227 Z10.817
X47.718 Z10.672
X47.208 Z10.505
X46.706 Z10.316
X46.224 Z10.11
X45.751 Z9.884
X45.292 Z9.641
X44.844 Z9.377
X44.416 Z9.099
X43.998 Z8.8
X43.6 Z8.489
X43.218 Z8.162
X42.85 Z7.817
X42.505 Z7.463
X42.178 Z7.097
X41.872 Z6.722
X41.58 Z6.33
X41.307 Z5.928
X41.052 Z5.515
X40.82 Z5.099
X40.604 Z4.668
X40.414 Z4.246
X40.24 Z3.811
X40.088 Z3.376
X39.956 Z2.943
X39.841 Z2.499
X39.748 Z2.067
X39.674 Z1.639
X39.618 Z1.218
X39.577 Z0.773
X39.556 Z0.415
X39.553 Z0.25
X39.663 Y23.681
X39.773 Y23.869
X39.886 Y24.056
X40.001 Y24.242
X40.006 Z0.411
X40.021 Z0.699
X40.065 Z1.183
X40.118 Z1.574
X40.18 Z1.946
X40.288 Z2.446
X40.391 Z2.836
X40.498 Z3.194
X40.669 Z3.684
X40.839 Z4.105
X40.987 Z4.437
X41.219 Z4.903
X41.457 Z5.327
X41.671 Z5.675
X41.939 Z6.071
X42.242 Z6.477
X42.528 Z6.827
X42.844 Z7.181
X43.191 Z7.537
X43.542 Z7.866
X43.896 Z8.17
X44.279 Z8.47
X44.679 Z8.756
X45.096 Z9.027
X45.526 Z9.281
X45.972 Z9.518
X46.43 Z9.737
X46.896 Z9.936
X47.38 Z10.118
X47.869 Z10.279
X48.368 Z10.421
X48.798 Z10.524
X49.111 Z10.591
X49.477 Z10.659
X49.852 Z10.717
X50.271 Z10.769
X50.963 Z10.825
X51.65 Z10.844
X52.341 Z10.829
X53.09 Z10.771
X53.528 Z10.717
X53.912 Z10.658
X54.281 Z10.59
X54.632 Z10.515
X54.99 Z10.427
X55.323 Z10.336
X55.656 Z10.235
X55.997 Z10.12
X56.319 Z10.002
X56.635 Z9.876
X56.952 Z9.738
X57.256 Z9.595
X57.563 Z9.441
X57.859 Z9.281
X58.151 Z9.111
X58.441 Z8.931
X58.733 Z8.737
X59.087 Z8.485
X59.476 Z8.18
X59.719 Z7.974
X59.961 Z7.757
X60.192 Z7.538
X60.419 Z7.308
X60.629 Z7.085
X60.829 Z6.858
X61.032 Z6.615
X61.211 Z6.387
X61.417 Z6.111
X61.581 Z5.873
X61.785 Z5.561
X61.97 Z5.253
X62.172 Z4.89
X62.372 Z4.489
X62.499 Z4.214
X62.683 Z3.768
X62.802 Z3.441
X62.904 Z3.137
X63.045 Z2.651
X63.117 Z2.353
X63.21 Z1.915
X63.281 Z1.476
X63.323 Z1.159
X63.37 Z0.604
X63.381 Z0.25
X63.292 Y24.4
X63.278 Y24.472
X63.337 Y24.513
X64. Y24.845 Z0.251
X64.131 Y24.913
X64.253 Y24.992
X64.234 Z0.747
X64.172 Z1.416
X64.07 Z2.092
X63.928 Z2.758
X63.749 Z3.415
X63.531 Z4.059
X63.276 Z4.691
X62.985 Z5.307
X62.658 Z5.904
X62.297 Z6.482
X61.905 Z7.036
X61.481 Z7.566
X61.024 Z8.073
X60.541 Z8.551
X60.031 Z8.999
X59.494 Z9.419
X58.936 Z9.805
X58.353 Z10.16
X57.756 Z10.478
X57.137 Z10.763
X56.502 Z11.01
X55.856 Z11.221
X55.201 Z11.392
X54.53 Z11.527
X53.871 Z11.621
X53.213 Z11.676
X52.505 Z11.695
X50.673 Z11.691
X50.078 Z11.67
X49.396 Z11.606
X48.723 Z11.504
X48.058 Z11.363
X47.402 Z11.183
X46.759 Z10.966
X46.127 Z10.711
X45.512 Z10.42
X44.915 Z10.093
X44.338 Z9.732
X43.784 Z9.34
X43.252 Z8.915
X42.747 Z8.46
X42.269 Z7.977
X41.819 Z7.465
X41.401 Z6.93
X41.013 Z6.37
X40.661 Z5.791
X40.341 Z5.19
X40.056 Z4.571
X39.809 Z3.938
X39.599 Z3.292
X39.426 Z2.631
X39.293 Z1.967
X39.198 Z1.295
X39.143 Z0.653
X39.131 Z0.25
X38.949 Y25.146 Z0.252
X38.796 Y25.323 Z0.255
X38.673 Y25.521 Z0.257
X38.58 Y25.742 Z0.259
X38.592 Z0.654
X38.646 Z1.295
X38.741 Z1.967
X38.874 Z2.631
X39.047 Z3.292
X39.257 Z3.938
X39.505 Z4.571
X39.789 Z5.19
X40.109 Z5.791
X40.462 Z6.37
X40.849 Z6.93
X41.267 Z7.465
X41.718 Z7.977
X42.195 Z8.46
X42.7 Z8.915
X43.232 Z9.34
X43.786 Z9.732
X44.363 Z10.093
X44.961 Z10.42
X45.575 Z10.711
X46.208 Z10.966
X46.851 Z11.183
X47.507 Z11.363
X48.172 Z11.504
X48.844 Z11.606
X49.527 Z11.67
X50.146 Z11.691
X53.056 Z11.695
X53.764 Z11.676
X54.422 Z11.621
X55.081 Z11.527
X55.752 Z11.392
X56.407 Z11.221
X57.054 Z11.011
X57.688 Z10.763
X58.307 Z10.478
X58.905 Z10.16
X59.487 Z9.806
X60.045 Z9.419
X60.583 Z9.
X61.092 Z8.551
X61.577 Z8.072
X62.032 Z7.566
X62.456 Z7.037
X62.85 Z6.48
X63.211 Z5.902
X63.536 Z5.307
X63.827 Z4.692
X64.082 Z4.06
X64.3 Z3.416
X64.48 Z2.759
X64.621 Z2.094
X64.724 Z1.419
X64.786 Z0.751
X64.804 Z0.25
X64.853 Y25.927
X64.877 Y26.113
Y26.302
X64.853 Y26.491
X64.836 Z0.742
X64.772 Z1.425
X64.671 Z2.091
X64.529 Z2.757
X64.35 Z3.414
X64.131 Z4.062
X63.877 Z4.691
X63.586 Z5.306
X63.259 Z5.904
X62.899 Z6.481
X62.506 Z7.035
X62.08 Z7.567
X61.625 Z8.073
X61.142 Z8.551
X60.633 Z8.999
X60.095 Z9.419
X59.537 Z9.805
X58.955 Z10.159
X58.354 Z10.479
X57.738 Z10.762
X57.104 Z11.01
X56.46 Z11.22
X55.801 Z11.393
X55.132 Z11.527
X54.463 Z11.621
X53.788 Z11.677
X53.131 Z11.695
X50.097 Z11.691
X49.476 Z11.67
X48.793 Z11.606
X48.121 Z11.504
X47.456 Z11.362
X46.805 Z11.184
X46.157 Z10.965
X45.528 Z10.711
X44.913 Z10.42
X44.315 Z10.094
X43.738 Z9.734
X43.182 Z9.339
X42.652 Z8.916
X42.147 Z8.461
X41.667 Z7.976
X41.219 Z7.466
X40.799 Z6.929
X40.413 Z6.371
X40.059 Z5.789
X39.739 Z5.189
X39.456 Z4.573
X39.209 Z3.94
X38.997 Z3.289
X38.826 Z2.635
X38.693 Z1.973
X38.598 Z1.304
X38.542 Z0.629
X38.531 Z0.25
X38.583 Y26.69 Z0.253
X38.66 Y26.877 Z0.256
X38.751 Y27.059 Z0.259
X38.842 Y27.241 Z0.262
X38.848 Z0.472
X38.863 Z0.754
X38.912 Z1.31
X38.978 Z1.783
X39.037 Z2.132
X39.144 Z2.639
X39.287 Z3.184
X39.415 Z3.598
X39.545 Z3.975
X39.763 Z4.524
X39.995 Z5.032
X40.165 Z5.369
X40.395 Z5.788
X40.722 Z6.32
X41.038 Z6.779
X41.223 Z7.028
X41.564 Z7.454
X42.002 Z7.948
X42.496 Z8.443
X43.008 Z8.901
X43.553 Z9.334
X44.107 Z9.724
X44.698 Z10.094
X45.296 Z10.42
X45.911 Z10.711
X46.54 Z10.965
X47.188 Z11.184
X47.839 Z11.362
X48.504 Z11.504
X49.177 Z11.606
X49.859 Z11.67
X50.485 Z11.692
X52.722 Z11.695
X53.43 Z11.676
X54.087 Z11.621
X54.757 Z11.526
X55.418 Z11.392
X56.073 Z11.221
X56.719 Z11.011
X57.353 Z10.763
X57.973 Z10.478
X58.573 Z10.159
X59.192 Z9.782
X59.776 Z9.375
X60.337 Z8.934
X60.864 Z8.466
X61.339 Z7.993
X61.605 Z7.7
X61.851 Z7.418
X62.252 Z6.909
X62.625 Z6.377
X62.871 Z5.985
X63.025 Z5.723
X63.203 Z5.4
X63.341 Z5.129
X63.494 Z4.808
X63.626 Z4.509
X63.75 Z4.206
X63.866 Z3.895
X63.966 Z3.608
X64.073 Z3.261
X64.15 Z2.991
X64.247 Z2.605
X64.304 Z2.345
X64.399 Z1.835
X64.475 Z1.275
X64.525 Z0.688
X64.541 Z0.25
X64.446 Y27.428
X64.355 Y27.616
X64.263 Y27.803
X64.171 Y27.991
X64.159 Z0.627
X64.114 Z1.179
X64.037 Z1.759
X63.925 Z2.355
X63.78 Z2.948
X63.598 Z3.544
X63.379 Z4.14
X63.126 Z4.725
X62.833 Z5.307
X62.501 Z5.882
X62.298 Z6.197
X62.106 Z6.477
X61.909 Z6.745
X61.704 Z7.009
X61.491 Z7.267
X61.268 Z7.521
X61.039 Z7.767
X60.796 Z8.013
X60.549 Z8.249
X60.294 Z8.478
X60.031 Z8.701
X59.763 Z8.915
X59.489 Z9.12
X59.198 Z9.325
X58.906 Z9.519
X58.644 Z9.681
X58.057 Z10.016
X57.422 Z10.33
X56.754 Z10.615
X56.058 Z10.866
X55.388 Z11.066
X54.787 Z11.215
X54.376 Z11.298
X53.962 Z11.373
X53.381 Z11.453
X53.041 Z11.488
X52.438 Z11.534
X51.715 Z11.553
X50.912 Z11.532
X50.19 Z11.474
X49.681 Z11.411
X49.288 Z11.35
X48.748 Z11.247
X48.315 Z11.149
X47.958 Z11.054
X47.583 Z10.947
X47.064 Z10.776
X46.539 Z10.578
X46.043 Z10.367
X45.563 Z10.138
X45.092 Z9.887
X44.639 Z9.62
X44.199 Z9.335
X43.777 Z9.033
X43.369 Z8.714
X42.977 Z8.378
X42.6 Z8.025
X42.244 Z7.661
X41.907 Z7.283
X41.588 Z6.893
X41.289 Z6.491
X41.009 Z6.079
X40.747 Z5.655
X40.508 Z5.227
X40.292 Z4.796
X40.092 Z4.352
X39.916 Z3.909
X39.76 Z3.466
X39.626 Z3.024
X39.508 Z2.569
X39.412 Z2.124
X39.335 Z1.678
X39.279 Z1.259
X39.237 Z0.823
X39.214 Z0.407
X39.211 Z0.25
X39.387 Y28.366
X39.475 Y28.553
X39.561 Y28.741
X39.564 Z0.403
X39.584 Z0.766
X39.625 Z1.214
X39.681 Z1.632
X39.755 Z2.059
X39.848 Z2.488
X39.96 Z2.919
X40.091 Z3.352
X40.241 Z3.778
X40.414 Z4.213
X40.604 Z4.634
X40.814 Z5.053
X41.046 Z5.469
X41.297 Z5.876
X41.567 Z6.274
X41.856 Z6.661
X42.163 Z7.037
X42.489 Z7.402
X42.837 Z7.759
X43.205 Z8.104
X43.582 Z8.427
X43.976 Z8.735
X44.388 Z9.029
X44.811 Z9.304
X45.254 Z9.565
X45.707 Z9.807
X46.179 Z10.032
X46.661 Z10.237
X47.155 Z10.423
X47.663 Z10.59
X48.182 Z10.737
X48.726 Z10.867
X49.465 Z11.006
X50.193 Z11.103
X50.941 Z11.163
X51.721 Z11.182
X52.376 Z11.166
X53.115 Z11.111
X53.85 Z11.017
X54.585 Z10.883
X55.29 Z10.714
X55.972 Z10.511
X56.639 Z10.271
X57.281 Z9.998
X57.904 Z9.689
X58.468 Z9.368
X58.724 Z9.209
X59.007 Z9.022
X59.282 Z8.828
X59.551 Z8.626
X59.811 Z8.42
X60.065 Z8.204
X60.312 Z7.983
X60.558 Z7.748
X60.789 Z7.514
X61.01 Z7.277
X61.226 Z7.032
X61.431 Z6.784
X61.632 Z6.526
X61.821 Z6.268
X62.01 Z5.993
X62.206 Z5.689
X62.529 Z5.131
X62.811 Z4.569
X63.058 Z4.
X63.267 Z3.429
X63.442 Z2.854
X63.584 Z2.276
X63.691 Z1.712
X63.768 Z1.136
X63.812 Z0.58
X63.822 Z0.25
